(G-CODE GENERATED BY FLATCAM v8.994 - www.flatcam.org - Version Date: 2020/11/7)

(Name: Gerber_BottomLayer.GBL_iso_combined_cnc)
(Type: G-code from Geometry)
(Units: MM)

(Created on Thursday, 04 March 2021 at 11:46)

(This preprocessor is the default preprocessor used by FlatCAM.)
(It is made to work with MACH3 compatible motion controllers.)

(TOOL DIAMETER: 0.3804 mm)
(Feedrate_XY: 120.0 mm/min)
(Feedrate_Z: 60.0 mm/min)
(Feedrate rapids 1500.0 mm/min)

(Z_Cut: -0.15 mm)
(Z_Move: 2.0 mm)
(Z Start: None mm)
(Z End: 15.0 mm)
(X,Y End: None mm)
(Steps per circle: 64)
(Preprocessor Geometry: default)

(X range:    0.3118 ...   84.7762  mm)
(Y range:    0.3118 ...   49.6872  mm)

(Spindle Speed: 0.0 RPM)
G21
G90
G94

G01 F120.00

M5
G00 Z15.0000
G00 X0.0000 Y0.0000
T2
M6    
(MSG, Change to Tool Dia = 0.3804)
M0
G00 Z15.0000

M03
G01 F120.00
G00 X4.0527 Y2.4381
G01 F60.00
G01 Z-0.1500
G01 F120.00
G01 X4.1063 Y2.4408
G01 X4.1599 Y2.4453
G01 X4.2124 Y2.4515
G01 X4.2652 Y2.4596
G01 X4.3166 Y2.4691
G01 X4.3688 Y2.4815
G01 X4.4210 Y2.4953
G01 X4.4727 Y2.5104
G01 X4.5226 Y2.5273
G01 X4.5734 Y2.5461
G01 X4.6213 Y2.5661
G01 X4.6708 Y2.5890
G01 X4.7190 Y2.6122
G01 X4.7651 Y2.6374
G01 X4.8112 Y2.6646
G01 X4.8573 Y2.6935
G01 X4.9005 Y2.7226
G01 X4.9430 Y2.7538
G01 X4.9839 Y2.7867
G01 X5.0263 Y2.8226
G01 X5.0672 Y2.8589
G01 X5.1045 Y2.8945
G01 X5.1401 Y2.9318
G01 X5.1764 Y2.9727
G01 X5.2123 Y3.0151
G01 X5.2452 Y3.0560
G01 X5.2764 Y3.0985
G01 X5.3055 Y3.1417
G01 X5.3344 Y3.1878
G01 X5.3609 Y3.2327
G01 X5.3858 Y3.2800
G01 X5.4106 Y3.3295
G01 X5.4329 Y3.3777
G01 X5.4529 Y3.4256
G01 X5.4717 Y3.4764
G01 X5.4886 Y3.5263
G01 X5.5037 Y3.5780
G01 X5.5175 Y3.6302
G01 X5.5299 Y3.6824
G01 X5.5394 Y3.7338
G01 X5.5475 Y3.7866
G01 X5.5537 Y3.8391
G01 X5.5582 Y3.8927
G01 X5.5609 Y3.9464
G01 X5.5618 Y3.9990
G01 X5.5609 Y4.0527
G01 X5.5582 Y4.1063
G01 X5.5537 Y4.1599
G01 X5.5475 Y4.2124
G01 X5.5394 Y4.2652
G01 X5.5299 Y4.3166
G01 X5.5175 Y4.3688
G01 X5.5037 Y4.4210
G01 X5.4886 Y4.4727
G01 X5.4717 Y4.5226
G01 X5.4529 Y4.5734
G01 X5.4329 Y4.6213
G01 X5.4106 Y4.6695
G01 X5.3858 Y4.7190
G01 X5.3609 Y4.7663
G01 X5.3344 Y4.8112
G01 X5.3055 Y4.8573
G01 X5.2764 Y4.9005
G01 X5.2452 Y4.9430
G01 X5.2123 Y4.9839
G01 X5.1764 Y5.0263
G01 X5.1401 Y5.0672
G01 X5.1045 Y5.1045
G01 X5.0672 Y5.1401
G01 X5.0263 Y5.1764
G01 X4.9839 Y5.2123
G01 X4.9430 Y5.2452
G01 X4.9005 Y5.2764
G01 X4.8573 Y5.3055
G01 X4.8112 Y5.3344
G01 X4.7663 Y5.3609
G01 X4.7190 Y5.3858
G01 X4.6695 Y5.4106
G01 X4.6213 Y5.4329
G01 X4.5734 Y5.4529
G01 X4.5226 Y5.4717
G01 X4.4727 Y5.4886
G01 X4.4210 Y5.5037
G01 X4.3688 Y5.5175
G01 X4.3166 Y5.5299
G01 X4.2652 Y5.5394
G01 X4.2124 Y5.5475
G01 X4.1599 Y5.5537
G01 X4.1063 Y5.5582
G01 X4.0527 Y5.5609
G01 X3.9990 Y5.5618
G01 X3.9464 Y5.5609
G01 X3.8927 Y5.5582
G01 X3.8391 Y5.5537
G01 X3.7866 Y5.5475
G01 X3.7338 Y5.5394
G01 X3.6824 Y5.5299
G01 X3.6302 Y5.5175
G01 X3.5780 Y5.5037
G01 X3.5263 Y5.4886
G01 X3.4764 Y5.4717
G01 X3.4256 Y5.4529
G01 X3.3777 Y5.4329
G01 X3.3295 Y5.4106
G01 X3.2800 Y5.3858
G01 X3.2327 Y5.3609
G01 X3.1878 Y5.3344
G01 X3.1417 Y5.3055
G01 X3.0985 Y5.2764
G01 X3.0560 Y5.2452
G01 X3.0151 Y5.2123
G01 X2.9727 Y5.1764
G01 X2.9318 Y5.1401
G01 X2.8945 Y5.1045
G01 X2.8589 Y5.0672
G01 X2.8226 Y5.0263
G01 X2.7867 Y4.9839
G01 X2.7538 Y4.9430
G01 X2.7226 Y4.9005
G01 X2.6935 Y4.8573
G01 X2.6646 Y4.8112
G01 X2.6374 Y4.7651
G01 X2.6122 Y4.7190
G01 X2.5890 Y4.6708
G01 X2.5661 Y4.6213
G01 X2.5461 Y4.5734
G01 X2.5273 Y4.5226
G01 X2.5104 Y4.4727
G01 X2.4953 Y4.4210
G01 X2.4815 Y4.3688
G01 X2.4691 Y4.3166
G01 X2.4596 Y4.2652
G01 X2.4515 Y4.2124
G01 X2.4453 Y4.1599
G01 X2.4408 Y4.1063
G01 X2.4381 Y4.0527
G01 X2.4372 Y3.9990
G01 X2.4381 Y3.9464
G01 X2.4408 Y3.8927
G01 X2.4453 Y3.8391
G01 X2.4515 Y3.7866
G01 X2.4596 Y3.7338
G01 X2.4691 Y3.6824
G01 X2.4815 Y3.6302
G01 X2.4953 Y3.5780
G01 X2.5104 Y3.5263
G01 X2.5273 Y3.4764
G01 X2.5461 Y3.4256
G01 X2.5661 Y3.3777
G01 X2.5890 Y3.3282
G01 X2.6122 Y3.2800
G01 X2.6374 Y3.2339
G01 X2.6646 Y3.1878
G01 X2.6935 Y3.1417
G01 X2.7226 Y3.0985
G01 X2.7538 Y3.0560
G01 X2.7867 Y3.0151
G01 X2.8226 Y2.9727
G01 X2.8589 Y2.9318
G01 X2.8945 Y2.8945
G01 X2.9318 Y2.8589
G01 X2.9727 Y2.8226
G01 X3.0151 Y2.7867
G01 X3.0560 Y2.7538
G01 X3.0985 Y2.7226
G01 X3.1417 Y2.6935
G01 X3.1878 Y2.6646
G01 X3.2339 Y2.6374
G01 X3.2800 Y2.6122
G01 X3.3282 Y2.5890
G01 X3.3777 Y2.5661
G01 X3.4256 Y2.5461
G01 X3.4764 Y2.5273
G01 X3.5263 Y2.5104
G01 X3.5780 Y2.4953
G01 X3.6302 Y2.4815
G01 X3.6824 Y2.4691
G01 X3.7338 Y2.4596
G01 X3.7866 Y2.4515
G01 X3.8391 Y2.4453
G01 X3.8927 Y2.4408
G01 X3.9464 Y2.4381
G01 X3.9990 Y2.4372
G01 X4.0527 Y2.4381
G00 Z2.0000
G00 X8.2998 Y4.4891
G01 F60.00
G01 Z-0.1500
G01 F120.00
G01 X8.3457 Y4.4917
G01 X8.3896 Y4.4958
G01 X8.4329 Y4.5025
G01 X8.4803 Y4.5114
G01 X8.5221 Y4.5204
G01 X8.6097 Y4.5462
G01 X8.6943 Y4.5796
G01 X8.7341 Y4.5982
G01 X8.7756 Y4.6190
G01 X8.8139 Y4.6406
G01 X8.8534 Y4.6652
G01 X8.8899 Y4.6892
G01 X8.9256 Y4.7164
G01 X8.9616 Y4.7447
G01 X8.9940 Y4.7738
G01 X9.0284 Y4.8064
G01 X9.0600 Y4.8389
G01 X9.0890 Y4.8712
G01 X9.1172 Y4.9063
G01 X9.1456 Y4.9434
G01 X9.1719 Y4.9809
G01 X9.1957 Y5.0182
G01 X9.2181 Y5.0565
G01 X9.2385 Y5.0964
G01 X9.2625 Y5.1462
G01 X9.2737 Y5.1671
G01 X9.2807 Y5.1785
G01 X9.2941 Y5.1982
G01 X9.3029 Y5.2092
G01 X9.3094 Y5.2163
G01 X9.3088 Y5.2317
G01 X9.3092 Y5.2450
G01 X9.3136 Y5.2844
G01 X9.3161 Y5.2980
G01 X9.3292 Y5.3529
G01 X9.3386 Y5.3996
G01 X9.3453 Y5.4451
G01 X9.3504 Y5.4923
G01 X9.3530 Y5.5406
G01 X9.3547 Y5.5873
G01 X9.3530 Y5.6375
G01 X9.3495 Y5.6896
G01 X9.3437 Y5.7401
G01 X9.3350 Y5.7911
G01 X9.3228 Y5.8515
G01 X9.3184 Y5.8834
G01 X9.3174 Y5.8932
G01 X9.3169 Y5.9031
G01 X9.3170 Y5.9520
G01 X9.3187 Y5.9753
G01 X9.3206 Y5.9896
G01 X9.3265 Y6.0183
G01 X9.3290 Y6.0272
G01 X9.3335 Y6.0403
G01 X9.3403 Y6.0578
G01 X9.3442 Y6.0666
G01 X9.3578 Y6.0923
G01 X9.3680 Y6.1083
G01 X9.3840 Y6.1295
G01 X9.3680 Y6.1507
G01 X9.3578 Y6.1667
G01 X9.3442 Y6.1924
G01 X9.3369 Y6.2100
G01 X9.3303 Y6.2288
G01 X9.3274 Y6.2384
G01 X9.3211 Y6.2665
G01 X9.3187 Y6.2840
G01 X9.3170 Y6.3070
G01 X9.3168 Y6.3160
G01 X9.3168 Y15.3880
G01 X9.3172 Y15.3999
G01 X9.3185 Y15.4208
G01 X9.3197 Y15.4307
G01 X9.3223 Y15.4453
G01 X9.3275 Y15.4661
G01 X9.3310 Y15.4785
G01 X9.3354 Y15.4906
G01 X9.3452 Y15.5144
G01 X9.3493 Y15.5229
G01 X9.3564 Y15.5353
G01 X9.3731 Y15.5597
G01 X9.3782 Y15.5665
G01 X9.3909 Y15.5818
G01 X9.4025 Y15.5945
G01 X16.9885 Y23.1804
G01 X17.0068 Y23.1972
G01 X17.0138 Y23.2030
G01 X17.0247 Y23.2111
G01 X17.0323 Y23.2160
G01 X17.0493 Y23.2264
G01 X17.0616 Y23.2329
G01 X17.0932 Y23.2465
G01 X17.1026 Y23.2496
G01 X17.1169 Y23.2535
G01 X17.2424 Y23.2800
G01 X17.2903 Y23.2928
G01 X17.3368 Y23.3072
G01 X17.3845 Y23.3248
G01 X17.4330 Y23.3437
G01 X17.4770 Y23.3631
G01 X17.5230 Y23.3861
G01 X17.5668 Y23.4093
G01 X17.6095 Y23.4355
G01 X17.6534 Y23.4633
G01 X17.6948 Y23.4923
G01 X17.7342 Y23.5214
G01 X17.7726 Y23.5538
G01 X17.8113 Y23.5872
G01 X17.8465 Y23.6215
G01 X17.8834 Y23.6593
G01 X19.6532 Y25.5569
G01 X19.6878 Y25.5960
G01 X19.7191 Y25.6335
G01 X19.7494 Y25.6736
G01 X19.7788 Y25.7137
G01 X19.8047 Y25.7529
G01 X19.8306 Y25.7966
G01 X19.8552 Y25.8398
G01 X19.8766 Y25.8824
G01 X19.8976 Y25.9281
G01 X19.9160 Y25.9728
G01 X19.9337 Y26.0197
G01 X19.9490 Y26.0656
G01 X19.9622 Y26.1129
G01 X19.9749 Y26.1627
G01 X19.9850 Y26.2094
G01 X19.9927 Y26.2571
G01 X19.9991 Y26.3070
G01 X20.0043 Y26.3571
G01 X20.0069 Y26.4048
G01 X20.0078 Y26.4540
G01 X20.0069 Y26.5033
G01 X20.0043 Y26.5519
G01 X19.9991 Y26.6009
G01 X19.9927 Y26.6509
G01 X19.9850 Y26.6986
G01 X19.9746 Y26.7465
G01 X19.9629 Y26.7953
G01 X19.9502 Y26.8409
G01 X19.9349 Y26.8858
G01 X19.9168 Y26.9338
G01 X19.8986 Y26.9788
G01 X19.8775 Y27.0236
G01 X19.8556 Y27.0684
G01 X19.8323 Y27.1099
G01 X19.8067 Y27.1531
G01 X19.7803 Y27.1932
G01 X19.7514 Y27.2334
G01 X19.7211 Y27.2726
G01 X19.6897 Y27.3110
G01 X19.6575 Y27.3467
G01 X19.6227 Y27.3833
G01 X19.5886 Y27.4166
G01 X19.5519 Y27.4489
G01 X19.5146 Y27.4793
G01 X19.4734 Y27.5104
G01 X19.4333 Y27.5398
G01 X19.3934 Y27.5662
G01 X19.3526 Y27.5908
G01 X19.3093 Y27.6142
G01 X19.2640 Y27.6369
G01 X19.2193 Y27.6579
G01 X19.1767 Y27.6754
G01 X19.1298 Y27.6922
G01 X19.0804 Y27.7087
G01 X19.0356 Y27.7222
G01 X18.9878 Y27.7335
G01 X18.9396 Y27.7440
G01 X18.8902 Y27.7520
G01 X18.8418 Y27.7590
G01 X18.7945 Y27.7633
G01 X18.7452 Y27.7659
G01 X18.6951 Y27.7668
G01 X18.6468 Y27.7659
G01 X18.5975 Y27.7633
G01 X18.5483 Y27.7589
G01 X18.5008 Y27.7529
G01 X18.4527 Y27.7442
G01 X18.4046 Y27.7345
G01 X18.3573 Y27.7223
G01 X18.3101 Y27.7092
G01 X18.2637 Y27.6934
G01 X18.2172 Y27.6768
G01 X18.1722 Y27.6577
G01 X18.1267 Y27.6372
G01 X18.0835 Y27.6156
G01 X18.0411 Y27.5922
G01 X17.9984 Y27.5664
G01 X17.9577 Y27.5405
G01 X17.9186 Y27.5124
G01 X17.8792 Y27.4820
G01 X17.8419 Y27.4516
G01 X17.8054 Y27.4186
G01 X17.7696 Y27.3845
G01 X17.7355 Y27.3486
G01 X15.9644 Y25.4508
G01 X15.9284 Y25.4092
G01 X15.8931 Y25.3676
G01 X15.8627 Y25.3279
G01 X15.8333 Y25.2855
G01 X15.8051 Y25.2415
G01 X15.7784 Y25.1961
G01 X15.7536 Y25.1507
G01 X15.7322 Y25.1054
G01 X15.7105 Y25.0556
G01 X15.6911 Y25.0072
G01 X15.6738 Y24.9579
G01 X15.6567 Y24.9017
G01 X15.6477 Y24.8761
G01 X15.6439 Y24.8670
G01 X15.6397 Y24.8582
G01 X15.6351 Y24.8495
G01 X15.6185 Y24.8234
G01 X15.6133 Y24.8161
G01 X15.5996 Y24.7985
G01 X15.5877 Y24.7848
G01 X7.5044 Y16.7014
G01 X7.4720 Y16.6681
G01 X7.4432 Y16.6360
G01 X7.4168 Y16.6031
G01 X7.3904 Y16.5673
G01 X7.3654 Y16.5302
G01 X7.3419 Y16.4928
G01 X7.3202 Y16.4551
G01 X7.2995 Y16.4147
G01 X7.2814 Y16.3769
G01 X7.2657 Y16.3372
G01 X7.2497 Y16.2937
G01 X7.2361 Y16.2518
G01 X7.2247 Y16.2113
G01 X7.2153 Y16.1676
G01 X7.2063 Y16.1220
G01 X7.1998 Y16.0800
G01 X7.1957 Y16.0382
G01 X7.1931 Y15.9937
G01 X7.1922 Y15.9472
G01 X7.1922 Y5.9080
G01 X7.1919 Y5.8981
G01 X7.1912 Y5.8883
G01 X7.1870 Y5.8559
G01 X7.1740 Y5.7911
G01 X7.1653 Y5.7401
G01 X7.1595 Y5.6896
G01 X7.1561 Y5.6391
G01 X7.1552 Y5.5873
G01 X7.1561 Y5.5433
G01 X7.1587 Y5.4986
G01 X7.1630 Y5.4540
G01 X7.1687 Y5.4119
G01 X7.1773 Y5.3674
G01 X7.1871 Y5.3229
G01 X7.1978 Y5.2811
G01 X7.2107 Y5.2413
G01 X7.2267 Y5.1978
G01 X7.2436 Y5.1551
G01 X7.2613 Y5.1147
G01 X7.2807 Y5.0760
G01 X7.3017 Y5.0372
G01 X7.3245 Y5.0001
G01 X7.3498 Y4.9616
G01 X7.3748 Y4.9268
G01 X7.4018 Y4.8930
G01 X7.4315 Y4.8581
G01 X7.4613 Y4.8257
G01 X7.4927 Y4.7943
G01 X7.5251 Y4.7645
G01 X7.5600 Y4.7348
G01 X7.5938 Y4.7078
G01 X7.6286 Y4.6828
G01 X7.6671 Y4.6575
G01 X7.7042 Y4.6347
G01 X7.7430 Y4.6137
G01 X7.7817 Y4.5943
G01 X7.8221 Y4.5766
G01 X7.8648 Y4.5597
G01 X7.9083 Y4.5437
G01 X7.9481 Y4.5308
G01 X7.9899 Y4.5201
G01 X8.0344 Y4.5103
G01 X8.0789 Y4.5017
G01 X8.1210 Y4.4960
G01 X8.1656 Y4.4917
G01 X8.2103 Y4.4891
G01 X8.2550 Y4.4882
G01 X8.2998 Y4.4891
G00 Z2.0000
G00 X9.9057 Y4.9398
G01 F60.00
G01 Z-0.1500
G01 F120.00
G01 X9.9326 Y4.9036
G01 X9.9602 Y4.8703
G01 X9.9910 Y4.8369
G01 X10.0245 Y4.8025
G01 X10.0563 Y4.7715
G01 X10.1275 Y4.7125
G01 X10.1468 Y4.6986
G01 X10.1468 Y4.8564
G01 X10.1037 Y4.8957
G01 X10.0635 Y4.9398
G01 X9.9057 Y4.9398
G00 Z2.0000
G00 X9.9061 Y6.2352
G01 F60.00
G01 Z-0.1500
G01 F120.00
G01 X10.0644 Y6.2352
G01 X10.1037 Y6.2783
G01 X10.1468 Y6.3176
G01 X10.1468 Y6.4763
G01 X10.1284 Y6.4630
G01 X10.0935 Y6.4355
G01 X10.0592 Y6.4055
G01 X10.0257 Y6.3747
G01 X9.9950 Y6.3431
G01 X9.9650 Y6.3097
G01 X9.9359 Y6.2746
G01 X9.9061 Y6.2352
G00 Z2.0000
G00 X11.5256 Y6.2352
G01 F60.00
G01 Z-0.1500
G01 F120.00
G01 X11.6835 Y6.2352
G01 X11.6767 Y6.2448
G01 X11.6486 Y6.2798
G01 X11.6197 Y6.3149
G01 X11.5889 Y6.3482
G01 X11.5592 Y6.3787
G01 X11.5269 Y6.4077
G01 X11.4908 Y6.4384
G01 X11.4560 Y6.4664
G01 X11.4422 Y6.4763
G01 X11.4422 Y6.3185
G01 X11.4863 Y6.2783
G01 X11.5256 Y6.2352
G00 Z2.0000
G00 X12.1394 Y6.1585
G01 F60.00
G01 Z-0.1500
G01 F120.00
G01 X12.1514 Y6.1476
G01 X12.1611 Y6.1375
G01 X12.1701 Y6.1268
G01 X12.1756 Y6.1193
G01 X12.1887 Y6.0998
G01 X12.1933 Y6.0921
G01 X12.2047 Y6.0709
G01 X12.2088 Y6.0622
G01 X12.2191 Y6.0360
G01 X12.2220 Y6.0272
G01 X12.2255 Y6.0138
G01 X12.2305 Y5.9891
G01 X12.2333 Y5.9699
G01 X12.2347 Y5.9565
G01 X12.2352 Y5.9430
G01 X12.2352 Y5.2320
G01 X12.2343 Y5.2140
G01 X12.2305 Y5.1859
G01 X12.2245 Y5.1567
G01 X12.2191 Y5.1390
G01 X12.2107 Y5.1172
G01 X12.2068 Y5.1084
G01 X12.1910 Y5.0791
G01 X12.1729 Y5.0519
G01 X12.1642 Y5.0410
G01 X12.1579 Y5.0340
G01 X12.1514 Y5.0274
G01 X12.1394 Y5.0165
G01 X12.1514 Y5.0056
G01 X12.1611 Y4.9955
G01 X12.1701 Y4.9848
G01 X12.1756 Y4.9773
G01 X12.1893 Y4.9567
G01 X12.2015 Y4.9360
G01 X12.2074 Y4.9242
G01 X12.2141 Y4.9080
G01 X12.2207 Y4.8892
G01 X12.2236 Y4.8796
G01 X12.2260 Y4.8699
G01 X12.2308 Y4.8461
G01 X12.2346 Y4.8161
G01 X12.2359 Y4.7788
G01 X12.2379 Y4.7581
G01 X12.2411 Y4.7366
G01 X12.2448 Y4.7196
G01 X12.2503 Y4.7026
G01 X12.2581 Y4.6826
G01 X12.2677 Y4.6619
G01 X12.2780 Y4.6422
G01 X12.2882 Y4.6252
G01 X12.2989 Y4.6101
G01 X12.3119 Y4.5946
G01 X12.3265 Y4.5787
G01 X12.3415 Y4.5650
G01 X12.3571 Y4.5519
G01 X12.3722 Y4.5412
G01 X12.3892 Y4.5310
G01 X12.4089 Y4.5207
G01 X12.4296 Y4.5111
G01 X12.4496 Y4.5033
G01 X12.4666 Y4.4978
G01 X12.4836 Y4.4941
G01 X12.5051 Y4.4909
G01 X12.5258 Y4.4889
G01 X12.5499 Y4.4882
G01 X14.1191 Y4.4882
G01 X14.1432 Y4.4889
G01 X14.1639 Y4.4909
G01 X14.1854 Y4.4941
G01 X14.2024 Y4.4978
G01 X14.2194 Y4.5033
G01 X14.2394 Y4.5111
G01 X14.2601 Y4.5207
G01 X14.2798 Y4.5310
G01 X14.2968 Y4.5412
G01 X14.3119 Y4.5519
G01 X14.3432 Y4.5788
G01 X14.3701 Y4.6101
G01 X14.3808 Y4.6252
G01 X14.3910 Y4.6422
G01 X14.4013 Y4.6619
G01 X14.4109 Y4.6826
G01 X14.4187 Y4.7026
G01 X14.4242 Y4.7196
G01 X14.4279 Y4.7366
G01 X14.4311 Y4.7581
G01 X14.4333 Y4.7816
G01 X14.4348 Y4.8058
G01 X14.4348 Y6.3691
G01 X14.4334 Y6.3922
G01 X14.4309 Y6.4179
G01 X14.4285 Y6.4368
G01 X14.4254 Y6.4508
G01 X14.4191 Y6.4700
G01 X14.4104 Y6.4939
G01 X14.4033 Y6.5115
G01 X14.3958 Y6.5257
G01 X14.3844 Y6.5444
G01 X14.3734 Y6.5603
G01 X14.3601 Y6.5769
G01 X14.3474 Y6.5914
G01 X14.3336 Y6.6046
G01 X14.3190 Y6.6174
G01 X14.3017 Y6.6300
G01 X14.2608 Y6.6585
G01 X14.2530 Y6.6644
G01 X14.2456 Y6.6708
G01 X14.2385 Y6.6775
G01 X14.2254 Y6.6907
G01 X14.2193 Y6.6974
G01 X14.2108 Y6.7079
G01 X14.1967 Y6.7270
G01 X14.1920 Y6.7344
G01 X14.1804 Y6.7542
G01 X14.1741 Y6.7668
G01 X14.1662 Y6.7851
G01 X14.1609 Y6.7989
G01 X14.1580 Y6.8083
G01 X14.1545 Y6.8227
G01 X14.1498 Y6.8475
G01 X14.1482 Y6.8623
G01 X14.1468 Y6.8858
G01 X14.1470 Y7.1699
G01 X14.1490 Y7.1993
G01 X14.1511 Y7.2132
G01 X14.1531 Y7.2224
G01 X14.1595 Y7.2464
G01 X14.1622 Y7.2551
G01 X14.1750 Y7.2870
G01 X14.1811 Y7.2991
G01 X14.1856 Y7.3070
G01 X14.2023 Y7.3326
G01 X14.2079 Y7.3401
G01 X14.2209 Y7.3558
G01 X14.2325 Y7.3685
G01 X16.6335 Y9.7695
G01 X16.6430 Y9.7783
G01 X16.6656 Y9.7969
G01 X16.6732 Y9.8024
G01 X16.6911 Y9.8140
G01 X16.7069 Y9.8231
G01 X16.7192 Y9.8289
G01 X16.7469 Y9.8398
G01 X16.7556 Y9.8425
G01 X16.7750 Y9.8478
G01 X16.7934 Y9.8517
G01 X16.8074 Y9.8535
G01 X16.8360 Y9.8552
G01 X21.2590 Y9.8552
G01 X21.2709 Y9.8548
G01 X21.2963 Y9.8530
G01 X21.3148 Y9.8500
G01 X21.3434 Y9.8425
G01 X21.3606 Y9.8366
G01 X21.3798 Y9.8289
G01 X21.3881 Y9.8251
G01 X21.4040 Y9.8164
G01 X21.4296 Y9.7997
G01 X21.4371 Y9.7941
G01 X21.4528 Y9.7811
G01 X21.4655 Y9.7695
G01 X22.9805 Y8.2544
G01 X22.9863 Y8.2480
G01 X22.9991 Y8.2328
G01 X23.0077 Y8.2216
G01 X23.0244 Y8.1960
G01 X23.0331 Y8.1801
G01 X23.0369 Y8.1718
G01 X23.0446 Y8.1526
G01 X23.0492 Y8.1398
G01 X23.0569 Y8.1114
G01 X23.0604 Y8.0929
G01 X23.0618 Y8.0789
G01 X23.0632 Y8.0510
G01 X23.0632 Y7.0240
G01 X23.0628 Y7.0113
G01 X23.0614 Y6.9918
G01 X23.0604 Y6.9827
G01 X23.0589 Y6.9736
G01 X23.0550 Y6.9551
G01 X23.0527 Y6.9455
G01 X23.0498 Y6.9360
G01 X23.0397 Y6.9092
G01 X23.0315 Y6.8918
G01 X23.0223 Y6.8748
G01 X23.0176 Y6.8670
G01 X23.0071 Y6.8521
G01 X22.9887 Y6.8301
G01 X22.9725 Y6.8125
G01 X22.9626 Y6.8033
G01 X22.9521 Y6.7948
G01 X22.9365 Y6.7832
G01 X22.9291 Y6.7782
G01 X22.9176 Y6.7713
G01 X22.9057 Y6.7653
G01 X22.8851 Y6.7560
G01 X22.8636 Y6.7478
G01 X22.8495 Y6.7433
G01 X22.8399 Y6.7410
G01 X22.8169 Y6.7363
G01 X22.8032 Y6.7346
G01 X22.7788 Y6.7330
G01 X22.7640 Y6.7329
G01 X22.7380 Y6.7346
G01 X22.7227 Y6.7366
G01 X22.6930 Y6.7427
G01 X22.6834 Y6.7454
G01 X22.6694 Y6.7504
G01 X22.6501 Y6.7582
G01 X22.6375 Y6.7641
G01 X22.6293 Y6.7686
G01 X22.6085 Y6.7814
G01 X22.5938 Y6.7920
G01 X22.5746 Y6.8080
G01 X22.5677 Y6.8144
G01 X22.5579 Y6.8246
G01 X22.5410 Y6.8445
G01 X22.5238 Y6.8659
G01 X22.5086 Y6.8824
G01 X22.4931 Y6.8979
G01 X22.4796 Y6.9093
G01 X22.4628 Y6.9212
G01 X22.4414 Y6.9349
G01 X22.4258 Y6.9441
G01 X22.4108 Y6.9506
G01 X22.3857 Y6.9600
G01 X22.3666 Y6.9665
G01 X22.3487 Y6.9705
G01 X22.3276 Y6.9743
G01 X22.3078 Y6.9760
G01 X22.2822 Y6.9768
G01 X22.0642 Y6.9768
G01 X22.0642 Y6.8542
G01 X22.2907 Y6.8541
G01 X22.3046 Y6.8533
G01 X22.3231 Y6.8505
G01 X22.3412 Y6.8460
G01 X22.3588 Y6.8397
G01 X22.3757 Y6.8317
G01 X22.3878 Y6.8247
G01 X22.4030 Y6.8139
G01 X22.4137 Y6.8049
G01 X22.4269 Y6.7917
G01 X22.4388 Y6.7773
G01 X22.4467 Y6.7658
G01 X22.4537 Y6.7537
G01 X22.4579 Y6.7453
G01 X22.4635 Y6.7324
G01 X22.4680 Y6.7192
G01 X22.4705 Y6.7102
G01 X22.4734 Y6.6965
G01 X22.4753 Y6.6826
G01 X22.4762 Y6.6640
G01 X22.4762 Y6.4280
G01 X22.4989 Y6.4197
G01 X22.5119 Y6.4137
G01 X22.5333 Y6.4022
G01 X22.5493 Y6.3920
G01 X22.5687 Y6.3774
G01 X22.5823 Y6.3656
G01 X22.6020 Y6.3457
G01 X22.6081 Y6.3386
G01 X22.6166 Y6.3274
G01 X22.6303 Y6.3067
G01 X22.6448 Y6.2816
G01 X22.6508 Y6.2689
G01 X22.6586 Y6.2507
G01 X22.6618 Y6.2420
G01 X22.6670 Y6.2243
G01 X22.6727 Y6.1969
G01 X22.6748 Y6.1787
G01 X22.6760 Y6.1593
G01 X22.6762 Y6.1505
G01 X22.6760 Y6.1418
G01 X22.6743 Y6.1190
G01 X22.6719 Y6.1015
G01 X22.6662 Y6.0754
G01 X22.6505 Y6.0195
G01 X22.6393 Y5.9695
G01 X22.6298 Y5.9195
G01 X22.6229 Y5.8684
G01 X22.6175 Y5.8169
G01 X22.6141 Y5.7651
G01 X22.6132 Y5.7140
G01 X22.6141 Y5.6640
G01 X22.6175 Y5.6121
G01 X22.6229 Y5.5606
G01 X22.6298 Y5.5095
G01 X22.6393 Y5.4595
G01 X22.6505 Y5.4095
G01 X22.6671 Y5.3497
G01 X22.6719 Y5.3275
G01 X22.6743 Y5.3100
G01 X22.6760 Y5.2872
G01 X22.6762 Y5.2785
G01 X22.6758 Y5.2653
G01 X22.6739 Y5.2412
G01 X22.6719 Y5.2276
G01 X22.6670 Y5.2047
G01 X22.6646 Y5.1957
G01 X22.6602 Y5.1826
G01 X22.6469 Y5.1516
G01 X22.6426 Y5.1432
G01 X22.6303 Y5.1223
G01 X22.6166 Y5.1016
G01 X22.6081 Y5.0904
G01 X22.5988 Y5.0799
G01 X22.5855 Y5.0665
G01 X22.5790 Y5.0603
G01 X22.5687 Y5.0516
G01 X22.5493 Y5.0370
G01 X22.5374 Y5.0292
G01 X22.5076 Y5.0132
G01 X22.4945 Y5.0075
G01 X22.4762 Y5.0010
G01 X22.4762 Y4.7640
G01 X22.4760 Y4.7547
G01 X22.4748 Y4.7407
G01 X22.4725 Y4.7269
G01 X22.4693 Y4.7133
G01 X22.4651 Y4.6999
G01 X22.4599 Y4.6869
G01 X22.4537 Y4.6743
G01 X22.4491 Y4.6662
G01 X22.4415 Y4.6545
G01 X22.4330 Y4.6433
G01 X22.4237 Y4.6329
G01 X22.4102 Y4.6200
G01 X22.3955 Y4.6085
G01 X22.3838 Y4.6009
G01 X22.3715 Y4.5941
G01 X22.3544 Y4.5865
G01 X22.3412 Y4.5820
G01 X22.3231 Y4.5775
G01 X22.3093 Y4.5752
G01 X22.2907 Y4.5739
G01 X22.0642 Y4.5738
G01 X22.0642 Y4.4522
G01 X22.2822 Y4.4522
G01 X22.3078 Y4.4530
G01 X22.3276 Y4.4547
G01 X22.3459 Y4.4580
G01 X22.3673 Y4.4634
G01 X22.3890 Y4.4700
G01 X22.4074 Y4.4771
G01 X22.4257 Y4.4856
G01 X22.4448 Y4.4962
G01 X22.4631 Y4.5075
G01 X22.4788 Y4.5192
G01 X22.4956 Y4.5334
G01 X22.5111 Y4.5482
G01 X22.5244 Y4.5626
G01 X22.5358 Y4.5775
G01 X22.5481 Y4.5956
G01 X22.5600 Y4.6159
G01 X22.5688 Y4.6324
G01 X22.5784 Y4.6571
G01 X22.5843 Y4.6700
G01 X22.5956 Y4.6909
G01 X22.6022 Y4.7017
G01 X22.6165 Y4.7224
G01 X22.6259 Y4.7342
G01 X22.6453 Y4.7553
G01 X22.6582 Y4.7671
G01 X22.6773 Y4.7828
G01 X22.6923 Y4.7930
G01 X22.7091 Y4.8033
G01 X22.7168 Y4.8075
G01 X22.7247 Y4.8114
G01 X22.7369 Y4.8166
G01 X22.7650 Y4.8264
G01 X22.7940 Y4.8339
G01 X22.8076 Y4.8364
G01 X22.8167 Y4.8374
G01 X22.8465 Y4.8392
G01 X22.8617 Y4.8388
G01 X22.8858 Y4.8369
G01 X22.8994 Y4.8349
G01 X22.9179 Y4.8310
G01 X22.9276 Y4.8286
G01 X22.9420 Y4.8241
G01 X22.9601 Y4.8176
G01 X22.9763 Y4.8105
G01 X22.9917 Y4.8020
G01 X23.0090 Y4.7913
G01 X23.0174 Y4.7855
G01 X23.0780 Y4.7364
G01 X23.1170 Y4.7056
G01 X23.1544 Y4.6784
G01 X23.1961 Y4.6509
G01 X23.2357 Y4.6259
G01 X23.2778 Y4.6027
G01 X23.3191 Y4.5812
G01 X23.3638 Y4.5610
G01 X23.4089 Y4.5416
G01 X23.4533 Y4.5250
G01 X23.4981 Y4.5095
G01 X23.5442 Y4.4965
G01 X23.5900 Y4.4844
G01 X23.6380 Y4.4748
G01 X23.6856 Y4.4660
G01 X23.7308 Y4.4601
G01 X23.7788 Y4.4557
G01 X23.8269 Y4.4531
G01 X23.8760 Y4.4522
G01 X23.9242 Y4.4531
G01 X23.9733 Y4.4557
G01 X24.0197 Y4.4600
G01 X24.0663 Y4.4667
G01 X24.1160 Y4.4758
G01 X24.1647 Y4.4857
G01 X24.2102 Y4.4966
G01 X24.2549 Y4.5101
G01 X24.3013 Y4.5259
G01 X24.3462 Y4.5432
G01 X24.3916 Y4.5627
G01 X24.4346 Y4.5825
G01 X24.4775 Y4.6053
G01 X24.5211 Y4.6293
G01 X24.5597 Y4.6531
G01 X24.6006 Y4.6816
G01 X24.6406 Y4.7100
G01 X24.6779 Y4.7397
G01 X24.7154 Y4.7718
G01 X24.7501 Y4.8031
G01 X24.7831 Y4.8371
G01 X24.8170 Y4.8736
G01 X24.8490 Y4.9109
G01 X24.8795 Y4.9483
G01 X24.9122 Y4.9930
G01 X24.9251 Y5.0096
G01 X24.9312 Y5.0167
G01 X24.9442 Y5.0300
G01 X24.9669 Y5.0491
G01 X24.9821 Y5.0600
G01 X25.0000 Y5.0714
G01 X25.0078 Y5.0759
G01 X25.0241 Y5.0838
G01 X25.0421 Y5.0915
G01 X25.0502 Y5.0945
G01 X25.0669 Y5.0995
G01 X25.0872 Y5.1045
G01 X25.0959 Y5.1063
G01 X25.1134 Y5.1086
G01 X25.1394 Y5.1101
G01 X25.1579 Y5.1098
G01 X25.1788 Y5.1085
G01 X25.1887 Y5.1073
G01 X25.1984 Y5.1057
G01 X25.2081 Y5.1035
G01 X25.2283 Y5.0984
G01 X25.2367 Y5.0959
G01 X25.2529 Y5.0898
G01 X25.2711 Y5.0820
G01 X25.2792 Y5.0780
G01 X25.2949 Y5.0690
G01 X25.3128 Y5.0574
G01 X25.3204 Y5.0519
G01 X25.3433 Y5.0331
G01 X25.3535 Y5.0235
G01 X25.3598 Y5.0167
G01 X25.3659 Y5.0096
G01 X25.3788 Y4.9930
G01 X25.4115 Y4.9483
G01 X25.4420 Y4.9109
G01 X25.4740 Y4.8736
G01 X25.5079 Y4.8371
G01 X25.5409 Y4.8031
G01 X25.5756 Y4.7718
G01 X25.6131 Y4.7397
G01 X25.6504 Y4.7100
G01 X25.6904 Y4.6816
G01 X25.7313 Y4.6531
G01 X25.7699 Y4.6293
G01 X25.8135 Y4.6053
G01 X25.8564 Y4.5825
G01 X25.8994 Y4.5627
G01 X25.9448 Y4.5432
G01 X25.9897 Y4.5259
G01 X26.0361 Y4.5101
G01 X26.0808 Y4.4966
G01 X26.1263 Y4.4857
G01 X26.1750 Y4.4758
G01 X26.2247 Y4.4667
G01 X26.2713 Y4.4600
G01 X26.3177 Y4.4557
G01 X26.3668 Y4.4531
G01 X26.4159 Y4.4522
G01 X26.4630 Y4.4531
G01 X26.5100 Y4.4557
G01 X26.5570 Y4.4601
G01 X26.6041 Y4.4662
G01 X26.6510 Y4.4740
G01 X26.6966 Y4.4835
G01 X26.7420 Y4.4948
G01 X26.7880 Y4.5078
G01 X26.8317 Y4.5224
G01 X26.8766 Y4.5391
G01 X26.9203 Y4.5571
G01 X26.9630 Y4.5772
G01 X27.0048 Y4.5980
G01 X27.0459 Y4.6212
G01 X27.0878 Y4.6467
G01 X27.1272 Y4.6715
G01 X27.1641 Y4.6984
G01 X27.2022 Y4.7276
G01 X27.2394 Y4.7585
G01 X27.2758 Y4.7905
G01 X27.3085 Y4.8215
G01 X27.3395 Y4.8542
G01 X27.3715 Y4.8906
G01 X27.4024 Y4.9278
G01 X27.4316 Y4.9659
G01 X27.4585 Y5.0028
G01 X27.4833 Y5.0422
G01 X27.5088 Y5.0841
G01 X27.5320 Y5.1252
G01 X27.5528 Y5.1670
G01 X27.5729 Y5.2097
G01 X27.5909 Y5.2534
G01 X27.6076 Y5.2983
G01 X27.6222 Y5.3420
G01 X27.6352 Y5.3880
G01 X27.6465 Y5.4334
G01 X27.6560 Y5.4790
G01 X27.6638 Y5.5259
G01 X27.6699 Y5.5730
G01 X27.6743 Y5.6200
G01 X27.6769 Y5.6670
G01 X27.6778 Y5.7141
G01 X27.6769 Y5.7643
G01 X27.6743 Y5.8129
G01 X27.6690 Y5.8623
G01 X27.6631 Y5.9107
G01 X27.6434 Y6.0102
G01 X27.6320 Y6.0549
G01 X27.6177 Y6.1003
G01 X27.6005 Y6.1483
G01 X27.5829 Y6.1949
G01 X27.5630 Y6.2400
G01 X27.5418 Y6.2850
G01 X27.5187 Y6.3285
G01 X27.4949 Y6.3694
G01 X27.4675 Y6.4119
G01 X27.4394 Y6.4531
G01 X27.4105 Y6.4914
G01 X27.3783 Y6.5307
G01 X27.3459 Y6.5683
G01 X27.3102 Y6.6059
G01 X27.2937 Y6.6240
G01 X27.2820 Y6.6388
G01 X27.2742 Y6.6506
G01 X27.2617 Y6.6724
G01 X27.2578 Y6.6802
G01 X27.2464 Y6.7063
G01 X27.2418 Y6.7192
G01 X27.2352 Y6.7430
G01 X27.2321 Y6.7568
G01 X27.2295 Y6.7754
G01 X27.2282 Y6.7961
G01 X27.2278 Y6.8080
G01 X27.2278 Y12.6230
G01 X27.2292 Y12.6509
G01 X27.2313 Y12.6696
G01 X27.2341 Y12.6834
G01 X27.2418 Y12.7118
G01 X27.2448 Y12.7204
G01 X27.2541 Y12.7438
G01 X27.2599 Y12.7561
G01 X27.2666 Y12.7680
G01 X27.2806 Y12.7898
G01 X27.2861 Y12.7974
G01 X27.3047 Y12.8200
G01 X27.3135 Y12.8295
G01 X30.7305 Y16.2465
G01 X30.7400 Y16.2553
G01 X30.7626 Y16.2739
G01 X30.7741 Y16.2820
G01 X30.7920 Y16.2934
G01 X30.7999 Y16.2979
G01 X30.8162 Y16.3059
G01 X30.8396 Y16.3152
G01 X30.8526 Y16.3195
G01 X30.8766 Y16.3259
G01 X30.8904 Y16.3287
G01 X30.8997 Y16.3300
G01 X30.9251 Y16.3318
G01 X30.9370 Y16.3322
G01 X54.7870 Y16.3322
G01 X54.7989 Y16.3318
G01 X54.8243 Y16.3300
G01 X54.8428 Y16.3270
G01 X54.8714 Y16.3195
G01 X54.8886 Y16.3136
G01 X54.9078 Y16.3059
G01 X54.9161 Y16.3021
G01 X54.9320 Y16.2934
G01 X54.9576 Y16.2767
G01 X54.9651 Y16.2711
G01 X54.9808 Y16.2581
G01 X54.9935 Y16.2465
G01 X58.0295 Y13.2105
G01 X58.0383 Y13.2010
G01 X58.0569 Y13.1784
G01 X58.0650 Y13.1669
G01 X58.0787 Y13.1451
G01 X58.0870 Y13.1290
G01 X58.0982 Y13.1014
G01 X58.1025 Y13.0884
G01 X58.1078 Y13.0690
G01 X58.1109 Y13.0552
G01 X58.1130 Y13.0413
G01 X58.1152 Y13.0080
G01 X58.1152 Y11.7260
G01 X58.1138 Y11.6981
G01 X58.1124 Y11.6841
G01 X58.1089 Y11.6656
G01 X58.1012 Y11.6372
G01 X58.0982 Y11.6286
G01 X58.0906 Y11.6094
G01 X58.0831 Y11.5929
G01 X58.0764 Y11.5810
G01 X58.0650 Y11.5631
G01 X58.0330 Y11.5170
G01 X58.0089 Y11.4796
G01 X57.9868 Y11.4405
G01 X57.9648 Y11.3992
G01 X57.9460 Y11.3599
G01 X57.9262 Y11.3117
G01 X57.9151 Y11.2889
G01 X57.9083 Y11.2765
G01 X57.8953 Y11.2565
G01 X57.8869 Y11.2449
G01 X57.8809 Y11.2376
G01 X57.8677 Y11.2231
G01 X57.8576 Y11.2127
G01 X57.8467 Y11.2032
G01 X57.8265 Y11.1877
G01 X57.8075 Y11.1747
G01 X57.7957 Y11.1675
G01 X57.7835 Y11.1611
G01 X57.7708 Y11.1557
G01 X57.7431 Y11.1463
G01 X57.7310 Y11.1429
G01 X57.7084 Y11.1381
G01 X57.6948 Y11.1361
G01 X57.6707 Y11.1342
G01 X57.6559 Y11.1338
G01 X57.6301 Y11.1352
G01 X57.6161 Y11.1366
G01 X57.6021 Y11.1390
G01 X57.5800 Y11.1440
G01 X57.5679 Y11.1476
G01 X57.5442 Y11.1557
G01 X57.5274 Y11.1632
G01 X57.5153 Y11.1698
G01 X57.4885 Y11.1877
G01 X57.4683 Y11.2032
G01 X57.4609 Y11.2095
G01 X57.4505 Y11.2195
G01 X57.4341 Y11.2376
G01 X57.4281 Y11.2449
G01 X57.4197 Y11.2565
G01 X57.4067 Y11.2765
G01 X57.3999 Y11.2889
G01 X57.3892 Y11.3108
G01 X57.3690 Y11.3591
G01 X57.3512 Y11.3972
G01 X57.3075 Y11.4767
G01 X57.2839 Y11.5138
G01 X57.2600 Y11.5492
G01 X57.2329 Y11.5839
G01 X57.2032 Y11.6208
G01 X57.1751 Y11.6531
G01 X57.1454 Y11.6836
G01 X57.1130 Y11.7142
G01 X57.0798 Y11.7432
G01 X57.0440 Y11.7720
G01 X57.0102 Y11.7976
G01 X56.9726 Y11.8224
G01 X56.9347 Y11.8465
G01 X56.8968 Y11.8675
G01 X56.8573 Y11.8881
G01 X56.8168 Y11.9067
G01 X56.7772 Y11.9232
G01 X56.7353 Y11.9377
G01 X56.6923 Y11.9518
G01 X56.6504 Y11.9633
G01 X56.6073 Y11.9728
G01 X56.5622 Y11.9816
G01 X56.5192 Y11.9882
G01 X56.4773 Y11.9923
G01 X56.4318 Y11.9949
G01 X56.3880 Y11.9958
G01 X56.3432 Y11.9949
G01 X56.2977 Y11.9923
G01 X56.2558 Y11.9882
G01 X56.2128 Y11.9816
G01 X56.1677 Y11.9728
G01 X56.1246 Y11.9633
G01 X56.0827 Y11.9518
G01 X56.0397 Y11.9377
G01 X55.9978 Y11.9232
G01 X55.9582 Y11.9067
G01 X55.9177 Y11.8881
G01 X55.8782 Y11.8675
G01 X55.8403 Y11.8465
G01 X55.8024 Y11.8224
G01 X55.7648 Y11.7976
G01 X55.7310 Y11.7720
G01 X55.6952 Y11.7432
G01 X55.6620 Y11.7142
G01 X55.6296 Y11.6836
G01 X55.5999 Y11.6531
G01 X55.5718 Y11.6208
G01 X55.5421 Y11.5839
G01 X55.5150 Y11.5492
G01 X55.4911 Y11.5138
G01 X55.4675 Y11.4767
G01 X55.4238 Y11.3972
G01 X55.4060 Y11.3591
G01 X55.3840 Y11.3069
G01 X55.3730 Y11.2847
G01 X55.3683 Y11.2765
G01 X55.3553 Y11.2565
G01 X55.3469 Y11.2449
G01 X55.3377 Y11.2341
G01 X55.3211 Y11.2161
G01 X55.3067 Y11.2032
G01 X55.2900 Y11.1902
G01 X55.2795 Y11.1827
G01 X55.2636 Y11.1722
G01 X55.2557 Y11.1675
G01 X55.2435 Y11.1611
G01 X55.2308 Y11.1557
G01 X55.1991 Y11.1451
G01 X55.1910 Y11.1429
G01 X55.1684 Y11.1381
G01 X55.1502 Y11.1356
G01 X55.1258 Y11.1340
G01 X55.1159 Y11.1338
G01 X55.0854 Y11.1355
G01 X55.0761 Y11.1366
G01 X55.0621 Y11.1390
G01 X55.0359 Y11.1451
G01 X55.0129 Y11.1526
G01 X54.9999 Y11.1574
G01 X54.9874 Y11.1632
G01 X54.9793 Y11.1675
G01 X54.9714 Y11.1722
G01 X54.9520 Y11.1852
G01 X54.9283 Y11.2032
G01 X54.9174 Y11.2127
G01 X54.9105 Y11.2195
G01 X54.8941 Y11.2376
G01 X54.8852 Y11.2487
G01 X54.8717 Y11.2685
G01 X54.8643 Y11.2806
G01 X54.8492 Y11.3108
G01 X54.8290 Y11.3591
G01 X54.8112 Y11.3972
G01 X54.7675 Y11.4767
G01 X54.7439 Y11.5138
G01 X54.7200 Y11.5492
G01 X54.6929 Y11.5839
G01 X54.6632 Y11.6208
G01 X54.6351 Y11.6531
G01 X54.6054 Y11.6836
G01 X54.5730 Y11.7142
G01 X54.5398 Y11.7432
G01 X54.5040 Y11.7720
G01 X54.4702 Y11.7976
G01 X54.4326 Y11.8224
G01 X54.3947 Y11.8465
G01 X54.3568 Y11.8675
G01 X54.3173 Y11.8881
G01 X54.2768 Y11.9067
G01 X54.2372 Y11.9232
G01 X54.1953 Y11.9377
G01 X54.1523 Y11.9518
G01 X54.1104 Y11.9633
G01 X54.0673 Y11.9728
G01 X54.0222 Y11.9816
G01 X53.9792 Y11.9882
G01 X53.9373 Y11.9923
G01 X53.8918 Y11.9949
G01 X53.8480 Y11.9958
G01 X53.8032 Y11.9949
G01 X53.7577 Y11.9923
G01 X53.7158 Y11.9882
G01 X53.6728 Y11.9816
G01 X53.6277 Y11.9728
G01 X53.5846 Y11.9633
G01 X53.5427 Y11.9518
G01 X53.4997 Y11.9377
G01 X53.4578 Y11.9232
G01 X53.4182 Y11.9067
G01 X53.3777 Y11.8881
G01 X53.3382 Y11.8675
G01 X53.3003 Y11.8465
G01 X53.2624 Y11.8224
G01 X53.2248 Y11.7976
G01 X53.1910 Y11.7720
G01 X53.1552 Y11.7432
G01 X53.1220 Y11.7142
G01 X53.0896 Y11.6836
G01 X53.0599 Y11.6531
G01 X53.0318 Y11.6208
G01 X53.0021 Y11.5839
G01 X52.9750 Y11.5492
G01 X52.9511 Y11.5138
G01 X52.9275 Y11.4767
G01 X52.8838 Y11.3972
G01 X52.8660 Y11.3591
G01 X52.8458 Y11.3108
G01 X52.8307 Y11.2806
G01 X52.8258 Y11.2725
G01 X52.8153 Y11.2565
G01 X52.8069 Y11.2449
G01 X52.7977 Y11.2341
G01 X52.7811 Y11.2161
G01 X52.7667 Y11.2032
G01 X52.7500 Y11.1902
G01 X52.7395 Y11.1827
G01 X52.7236 Y11.1722
G01 X52.7157 Y11.1675
G01 X52.7076 Y11.1632
G01 X52.6951 Y11.1574
G01 X52.6821 Y11.1526
G01 X52.6591 Y11.1451
G01 X52.6329 Y11.1390
G01 X52.6239 Y11.1373
G01 X52.6102 Y11.1356
G01 X52.5808 Y11.1338
G01 X52.5710 Y11.1339
G01 X52.5454 Y11.1355
G01 X52.5268 Y11.1381
G01 X52.5040 Y11.1429
G01 X52.4959 Y11.1451
G01 X52.4642 Y11.1557
G01 X52.4515 Y11.1611
G01 X52.4393 Y11.1675
G01 X52.4314 Y11.1722
G01 X52.4155 Y11.1827
G01 X52.4050 Y11.1902
G01 X52.3883 Y11.2032
G01 X52.3739 Y11.2161
G01 X52.3573 Y11.2341
G01 X52.3481 Y11.2449
G01 X52.3397 Y11.2565
G01 X52.3292 Y11.2725
G01 X52.3243 Y11.2806
G01 X52.3092 Y11.3108
G01 X52.2890 Y11.3591
G01 X52.2712 Y11.3972
G01 X52.2275 Y11.4767
G01 X52.2039 Y11.5138
G01 X52.1800 Y11.5492
G01 X52.1529 Y11.5839
G01 X52.1232 Y11.6208
G01 X52.0951 Y11.6531
G01 X52.0654 Y11.6836
G01 X52.0330 Y11.7142
G01 X51.9998 Y11.7432
G01 X51.9640 Y11.7720
G01 X51.9302 Y11.7976
G01 X51.8926 Y11.8224
G01 X51.8547 Y11.8465
G01 X51.8168 Y11.8675
G01 X51.7773 Y11.8881
G01 X51.7368 Y11.9067
G01 X51.6972 Y11.9232
G01 X51.6553 Y11.9377
G01 X51.6123 Y11.9518
G01 X51.5704 Y11.9633
G01 X51.5273 Y11.9728
G01 X51.4822 Y11.9816
G01 X51.4392 Y11.9882
G01 X51.3973 Y11.9923
G01 X51.3518 Y11.9949
G01 X51.3080 Y11.9958
G01 X51.2632 Y11.9949
G01 X51.2177 Y11.9923
G01 X51.1758 Y11.9882
G01 X51.1328 Y11.9816
G01 X51.0877 Y11.9728
G01 X51.0446 Y11.9633
G01 X51.0027 Y11.9518
G01 X50.9597 Y11.9377
G01 X50.9178 Y11.9232
G01 X50.8782 Y11.9067
G01 X50.8377 Y11.8881
G01 X50.7982 Y11.8675
G01 X50.7603 Y11.8465
G01 X50.7224 Y11.8224
G01 X50.6848 Y11.7976
G01 X50.6510 Y11.7720
G01 X50.6152 Y11.7432
G01 X50.5820 Y11.7142
G01 X50.5496 Y11.6836
G01 X50.5199 Y11.6531
G01 X50.4918 Y11.6208
G01 X50.4621 Y11.5839
G01 X50.4350 Y11.5492
G01 X50.4111 Y11.5138
G01 X50.3875 Y11.4767
G01 X50.3438 Y11.3972
G01 X50.3260 Y11.3591
G01 X50.3058 Y11.3108
G01 X50.2907 Y11.2806
G01 X50.2833 Y11.2685
G01 X50.2698 Y11.2487
G01 X50.2609 Y11.2376
G01 X50.2445 Y11.2195
G01 X50.2341 Y11.2095
G01 X50.2267 Y11.2032
G01 X50.2030 Y11.1852
G01 X50.1836 Y11.1722
G01 X50.1757 Y11.1675
G01 X50.1676 Y11.1632
G01 X50.1551 Y11.1574
G01 X50.1421 Y11.1526
G01 X50.1191 Y11.1451
G01 X50.1110 Y11.1429
G01 X50.0884 Y11.1381
G01 X50.0702 Y11.1356
G01 X50.0458 Y11.1340
G01 X50.0359 Y11.1338
G01 X50.0054 Y11.1355
G01 X49.9914 Y11.1373
G01 X49.9821 Y11.1390
G01 X49.9559 Y11.1451
G01 X49.9329 Y11.1526
G01 X49.9199 Y11.1574
G01 X49.9074 Y11.1632
G01 X49.8993 Y11.1675
G01 X49.8914 Y11.1722
G01 X49.8755 Y11.1827
G01 X49.8650 Y11.1902
G01 X49.8483 Y11.2032
G01 X49.8339 Y11.2161
G01 X49.8173 Y11.2341
G01 X49.8081 Y11.2449
G01 X49.7997 Y11.2565
G01 X49.7892 Y11.2725
G01 X49.7843 Y11.2806
G01 X49.7692 Y11.3108
G01 X49.7490 Y11.3591
G01 X49.7312 Y11.3972
G01 X49.6875 Y11.4767
G01 X49.6639 Y11.5138
G01 X49.6400 Y11.5492
G01 X49.6129 Y11.5839
G01 X49.5832 Y11.6208
G01 X49.5551 Y11.6531
G01 X49.5254 Y11.6836
G01 X49.4930 Y11.7142
G01 X49.4598 Y11.7432
G01 X49.4240 Y11.7720
G01 X49.3902 Y11.7976
G01 X49.3526 Y11.8224
G01 X49.3147 Y11.8465
G01 X49.2768 Y11.8675
G01 X49.2373 Y11.8881
G01 X49.1968 Y11.9067
G01 X49.1572 Y11.9232
G01 X49.1153 Y11.9377
G01 X49.0723 Y11.9518
G01 X49.0304 Y11.9633
G01 X48.9873 Y11.9728
G01 X48.9422 Y11.9816
G01 X48.8992 Y11.9882
G01 X48.8573 Y11.9923
G01 X48.8118 Y11.9949
G01 X48.7680 Y11.9958
G01 X48.7232 Y11.9949
G01 X48.6777 Y11.9923
G01 X48.6358 Y11.9882
G01 X48.5928 Y11.9816
G01 X48.5477 Y11.9728
G01 X48.5046 Y11.9633
G01 X48.4627 Y11.9518
G01 X48.4197 Y11.9377
G01 X48.3778 Y11.9232
G01 X48.3382 Y11.9067
G01 X48.2977 Y11.8881
G01 X48.2582 Y11.8675
G01 X48.2203 Y11.8465
G01 X48.1824 Y11.8224
G01 X48.1448 Y11.7976
G01 X48.1110 Y11.7720
G01 X48.0752 Y11.7432
G01 X48.0420 Y11.7142
G01 X48.0096 Y11.6836
G01 X47.9799 Y11.6531
G01 X47.9518 Y11.6208
G01 X47.9221 Y11.5839
G01 X47.8950 Y11.5492
G01 X47.8711 Y11.5138
G01 X47.8475 Y11.4767
G01 X47.8038 Y11.3972
G01 X47.7860 Y11.3591
G01 X47.7658 Y11.3108
G01 X47.7507 Y11.2806
G01 X47.7433 Y11.2685
G01 X47.7298 Y11.2487
G01 X47.7209 Y11.2376
G01 X47.7045 Y11.2195
G01 X47.6976 Y11.2127
G01 X47.6867 Y11.2032
G01 X47.6630 Y11.1852
G01 X47.6436 Y11.1722
G01 X47.6357 Y11.1675
G01 X47.6276 Y11.1632
G01 X47.6151 Y11.1574
G01 X47.6021 Y11.1526
G01 X47.5791 Y11.1451
G01 X47.5710 Y11.1429
G01 X47.5484 Y11.1381
G01 X47.5302 Y11.1356
G01 X47.5058 Y11.1340
G01 X47.4959 Y11.1338
G01 X47.4654 Y11.1355
G01 X47.4514 Y11.1373
G01 X47.4421 Y11.1390
G01 X47.4159 Y11.1451
G01 X47.3929 Y11.1526
G01 X47.3799 Y11.1574
G01 X47.3674 Y11.1632
G01 X47.3593 Y11.1675
G01 X47.3514 Y11.1722
G01 X47.3320 Y11.1852
G01 X47.3083 Y11.2032
G01 X47.3009 Y11.2095
G01 X47.2905 Y11.2195
G01 X47.2741 Y11.2376
G01 X47.2652 Y11.2487
G01 X47.2517 Y11.2685
G01 X47.2443 Y11.2806
G01 X47.2292 Y11.3108
G01 X47.2090 Y11.3591
G01 X47.1912 Y11.3972
G01 X47.1475 Y11.4767
G01 X47.1239 Y11.5138
G01 X47.1000 Y11.5492
G01 X47.0729 Y11.5839
G01 X47.0432 Y11.6208
G01 X47.0151 Y11.6531
G01 X46.9854 Y11.6836
G01 X46.9530 Y11.7142
G01 X46.9198 Y11.7432
G01 X46.8840 Y11.7720
G01 X46.8502 Y11.7976
G01 X46.8126 Y11.8224
G01 X46.7747 Y11.8465
G01 X46.7368 Y11.8675
G01 X46.6973 Y11.8881
G01 X46.6568 Y11.9067
G01 X46.6172 Y11.9232
G01 X46.5753 Y11.9377
G01 X46.5323 Y11.9518
G01 X46.4904 Y11.9633
G01 X46.4473 Y11.9728
G01 X46.4022 Y11.9816
G01 X46.3592 Y11.9882
G01 X46.3173 Y11.9923
G01 X46.2718 Y11.9949
G01 X46.2279 Y11.9958
G01 X46.1823 Y11.9949
G01 X46.1378 Y11.9923
G01 X46.0958 Y11.9882
G01 X46.0528 Y11.9816
G01 X46.0074 Y11.9727
G01 X45.9637 Y11.9633
G01 X45.9226 Y11.9518
G01 X45.8798 Y11.9381
G01 X45.8384 Y11.9229
G01 X45.7979 Y11.9060
G01 X45.7569 Y11.8868
G01 X45.7174 Y11.8670
G01 X45.6786 Y11.8451
G01 X45.6422 Y11.8228
G01 X45.6059 Y11.7975
G01 X45.5689 Y11.7702
G01 X45.5360 Y11.7438
G01 X45.5020 Y11.7133
G01 X45.4678 Y11.6817
G01 X45.4389 Y11.6521
G01 X45.4052 Y11.6135
G01 X45.3954 Y11.6035
G01 X45.3708 Y11.5807
G01 X45.3331 Y11.5505
G01 X45.3039 Y11.5263
G01 X45.2785 Y11.5024
G01 X45.2517 Y11.4748
G01 X45.2278 Y11.4485
G01 X45.2062 Y11.4215
G01 X45.1826 Y11.3893
G01 X45.1590 Y11.3556
G01 X45.1496 Y11.3417
G01 X45.1412 Y11.3305
G01 X45.1319 Y11.3200
G01 X45.1254 Y11.3134
G01 X45.1072 Y11.2970
G01 X45.0924 Y11.2848
G01 X45.0816 Y11.2765
G01 X45.0740 Y11.2714
G01 X45.0662 Y11.2667
G01 X45.0449 Y11.2553
G01 X45.0275 Y11.2475
G01 X45.0048 Y11.2394
G01 X44.9878 Y11.2347
G01 X44.9705 Y11.2307
G01 X44.9620 Y11.2292
G01 X44.9447 Y11.2272
G01 X44.9248 Y11.2260
G01 X44.9149 Y11.2258
G01 X44.8842 Y11.2275
G01 X44.8743 Y11.2287
G01 X44.8597 Y11.2313
G01 X44.8389 Y11.2365
G01 X44.8265 Y11.2400
G01 X44.8184 Y11.2429
G01 X44.7952 Y11.2521
G01 X44.7829 Y11.2579
G01 X44.7749 Y11.2623
G01 X44.7455 Y11.2812
G01 X44.7309 Y11.2927
G01 X44.7118 Y11.3103
G01 X44.7012 Y11.3214
G01 X44.6879 Y11.3372
G01 X44.6821 Y11.3446
G01 X44.6740 Y11.3561
G01 X44.6627 Y11.3739
G01 X44.6582 Y11.3815
G01 X44.6336 Y11.4313
G01 X44.6129 Y11.4681
G01 X44.5884 Y11.5066
G01 X44.5630 Y11.5451
G01 X44.5380 Y11.5789
G01 X44.5100 Y11.6128
G01 X44.4793 Y11.6479
G01 X44.4495 Y11.6795
G01 X44.4171 Y11.7102
G01 X44.3838 Y11.7400
G01 X44.3498 Y11.7673
G01 X44.3131 Y11.7945
G01 X44.2755 Y11.8207
G01 X44.2391 Y11.8439
G01 X44.2009 Y11.8654
G01 X44.1604 Y11.8861
G01 X44.1207 Y11.9047
G01 X44.0792 Y11.9216
G01 X44.0372 Y11.9371
G01 X43.9944 Y11.9508
G01 X43.9516 Y11.9628
G01 X43.9082 Y11.9730
G01 X43.8653 Y11.9812
G01 X43.8204 Y11.9873
G01 X43.7756 Y11.9924
G01 X43.7327 Y11.9949
G01 X43.6880 Y11.9958
G01 X43.6423 Y11.9949
G01 X43.5978 Y11.9923
G01 X43.5558 Y11.9882
G01 X43.5128 Y11.9816
G01 X43.4674 Y11.9727
G01 X43.4237 Y11.9633
G01 X43.3826 Y11.9518
G01 X43.3398 Y11.9381
G01 X43.2984 Y11.9229
G01 X43.2579 Y11.9060
G01 X43.2169 Y11.8868
G01 X43.1774 Y11.8670
G01 X43.1386 Y11.8451
G01 X43.1022 Y11.8228
G01 X43.0659 Y11.7975
G01 X43.0289 Y11.7702
G01 X42.9960 Y11.7438
G01 X42.9620 Y11.7133
G01 X42.9278 Y11.6817
G01 X42.8989 Y11.6521
G01 X42.8652 Y11.6135
G01 X42.8554 Y11.6035
G01 X42.8308 Y11.5807
G01 X42.7931 Y11.5505
G01 X42.7639 Y11.5263
G01 X42.7385 Y11.5024
G01 X42.7117 Y11.4748
G01 X42.6878 Y11.4485
G01 X42.6662 Y11.4215
G01 X42.6426 Y11.3893
G01 X42.6190 Y11.3556
G01 X42.6096 Y11.3417
G01 X42.5982 Y11.3270
G01 X42.5887 Y11.3167
G01 X42.5819 Y11.3103
G01 X42.5672 Y11.2970
G01 X42.5489 Y11.2819
G01 X42.5378 Y11.2739
G01 X42.5301 Y11.2690
G01 X42.5049 Y11.2553
G01 X42.4875 Y11.2475
G01 X42.4648 Y11.2394
G01 X42.4478 Y11.2347
G01 X42.4305 Y11.2307
G01 X42.4220 Y11.2292
G01 X42.4047 Y11.2272
G01 X42.3848 Y11.2260
G01 X42.3749 Y11.2258
G01 X42.3442 Y11.2275
G01 X42.3294 Y11.2294
G01 X42.3197 Y11.2313
G01 X42.2947 Y11.2376
G01 X42.2784 Y11.2429
G01 X42.2510 Y11.2540
G01 X42.2349 Y11.2623
G01 X42.2055 Y11.2812
G01 X42.1945 Y11.2897
G01 X42.1875 Y11.2958
G01 X42.1718 Y11.3103
G01 X42.1612 Y11.3214
G01 X42.1449 Y11.3409
G01 X42.1340 Y11.3561
G01 X42.1227 Y11.3739
G01 X42.1182 Y11.3815
G01 X42.0936 Y11.4313
G01 X42.0729 Y11.4681
G01 X42.0484 Y11.5066
G01 X42.0230 Y11.5451
G01 X41.9980 Y11.5789
G01 X41.9700 Y11.6128
G01 X41.9393 Y11.6479
G01 X41.9095 Y11.6795
G01 X41.8771 Y11.7102
G01 X41.8438 Y11.7400
G01 X41.8098 Y11.7673
G01 X41.7731 Y11.7945
G01 X41.7355 Y11.8207
G01 X41.6991 Y11.8439
G01 X41.6609 Y11.8654
G01 X41.6204 Y11.8861
G01 X41.5807 Y11.9047
G01 X41.5392 Y11.9216
G01 X41.4972 Y11.9371
G01 X41.4544 Y11.9508
G01 X41.4116 Y11.9628
G01 X41.3682 Y11.9730
G01 X41.3253 Y11.9812
G01 X41.2804 Y11.9873
G01 X41.2356 Y11.9924
G01 X41.1927 Y11.9949
G01 X41.1480 Y11.9958
G01 X41.1023 Y11.9949
G01 X41.0578 Y11.9923
G01 X41.0158 Y11.9882
G01 X40.9728 Y11.9816
G01 X40.9274 Y11.9727
G01 X40.8837 Y11.9633
G01 X40.8426 Y11.9518
G01 X40.7998 Y11.9381
G01 X40.7584 Y11.9229
G01 X40.7179 Y11.9060
G01 X40.6769 Y11.8868
G01 X40.6374 Y11.8670
G01 X40.5986 Y11.8451
G01 X40.5622 Y11.8228
G01 X40.5259 Y11.7975
G01 X40.4889 Y11.7702
G01 X40.4560 Y11.7438
G01 X40.4220 Y11.7133
G01 X40.3878 Y11.6817
G01 X40.3589 Y11.6521
G01 X40.3220 Y11.6101
G01 X40.2984 Y11.5875
G01 X40.2868 Y11.5775
G01 X40.2531 Y11.5505
G01 X40.2239 Y11.5263
G01 X40.1985 Y11.5024
G01 X40.1717 Y11.4748
G01 X40.1478 Y11.4485
G01 X40.1262 Y11.4215
G01 X40.1026 Y11.3893
G01 X40.0790 Y11.3556
G01 X40.0696 Y11.3417
G01 X40.0612 Y11.3305
G01 X40.0551 Y11.3235
G01 X40.0454 Y11.3134
G01 X40.0234 Y11.2938
G01 X40.0052 Y11.2792
G01 X39.9901 Y11.2690
G01 X39.9649 Y11.2553
G01 X39.9563 Y11.2512
G01 X39.9430 Y11.2459
G01 X39.9248 Y11.2394
G01 X39.9163 Y11.2369
G01 X39.8862 Y11.2299
G01 X39.8690 Y11.2276
G01 X39.8448 Y11.2260
G01 X39.8349 Y11.2258
G01 X39.8042 Y11.2275
G01 X39.7894 Y11.2294
G01 X39.7797 Y11.2313
G01 X39.7547 Y11.2376
G01 X39.7384 Y11.2429
G01 X39.7110 Y11.2540
G01 X39.6949 Y11.2623
G01 X39.6655 Y11.2812
G01 X39.6545 Y11.2897
G01 X39.6475 Y11.2958
G01 X39.6318 Y11.3103
G01 X39.6212 Y11.3214
G01 X39.6049 Y11.3409
G01 X39.5940 Y11.3561
G01 X39.5827 Y11.3739
G01 X39.5782 Y11.3815
G01 X39.5536 Y11.4313
G01 X39.5329 Y11.4681
G01 X39.5084 Y11.5066
G01 X39.4830 Y11.5451
G01 X39.4580 Y11.5789
G01 X39.4300 Y11.6128
G01 X39.3993 Y11.6479
G01 X39.3695 Y11.6795
G01 X39.3371 Y11.7102
G01 X39.3038 Y11.7400
G01 X39.2698 Y11.7673
G01 X39.2331 Y11.7945
G01 X39.1955 Y11.8207
G01 X39.1591 Y11.8439
G01 X39.1209 Y11.8654
G01 X39.0804 Y11.8861
G01 X39.0407 Y11.9047
G01 X38.9992 Y11.9216
G01 X38.9572 Y11.9371
G01 X38.9144 Y11.9508
G01 X38.8716 Y11.9628
G01 X38.8282 Y11.9730
G01 X38.7853 Y11.9812
G01 X38.7404 Y11.9873
G01 X38.6956 Y11.9924
G01 X38.6527 Y11.9949
G01 X38.6080 Y11.9958
G01 X38.5623 Y11.9949
G01 X38.5178 Y11.9923
G01 X38.4758 Y11.9882
G01 X38.4328 Y11.9816
G01 X38.3874 Y11.9727
G01 X38.3437 Y11.9633
G01 X38.3026 Y11.9518
G01 X38.2598 Y11.9381
G01 X38.2184 Y11.9229
G01 X38.1779 Y11.9060
G01 X38.1369 Y11.8868
G01 X38.0974 Y11.8670
G01 X38.0586 Y11.8451
G01 X38.0222 Y11.8228
G01 X37.9859 Y11.7975
G01 X37.9489 Y11.7702
G01 X37.9160 Y11.7438
G01 X37.8820 Y11.7133
G01 X37.8478 Y11.6817
G01 X37.8189 Y11.6521
G01 X37.7820 Y11.6101
G01 X37.7584 Y11.5875
G01 X37.7468 Y11.5775
G01 X37.7131 Y11.5505
G01 X37.6839 Y11.5263
G01 X37.6585 Y11.5024
G01 X37.6317 Y11.4748
G01 X37.6078 Y11.4485
G01 X37.5862 Y11.4215
G01 X37.5626 Y11.3893
G01 X37.5390 Y11.3556
G01 X37.5296 Y11.3417
G01 X37.5212 Y11.3305
G01 X37.5119 Y11.3200
G01 X37.5054 Y11.3134
G01 X37.4834 Y11.2938
G01 X37.4652 Y11.2792
G01 X37.4501 Y11.2690
G01 X37.4249 Y11.2553
G01 X37.4163 Y11.2512
G01 X37.4030 Y11.2459
G01 X37.3848 Y11.2394
G01 X37.3763 Y11.2369
G01 X37.3462 Y11.2299
G01 X37.3290 Y11.2276
G01 X37.3048 Y11.2260
G01 X37.2949 Y11.2258
G01 X37.2642 Y11.2275
G01 X37.2494 Y11.2294
G01 X37.2397 Y11.2313
G01 X37.2147 Y11.2376
G01 X37.1984 Y11.2429
G01 X37.1710 Y11.2540
G01 X37.1549 Y11.2623
G01 X37.1255 Y11.2812
G01 X37.1145 Y11.2897
G01 X37.1075 Y11.2958
G01 X37.0918 Y11.3103
G01 X37.0812 Y11.3214
G01 X37.0649 Y11.3409
G01 X37.0540 Y11.3561
G01 X37.0427 Y11.3739
G01 X37.0382 Y11.3815
G01 X37.0136 Y11.4313
G01 X36.9929 Y11.4681
G01 X36.9684 Y11.5066
G01 X36.9430 Y11.5451
G01 X36.9180 Y11.5789
G01 X36.8900 Y11.6128
G01 X36.8593 Y11.6479
G01 X36.8295 Y11.6795
G01 X36.7971 Y11.7102
G01 X36.7638 Y11.7400
G01 X36.7298 Y11.7673
G01 X36.6931 Y11.7945
G01 X36.6555 Y11.8207
G01 X36.6191 Y11.8439
G01 X36.5809 Y11.8654
G01 X36.5404 Y11.8861
G01 X36.5007 Y11.9047
G01 X36.4592 Y11.9216
G01 X36.4172 Y11.9371
G01 X36.3744 Y11.9508
G01 X36.3316 Y11.9628
G01 X36.2882 Y11.9730
G01 X36.2453 Y11.9812
G01 X36.2004 Y11.9873
G01 X36.1556 Y11.9924
G01 X36.1127 Y11.9949
G01 X36.0680 Y11.9958
G01 X36.0245 Y11.9949
G01 X35.9809 Y11.9923
G01 X35.9375 Y11.9881
G01 X35.8950 Y11.9822
G01 X35.8541 Y11.9748
G01 X35.8111 Y11.9645
G01 X35.7673 Y11.9531
G01 X35.7271 Y11.9405
G01 X35.6864 Y11.9261
G01 X35.6465 Y11.9099
G01 X35.6071 Y11.8924
G01 X35.5680 Y11.8724
G01 X35.5296 Y11.8519
G01 X35.4935 Y11.8298
G01 X35.4580 Y11.8060
G01 X35.4224 Y11.7801
G01 X35.3877 Y11.7532
G01 X35.3549 Y11.7254
G01 X35.3227 Y11.6957
G01 X35.2933 Y11.6663
G01 X35.2636 Y11.6341
G01 X35.2358 Y11.6013
G01 X35.2089 Y11.5666
G01 X35.1830 Y11.5310
G01 X35.1592 Y11.4955
G01 X35.1371 Y11.4594
G01 X35.1166 Y11.4210
G01 X35.0966 Y11.3819
G01 X35.0791 Y11.3425
G01 X35.0629 Y11.3026
G01 X35.0485 Y11.2619
G01 X35.0359 Y11.2217
G01 X35.0245 Y11.1779
G01 X35.0142 Y11.1349
G01 X35.0068 Y11.0940
G01 X35.0009 Y11.0515
G01 X34.9967 Y11.0081
G01 X34.9941 Y10.9645
G01 X34.9932 Y10.9210
G01 X34.9941 Y10.8785
G01 X34.9967 Y10.8349
G01 X35.0009 Y10.7915
G01 X35.0068 Y10.7490
G01 X35.0142 Y10.7081
G01 X35.0245 Y10.6651
G01 X35.0359 Y10.6213
G01 X35.0485 Y10.5811
G01 X35.0629 Y10.5404
G01 X35.0791 Y10.5005
G01 X35.0966 Y10.4611
G01 X35.1166 Y10.4220
G01 X35.1371 Y10.3836
G01 X35.1592 Y10.3475
G01 X35.1830 Y10.3120
G01 X35.2089 Y10.2764
G01 X35.2358 Y10.2417
G01 X35.2636 Y10.2089
G01 X35.2933 Y10.1767
G01 X35.3227 Y10.1473
G01 X35.3549 Y10.1176
G01 X35.3877 Y10.0898
G01 X35.4224 Y10.0629
G01 X35.4580 Y10.0370
G01 X35.4935 Y10.0132
G01 X35.5296 Y9.9911
G01 X35.5680 Y9.9706
G01 X35.6071 Y9.9506
G01 X35.6465 Y9.9331
G01 X35.6864 Y9.9169
G01 X35.7271 Y9.9025
G01 X35.7673 Y9.8899
G01 X35.8111 Y9.8785
G01 X35.8541 Y9.8682
G01 X35.8950 Y9.8608
G01 X35.9375 Y9.8549
G01 X35.9809 Y9.8507
G01 X36.0245 Y9.8481
G01 X36.0680 Y9.8472
G01 X36.1105 Y9.8481
G01 X36.1539 Y9.8506
G01 X36.1963 Y9.8549
G01 X36.2390 Y9.8608
G01 X36.2817 Y9.8685
G01 X36.3242 Y9.8779
G01 X36.3652 Y9.8888
G01 X36.4059 Y9.9015
G01 X36.4466 Y9.9159
G01 X36.4865 Y9.9321
G01 X36.5274 Y9.9503
G01 X36.5642 Y9.9683
G01 X36.6016 Y9.9896
G01 X36.6398 Y10.0121
G01 X36.6753 Y10.0358
G01 X36.7096 Y10.0600
G01 X36.7443 Y10.0878
G01 X36.7782 Y10.1157
G01 X36.8083 Y10.1433
G01 X36.8396 Y10.1746
G01 X36.8692 Y10.2059
G01 X36.8988 Y10.2409
G01 X36.9195 Y10.2635
G01 X36.9328 Y10.2756
G01 X36.9519 Y10.2902
G01 X36.9636 Y10.2983
G01 X36.9758 Y10.3055
G01 X36.9974 Y10.3168
G01 X37.0105 Y10.3225
G01 X37.0338 Y10.3307
G01 X37.0434 Y10.3336
G01 X37.0671 Y10.3390
G01 X37.0807 Y10.3414
G01 X37.0898 Y10.3424
G01 X37.1093 Y10.3438
G01 X37.1245 Y10.3442
G01 X37.1542 Y10.3424
G01 X37.1679 Y10.3407
G01 X37.1769 Y10.3390
G01 X37.2005 Y10.3337
G01 X37.2100 Y10.3308
G01 X37.2193 Y10.3275
G01 X37.2437 Y10.3177
G01 X37.2647 Y10.3078
G01 X37.2764 Y10.3012
G01 X37.2875 Y10.2938
G01 X37.3031 Y10.2822
G01 X37.3102 Y10.2766
G01 X37.3203 Y10.2676
G01 X37.3267 Y10.2612
G01 X37.3430 Y10.2432
G01 X37.3581 Y10.2249
G01 X37.3635 Y10.2176
G01 X37.3710 Y10.2061
G01 X37.3847 Y10.1809
G01 X37.3907 Y10.1678
G01 X37.4008 Y10.1410
G01 X37.4037 Y10.1315
G01 X37.4060 Y10.1219
G01 X37.4099 Y10.1034
G01 X37.4114 Y10.0943
G01 X37.4128 Y10.0807
G01 X37.4142 Y10.0530
G01 X37.4142 Y6.1280
G01 X37.4138 Y6.1153
G01 X37.4124 Y6.0954
G01 X37.4104 Y6.0806
G01 X37.4055 Y6.0559
G01 X37.4030 Y6.0463
G01 X37.4001 Y6.0369
G01 X37.3948 Y6.0231
G01 X37.3869 Y6.0048
G01 X37.3828 Y5.9964
G01 X37.3690 Y5.9724
G01 X37.3618 Y5.9614
G01 X37.3474 Y5.9423
G01 X37.3417 Y5.9354
G01 X37.3325 Y5.9255
G01 X37.3154 Y5.9088
G01 X37.3080 Y5.9024
G01 X37.3002 Y5.8965
G01 X37.2593 Y5.8680
G01 X37.2420 Y5.8554
G01 X37.2274 Y5.8426
G01 X37.2136 Y5.8294
G01 X37.2009 Y5.8149
G01 X37.1876 Y5.7983
G01 X37.1766 Y5.7824
G01 X37.1652 Y5.7637
G01 X37.1577 Y5.7495
G01 X37.1506 Y5.7319
G01 X37.1419 Y5.7080
G01 X37.1356 Y5.6888
G01 X37.1325 Y5.6748
G01 X37.1301 Y5.6559
G01 X37.1279 Y5.6331
G01 X37.1272 Y5.6100
G01 X37.1272 Y4.0409
G01 X37.1279 Y4.0168
G01 X37.1299 Y3.9961
G01 X37.1331 Y3.9746
G01 X37.1368 Y3.9576
G01 X37.1423 Y3.9406
G01 X37.1501 Y3.9206
G01 X37.1597 Y3.8999
G01 X37.1700 Y3.8802
G01 X37.1802 Y3.8632
G01 X37.1909 Y3.8481
G01 X37.2039 Y3.8326
G01 X37.2185 Y3.8167
G01 X37.2335 Y3.8030
G01 X37.2491 Y3.7899
G01 X37.2642 Y3.7792
G01 X37.2812 Y3.7690
G01 X37.3009 Y3.7587
G01 X37.3216 Y3.7491
G01 X37.3416 Y3.7413
G01 X37.3586 Y3.7358
G01 X37.3756 Y3.7321
G01 X37.3971 Y3.7289
G01 X37.4178 Y3.7269
G01 X37.4419 Y3.7262
G01 X39.0111 Y3.7262
G01 X39.0352 Y3.7269
G01 X39.0559 Y3.7289
G01 X39.0774 Y3.7321
G01 X39.0944 Y3.7358
G01 X39.1114 Y3.7413
G01 X39.1314 Y3.7491
G01 X39.1521 Y3.7587
G01 X39.1718 Y3.7690
G01 X39.1888 Y3.7792
G01 X39.2039 Y3.7899
G01 X39.2352 Y3.8168
G01 X39.2621 Y3.8481
G01 X39.2728 Y3.8632
G01 X39.2830 Y3.8802
G01 X39.2933 Y3.8999
G01 X39.3029 Y3.9206
G01 X39.3107 Y3.9406
G01 X39.3162 Y3.9576
G01 X39.3199 Y3.9746
G01 X39.3231 Y3.9961
G01 X39.3251 Y4.0168
G01 X39.3264 Y4.0530
G01 X39.3296 Y4.0803
G01 X39.3311 Y4.0894
G01 X39.3350 Y4.1079
G01 X39.3374 Y4.1176
G01 X39.3403 Y4.1272
G01 X39.3500 Y4.1542
G01 X39.3555 Y4.1662
G01 X39.3595 Y4.1740
G01 X39.3747 Y4.1995
G01 X39.3881 Y4.2191
G01 X39.3968 Y4.2300
G01 X39.4063 Y4.2403
G01 X39.4241 Y4.2567
G01 X39.4498 Y4.2778
G01 X39.4572 Y4.2831
G01 X39.4688 Y4.2903
G01 X39.4901 Y4.3017
G01 X39.4988 Y4.3058
G01 X39.5294 Y4.3176
G01 X39.5427 Y4.3215
G01 X39.5517 Y4.3235
G01 X39.5714 Y4.3274
G01 X39.5809 Y4.3288
G01 X39.6044 Y4.3307
G01 X39.6193 Y4.3312
G01 X39.6510 Y4.3295
G01 X39.6652 Y4.3278
G01 X39.6794 Y4.3250
G01 X39.7082 Y4.3171
G01 X39.7262 Y4.3103
G01 X39.7464 Y4.3014
G01 X39.7546 Y4.2973
G01 X39.7705 Y4.2879
G01 X39.7912 Y4.2736
G01 X39.8115 Y4.2580
G01 X39.8183 Y4.2522
G01 X39.8281 Y4.2429
G01 X39.8371 Y4.2329
G01 X39.8554 Y4.2094
G01 X39.8851 Y4.1670
G01 X39.9115 Y4.1332
G01 X39.9405 Y4.0991
G01 X39.9703 Y4.0667
G01 X40.0027 Y4.0343
G01 X40.0351 Y4.0036
G01 X40.0682 Y3.9755
G01 X40.1040 Y3.9475
G01 X40.1387 Y3.9219
G01 X40.2142 Y3.8738
G01 X40.2947 Y3.8319
G01 X40.3337 Y3.8140
G01 X40.3742 Y3.7979
G01 X40.4171 Y3.7825
G01 X40.4590 Y3.7697
G01 X40.5026 Y3.7577
G01 X40.5454 Y3.7483
G01 X40.5897 Y3.7398
G01 X40.6330 Y3.7340
G01 X40.6768 Y3.7297
G01 X40.7213 Y3.7271
G01 X40.7670 Y3.7262
G01 X40.8118 Y3.7271
G01 X40.8577 Y3.7297
G01 X40.9016 Y3.7338
G01 X40.9449 Y3.7405
G01 X40.9923 Y3.7494
G01 X41.0341 Y3.7584
G01 X41.1217 Y3.7842
G01 X41.2063 Y3.8176
G01 X41.2461 Y3.8362
G01 X41.2876 Y3.8570
G01 X41.3259 Y3.8786
G01 X41.3654 Y3.9032
G01 X41.4019 Y3.9272
G01 X41.4376 Y3.9544
G01 X41.4736 Y3.9827
G01 X41.5060 Y4.0118
G01 X41.5404 Y4.0444
G01 X41.5720 Y4.0769
G01 X41.6010 Y4.1092
G01 X41.6292 Y4.1443
G01 X41.6576 Y4.1814
G01 X41.6839 Y4.2189
G01 X41.7077 Y4.2562
G01 X41.7301 Y4.2945
G01 X41.7505 Y4.3344
G01 X41.7745 Y4.3842
G01 X41.7857 Y4.4051
G01 X41.7903 Y4.4128
G01 X41.8034 Y4.4324
G01 X41.8119 Y4.4436
G01 X41.8212 Y4.4541
G01 X41.8345 Y4.4675
G01 X41.8444 Y4.4767
G01 X41.8513 Y4.4824
G01 X41.8705 Y4.4968
G01 X41.8816 Y4.5042
G01 X41.8894 Y4.5087
G01 X41.9013 Y4.5147
G01 X41.9191 Y4.5228
G01 X41.9373 Y4.5306
G01 X41.9503 Y4.5352
G01 X41.9592 Y4.5378
G01 X41.9866 Y4.5439
G01 X42.0048 Y4.5464
G01 X42.0331 Y4.5482
G01 X42.0462 Y4.5480
G01 X42.0646 Y4.5467
G01 X42.0821 Y4.5446
G01 X42.1093 Y4.5390
G01 X42.1227 Y4.5352
G01 X42.1314 Y4.5322
G01 X42.1587 Y4.5207
G01 X42.1757 Y4.5128
G01 X42.1875 Y4.5065
G01 X42.2025 Y4.4968
G01 X42.2181 Y4.4852
G01 X42.2252 Y4.4796
G01 X42.2353 Y4.4706
G01 X42.2518 Y4.4541
G01 X42.2611 Y4.4436
G01 X42.2696 Y4.4324
G01 X42.2827 Y4.4128
G01 X42.2873 Y4.4051
G01 X42.2985 Y4.3842
G01 X42.3225 Y4.3344
G01 X42.3429 Y4.2945
G01 X42.3653 Y4.2562
G01 X42.3891 Y4.2189
G01 X42.4154 Y4.1814
G01 X42.4438 Y4.1443
G01 X42.4720 Y4.1092
G01 X42.5010 Y4.0769
G01 X42.5326 Y4.0444
G01 X42.5670 Y4.0118
G01 X42.5994 Y3.9827
G01 X42.6354 Y3.9544
G01 X42.6711 Y3.9272
G01 X42.7076 Y3.9032
G01 X42.7471 Y3.8786
G01 X42.7854 Y3.8570
G01 X42.8269 Y3.8362
G01 X42.8667 Y3.8176
G01 X42.9513 Y3.7842
G01 X43.0389 Y3.7584
G01 X43.0807 Y3.7494
G01 X43.1281 Y3.7405
G01 X43.1714 Y3.7338
G01 X43.2153 Y3.7297
G01 X43.2612 Y3.7271
G01 X43.3070 Y3.7262
G01 X43.3518 Y3.7271
G01 X43.3977 Y3.7297
G01 X43.4416 Y3.7338
G01 X43.4849 Y3.7405
G01 X43.5323 Y3.7494
G01 X43.5741 Y3.7584
G01 X43.6617 Y3.7842
G01 X43.7463 Y3.8176
G01 X43.7861 Y3.8362
G01 X43.8276 Y3.8570
G01 X43.8659 Y3.8786
G01 X43.9054 Y3.9032
G01 X43.9419 Y3.9272
G01 X43.9776 Y3.9544
G01 X44.0136 Y3.9827
G01 X44.0460 Y4.0118
G01 X44.0804 Y4.0444
G01 X44.1120 Y4.0769
G01 X44.1410 Y4.1092
G01 X44.1692 Y4.1443
G01 X44.1976 Y4.1814
G01 X44.2239 Y4.2189
G01 X44.2477 Y4.2562
G01 X44.2701 Y4.2945
G01 X44.2905 Y4.3344
G01 X44.3145 Y4.3842
G01 X44.3280 Y4.4089
G01 X44.3434 Y4.4324
G01 X44.3519 Y4.4436
G01 X44.3612 Y4.4541
G01 X44.3777 Y4.4706
G01 X44.3844 Y4.4767
G01 X44.3949 Y4.4852
G01 X44.4105 Y4.4968
G01 X44.4216 Y4.5042
G01 X44.4294 Y4.5087
G01 X44.4413 Y4.5147
G01 X44.4591 Y4.5228
G01 X44.4773 Y4.5306
G01 X44.4903 Y4.5352
G01 X44.4992 Y4.5378
G01 X44.5266 Y4.5439
G01 X44.5448 Y4.5464
G01 X44.5731 Y4.5482
G01 X44.5862 Y4.5480
G01 X44.6046 Y4.5467
G01 X44.6221 Y4.5446
G01 X44.6493 Y4.5390
G01 X44.6627 Y4.5352
G01 X44.6714 Y4.5322
G01 X44.6987 Y4.5207
G01 X44.7157 Y4.5128
G01 X44.7275 Y4.5065
G01 X44.7425 Y4.4968
G01 X44.7581 Y4.4852
G01 X44.7652 Y4.4796
G01 X44.7753 Y4.4706
G01 X44.7918 Y4.4541
G01 X44.8011 Y4.4436
G01 X44.8096 Y4.4324
G01 X44.8227 Y4.4128
G01 X44.8273 Y4.4051
G01 X44.8385 Y4.3842
G01 X44.8625 Y4.3344
G01 X44.8829 Y4.2945
G01 X44.9053 Y4.2562
G01 X44.9291 Y4.2189
G01 X44.9554 Y4.1814
G01 X44.9838 Y4.1443
G01 X45.0120 Y4.1092
G01 X45.0410 Y4.0769
G01 X45.0726 Y4.0444
G01 X45.1070 Y4.0118
G01 X45.1394 Y3.9827
G01 X45.1754 Y3.9544
G01 X45.2111 Y3.9272
G01 X45.2476 Y3.9032
G01 X45.2871 Y3.8786
G01 X45.3254 Y3.8570
G01 X45.3669 Y3.8362
G01 X45.4067 Y3.8176
G01 X45.4913 Y3.7842
G01 X45.5789 Y3.7584
G01 X45.6207 Y3.7494
G01 X45.6681 Y3.7405
G01 X45.7114 Y3.7338
G01 X45.7553 Y3.7297
G01 X45.8012 Y3.7271
G01 X45.8470 Y3.7262
G01 X45.8918 Y3.7271
G01 X45.9377 Y3.7297
G01 X45.9816 Y3.7338
G01 X46.0249 Y3.7405
G01 X46.0723 Y3.7494
G01 X46.1141 Y3.7584
G01 X46.2017 Y3.7842
G01 X46.2863 Y3.8176
G01 X46.3261 Y3.8362
G01 X46.3676 Y3.8570
G01 X46.4059 Y3.8786
G01 X46.4454 Y3.9032
G01 X46.4819 Y3.9272
G01 X46.5176 Y3.9544
G01 X46.5536 Y3.9827
G01 X46.5860 Y4.0118
G01 X46.6204 Y4.0444
G01 X46.6520 Y4.0769
G01 X46.6810 Y4.1092
G01 X46.7092 Y4.1443
G01 X46.7376 Y4.1814
G01 X46.7639 Y4.2189
G01 X46.7877 Y4.2562
G01 X46.8101 Y4.2945
G01 X46.8305 Y4.3344
G01 X46.8545 Y4.3842
G01 X46.8680 Y4.4089
G01 X46.8834 Y4.4324
G01 X46.8919 Y4.4436
G01 X46.9012 Y4.4541
G01 X46.9177 Y4.4706
G01 X46.9244 Y4.4767
G01 X46.9349 Y4.4852
G01 X46.9505 Y4.4968
G01 X46.9616 Y4.5042
G01 X46.9694 Y4.5087
G01 X46.9813 Y4.5147
G01 X46.9991 Y4.5228
G01 X47.0173 Y4.5306
G01 X47.0260 Y4.5338
G01 X47.0392 Y4.5378
G01 X47.0666 Y4.5439
G01 X47.0848 Y4.5464
G01 X47.1087 Y4.5480
G01 X47.1262 Y4.5480
G01 X47.1490 Y4.5463
G01 X47.1578 Y4.5453
G01 X47.1665 Y4.5439
G01 X47.1893 Y4.5390
G01 X47.2027 Y4.5352
G01 X47.2114 Y4.5322
G01 X47.2387 Y4.5207
G01 X47.2557 Y4.5128
G01 X47.2675 Y4.5065
G01 X47.2825 Y4.4968
G01 X47.2981 Y4.4852
G01 X47.3086 Y4.4767
G01 X47.3153 Y4.4706
G01 X47.3318 Y4.4541
G01 X47.3411 Y4.4436
G01 X47.3496 Y4.4324
G01 X47.3627 Y4.4128
G01 X47.3673 Y4.4051
G01 X47.3785 Y4.3842
G01 X47.4025 Y4.3344
G01 X47.4229 Y4.2945
G01 X47.4453 Y4.2562
G01 X47.4691 Y4.2189
G01 X47.4954 Y4.1814
G01 X47.5238 Y4.1443
G01 X47.5520 Y4.1092
G01 X47.5810 Y4.0769
G01 X47.6126 Y4.0444
G01 X47.6470 Y4.0118
G01 X47.6794 Y3.9827
G01 X47.7154 Y3.9544
G01 X47.7511 Y3.9272
G01 X47.7876 Y3.9032
G01 X47.8271 Y3.8786
G01 X47.8654 Y3.8570
G01 X47.9069 Y3.8362
G01 X47.9467 Y3.8176
G01 X48.0313 Y3.7842
G01 X48.1189 Y3.7584
G01 X48.1607 Y3.7494
G01 X48.2081 Y3.7405
G01 X48.2514 Y3.7338
G01 X48.2953 Y3.7297
G01 X48.3412 Y3.7271
G01 X48.3870 Y3.7262
G01 X48.4318 Y3.7271
G01 X48.4777 Y3.7297
G01 X48.5216 Y3.7338
G01 X48.5649 Y3.7405
G01 X48.6123 Y3.7494
G01 X48.6541 Y3.7584
G01 X48.7417 Y3.7842
G01 X48.8263 Y3.8176
G01 X48.8661 Y3.8362
G01 X48.9076 Y3.8570
G01 X48.9459 Y3.8786
G01 X48.9854 Y3.9032
G01 X49.0219 Y3.9272
G01 X49.0576 Y3.9544
G01 X49.0936 Y3.9827
G01 X49.1260 Y4.0118
G01 X49.1604 Y4.0444
G01 X49.1920 Y4.0769
G01 X49.2210 Y4.1092
G01 X49.2492 Y4.1443
G01 X49.2776 Y4.1814
G01 X49.3039 Y4.2189
G01 X49.3277 Y4.2562
G01 X49.3501 Y4.2945
G01 X49.3705 Y4.3344
G01 X49.3945 Y4.3842
G01 X49.4080 Y4.4089
G01 X49.4234 Y4.4324
G01 X49.4319 Y4.4436
G01 X49.4412 Y4.4541
G01 X49.4577 Y4.4706
G01 X49.4644 Y4.4767
G01 X49.4749 Y4.4852
G01 X49.4905 Y4.4968
G01 X49.5016 Y4.5042
G01 X49.5094 Y4.5087
G01 X49.5213 Y4.5147
G01 X49.5391 Y4.5228
G01 X49.5573 Y4.5306
G01 X49.5703 Y4.5352
G01 X49.5792 Y4.5378
G01 X49.6066 Y4.5439
G01 X49.6202 Y4.5459
G01 X49.6443 Y4.5478
G01 X49.6531 Y4.5482
G01 X49.6662 Y4.5480
G01 X49.6890 Y4.5463
G01 X49.6978 Y4.5453
G01 X49.7065 Y4.5439
G01 X49.7293 Y4.5390
G01 X49.7427 Y4.5352
G01 X49.7514 Y4.5322
G01 X49.7787 Y4.5207
G01 X49.7957 Y4.5128
G01 X49.8075 Y4.5065
G01 X49.8225 Y4.4968
G01 X49.8381 Y4.4852
G01 X49.8486 Y4.4767
G01 X49.8553 Y4.4706
G01 X49.8718 Y4.4541
G01 X49.8811 Y4.4436
G01 X49.8896 Y4.4324
G01 X49.9027 Y4.4128
G01 X49.9073 Y4.4051
G01 X49.9185 Y4.3842
G01 X49.9425 Y4.3344
G01 X49.9629 Y4.2945
G01 X49.9853 Y4.2562
G01 X50.0091 Y4.2189
G01 X50.0354 Y4.1814
G01 X50.0638 Y4.1443
G01 X50.0920 Y4.1092
G01 X50.1210 Y4.0769
G01 X50.1526 Y4.0444
G01 X50.1870 Y4.0118
G01 X50.2194 Y3.9827
G01 X50.2554 Y3.9544
G01 X50.2911 Y3.9272
G01 X50.3276 Y3.9032
G01 X50.3671 Y3.8786
G01 X50.4054 Y3.8570
G01 X50.4469 Y3.8362
G01 X50.4867 Y3.8176
G01 X50.5713 Y3.7842
G01 X50.6589 Y3.7584
G01 X50.7007 Y3.7494
G01 X50.7481 Y3.7405
G01 X50.7914 Y3.7338
G01 X50.8353 Y3.7297
G01 X50.8812 Y3.7271
G01 X50.9270 Y3.7262
G01 X50.9718 Y3.7271
G01 X51.0175 Y3.7297
G01 X51.0624 Y3.7340
G01 X51.1066 Y3.7398
G01 X51.1492 Y3.7480
G01 X51.1930 Y3.7583
G01 X51.2368 Y3.7704
G01 X51.2798 Y3.7841
G01 X51.3228 Y3.7996
G01 X51.3637 Y3.8163
G01 X51.4041 Y3.8352
G01 X51.4462 Y3.8563
G01 X51.4843 Y3.8774
G01 X51.5233 Y3.9012
G01 X51.5590 Y3.9252
G01 X51.6055 Y3.9596
G01 X51.6275 Y3.9737
G01 X51.6364 Y3.9788
G01 X51.6647 Y3.9922
G01 X51.6817 Y3.9987
G01 X51.6905 Y4.0014
G01 X51.7157 Y4.0077
G01 X51.7254 Y4.0096
G01 X51.7353 Y4.0110
G01 X51.7611 Y4.0128
G01 X51.7730 Y4.0132
G01 X53.2109 Y4.0132
G01 X53.2507 Y4.0141
G01 X53.2885 Y4.0165
G01 X53.3244 Y4.0204
G01 X53.3601 Y4.0266
G01 X53.3988 Y4.0352
G01 X53.4355 Y4.0442
G01 X53.4696 Y4.0551
G01 X53.5068 Y4.0686
G01 X53.5412 Y4.0825
G01 X53.5740 Y4.0978
G01 X53.6068 Y4.1158
G01 X53.6412 Y4.1356
G01 X53.6725 Y4.1557
G01 X53.7022 Y4.1767
G01 X53.7314 Y4.2003
G01 X53.7609 Y4.2255
G01 X53.7895 Y4.2525
G01 X56.9605 Y7.4235
G01 X56.9875 Y7.4521
G01 X57.0127 Y7.4816
G01 X57.0363 Y7.5108
G01 X57.0573 Y7.5405
G01 X57.0774 Y7.5718
G01 X57.0972 Y7.6062
G01 X57.1152 Y7.6390
G01 X57.1305 Y7.6718
G01 X57.1444 Y7.7062
G01 X57.1579 Y7.7434
G01 X57.1688 Y7.7775
G01 X57.1778 Y7.8142
G01 X57.1864 Y7.8529
G01 X57.1926 Y7.8886
G01 X57.1965 Y7.9245
G01 X57.1989 Y7.9623
G01 X57.1998 Y8.0021
G01 X57.1998 Y10.1170
G01 X57.2012 Y10.1449
G01 X57.2026 Y10.1589
G01 X57.2061 Y10.1774
G01 X57.2138 Y10.2058
G01 X57.2168 Y10.2144
G01 X57.2244 Y10.2336
G01 X57.2319 Y10.2501
G01 X57.2386 Y10.2620
G01 X57.2500 Y10.2799
G01 X57.2820 Y10.3260
G01 X57.3061 Y10.3634
G01 X57.3282 Y10.4025
G01 X57.3502 Y10.4438
G01 X57.3690 Y10.4831
G01 X57.3908 Y10.5357
G01 X57.4020 Y10.5583
G01 X57.4092 Y10.5705
G01 X57.4224 Y10.5904
G01 X57.4311 Y10.6018
G01 X57.4505 Y10.6235
G01 X57.4609 Y10.6335
G01 X57.4720 Y10.6428
G01 X57.4885 Y10.6553
G01 X57.4955 Y10.6603
G01 X57.5153 Y10.6732
G01 X57.5233 Y10.6777
G01 X57.5357 Y10.6838
G01 X57.5485 Y10.6889
G01 X57.5759 Y10.6979
G01 X57.6021 Y10.7040
G01 X57.6161 Y10.7064
G01 X57.6301 Y10.7078
G01 X57.6559 Y10.7092
G01 X57.6707 Y10.7088
G01 X57.6902 Y10.7074
G01 X57.6993 Y10.7064
G01 X57.7129 Y10.7040
G01 X57.7391 Y10.6979
G01 X57.7665 Y10.6889
G01 X57.7793 Y10.6838
G01 X57.7917 Y10.6777
G01 X57.8075 Y10.6683
G01 X57.8265 Y10.6553
G01 X57.8467 Y10.6398
G01 X57.8611 Y10.6269
G01 X57.8809 Y10.6054
G01 X57.8926 Y10.5904
G01 X57.9058 Y10.5705
G01 X57.9130 Y10.5583
G01 X57.9240 Y10.5361
G01 X57.9460 Y10.4839
G01 X57.9638 Y10.4458
G01 X58.0075 Y10.3663
G01 X58.0311 Y10.3292
G01 X58.0550 Y10.2938
G01 X58.0821 Y10.2591
G01 X58.1118 Y10.2222
G01 X58.1399 Y10.1899
G01 X58.1696 Y10.1594
G01 X58.2020 Y10.1288
G01 X58.2352 Y10.0998
G01 X58.2710 Y10.0710
G01 X58.3048 Y10.0454
G01 X58.3424 Y10.0206
G01 X58.3803 Y9.9965
G01 X58.4182 Y9.9755
G01 X58.4577 Y9.9549
G01 X58.4982 Y9.9363
G01 X58.5378 Y9.9198
G01 X58.5797 Y9.9053
G01 X58.6227 Y9.8912
G01 X58.6646 Y9.8797
G01 X58.7077 Y9.8702
G01 X58.7528 Y9.8614
G01 X58.7958 Y9.8548
G01 X58.8377 Y9.8507
G01 X58.8832 Y9.8481
G01 X58.9280 Y9.8472
G01 X58.9718 Y9.8481
G01 X59.0173 Y9.8507
G01 X59.0592 Y9.8548
G01 X59.1022 Y9.8614
G01 X59.1473 Y9.8702
G01 X59.1904 Y9.8797
G01 X59.2323 Y9.8912
G01 X59.2753 Y9.9053
G01 X59.3172 Y9.9198
G01 X59.3568 Y9.9363
G01 X59.3973 Y9.9549
G01 X59.4368 Y9.9755
G01 X59.4747 Y9.9965
G01 X59.5126 Y10.0206
G01 X59.5502 Y10.0454
G01 X59.5840 Y10.0710
G01 X59.6198 Y10.0998
G01 X59.6530 Y10.1288
G01 X59.6854 Y10.1594
G01 X59.7151 Y10.1899
G01 X59.7432 Y10.2222
G01 X59.7729 Y10.2591
G01 X59.8000 Y10.2938
G01 X59.8239 Y10.3292
G01 X59.8475 Y10.3663
G01 X59.8912 Y10.4458
G01 X59.9090 Y10.4839
G01 X59.9310 Y10.5361
G01 X59.9420 Y10.5583
G01 X59.9467 Y10.5665
G01 X59.9597 Y10.5865
G01 X59.9681 Y10.5981
G01 X59.9773 Y10.6089
G01 X59.9939 Y10.6269
G01 X60.0083 Y10.6398
G01 X60.0250 Y10.6528
G01 X60.0355 Y10.6603
G01 X60.0514 Y10.6708
G01 X60.0593 Y10.6755
G01 X60.0715 Y10.6819
G01 X60.0799 Y10.6856
G01 X60.0929 Y10.6904
G01 X60.1159 Y10.6979
G01 X60.1421 Y10.7040
G01 X60.1607 Y10.7070
G01 X60.1910 Y10.7091
G01 X60.2058 Y10.7090
G01 X60.2257 Y10.7078
G01 X60.2348 Y10.7069
G01 X60.2484 Y10.7049
G01 X60.2710 Y10.7001
G01 X60.2791 Y10.6979
G01 X60.3108 Y10.6873
G01 X60.3235 Y10.6819
G01 X60.3357 Y10.6755
G01 X60.3436 Y10.6708
G01 X60.3595 Y10.6603
G01 X60.3700 Y10.6528
G01 X60.3867 Y10.6398
G01 X60.4011 Y10.6269
G01 X60.4177 Y10.6089
G01 X60.4269 Y10.5981
G01 X60.4353 Y10.5865
G01 X60.4483 Y10.5665
G01 X60.4530 Y10.5583
G01 X60.4640 Y10.5361
G01 X60.4860 Y10.4839
G01 X60.5038 Y10.4458
G01 X60.5475 Y10.3663
G01 X60.5711 Y10.3292
G01 X60.5950 Y10.2938
G01 X60.6221 Y10.2591
G01 X60.6518 Y10.2222
G01 X60.6799 Y10.1899
G01 X60.7096 Y10.1594
G01 X60.7420 Y10.1288
G01 X60.7752 Y10.0998
G01 X60.8110 Y10.0710
G01 X60.8448 Y10.0454
G01 X60.8824 Y10.0206
G01 X60.9203 Y9.9965
G01 X60.9582 Y9.9755
G01 X60.9977 Y9.9549
G01 X61.0382 Y9.9363
G01 X61.0778 Y9.9198
G01 X61.1197 Y9.9053
G01 X61.1627 Y9.8912
G01 X61.2046 Y9.8797
G01 X61.2477 Y9.8702
G01 X61.2928 Y9.8614
G01 X61.3358 Y9.8548
G01 X61.3777 Y9.8507
G01 X61.4232 Y9.8481
G01 X61.4680 Y9.8472
G01 X61.5118 Y9.8481
G01 X61.5573 Y9.8507
G01 X61.5992 Y9.8548
G01 X61.6422 Y9.8614
G01 X61.6873 Y9.8702
G01 X61.7304 Y9.8797
G01 X61.7723 Y9.8912
G01 X61.8153 Y9.9053
G01 X61.8572 Y9.9198
G01 X61.8968 Y9.9363
G01 X61.9373 Y9.9549
G01 X61.9768 Y9.9755
G01 X62.0147 Y9.9965
G01 X62.0526 Y10.0206
G01 X62.0902 Y10.0454
G01 X62.1240 Y10.0710
G01 X62.1598 Y10.0998
G01 X62.1930 Y10.1288
G01 X62.2254 Y10.1594
G01 X62.2551 Y10.1899
G01 X62.2832 Y10.2222
G01 X62.3129 Y10.2591
G01 X62.3400 Y10.2938
G01 X62.3639 Y10.3292
G01 X62.3875 Y10.3663
G01 X62.4312 Y10.4458
G01 X62.4490 Y10.4839
G01 X62.4692 Y10.5322
G01 X62.4843 Y10.5624
G01 X62.4917 Y10.5745
G01 X62.5052 Y10.5943
G01 X62.5141 Y10.6054
G01 X62.5305 Y10.6235
G01 X62.5445 Y10.6367
G01 X62.5685 Y10.6553
G01 X62.5914 Y10.6708
G01 X62.5993 Y10.6755
G01 X62.6115 Y10.6819
G01 X62.6285 Y10.6889
G01 X62.6479 Y10.6954
G01 X62.6600 Y10.6990
G01 X62.6914 Y10.7057
G01 X62.7101 Y10.7078
G01 X62.7310 Y10.7091
G01 X62.7408 Y10.7092
G01 X62.7657 Y10.7078
G01 X62.7793 Y10.7064
G01 X62.7929 Y10.7040
G01 X62.8150 Y10.6990
G01 X62.8271 Y10.6954
G01 X62.8465 Y10.6889
G01 X62.8593 Y10.6838
G01 X62.8676 Y10.6798
G01 X62.8797 Y10.6732
G01 X62.8875 Y10.6683
G01 X62.9065 Y10.6553
G01 X62.9230 Y10.6428
G01 X62.9341 Y10.6335
G01 X62.9411 Y10.6269
G01 X62.9577 Y10.6089
G01 X62.9669 Y10.5981
G01 X62.9753 Y10.5865
G01 X62.9883 Y10.5665
G01 X62.9930 Y10.5583
G01 X63.0040 Y10.5361
G01 X63.0260 Y10.4839
G01 X63.0438 Y10.4458
G01 X63.0875 Y10.3663
G01 X63.1111 Y10.3292
G01 X63.1350 Y10.2938
G01 X63.1621 Y10.2591
G01 X63.1918 Y10.2222
G01 X63.2199 Y10.1899
G01 X63.2496 Y10.1594
G01 X63.2820 Y10.1288
G01 X63.3152 Y10.0998
G01 X63.3510 Y10.0710
G01 X63.3848 Y10.0454
G01 X63.4224 Y10.0206
G01 X63.4603 Y9.9965
G01 X63.4982 Y9.9755
G01 X63.5377 Y9.9549
G01 X63.5782 Y9.9363
G01 X63.6178 Y9.9198
G01 X63.6597 Y9.9053
G01 X63.7027 Y9.8912
G01 X63.7446 Y9.8797
G01 X63.7877 Y9.8702
G01 X63.8328 Y9.8614
G01 X63.8758 Y9.8548
G01 X63.9177 Y9.8507
G01 X63.9632 Y9.8481
G01 X64.0080 Y9.8472
G01 X64.0518 Y9.8481
G01 X64.0973 Y9.8507
G01 X64.1392 Y9.8548
G01 X64.1822 Y9.8614
G01 X64.2273 Y9.8702
G01 X64.2704 Y9.8797
G01 X64.3123 Y9.8912
G01 X64.3553 Y9.9053
G01 X64.3972 Y9.9198
G01 X64.4368 Y9.9363
G01 X64.4773 Y9.9549
G01 X64.5168 Y9.9755
G01 X64.5547 Y9.9965
G01 X64.5926 Y10.0206
G01 X64.6302 Y10.0454
G01 X64.6640 Y10.0710
G01 X64.6998 Y10.0998
G01 X64.7330 Y10.1288
G01 X64.7654 Y10.1594
G01 X64.7951 Y10.1899
G01 X64.8232 Y10.2222
G01 X64.8529 Y10.2591
G01 X64.8800 Y10.2938
G01 X64.9039 Y10.3292
G01 X64.9275 Y10.3663
G01 X64.9712 Y10.4458
G01 X64.9890 Y10.4839
G01 X65.0092 Y10.5322
G01 X65.0243 Y10.5624
G01 X65.0317 Y10.5745
G01 X65.0452 Y10.5943
G01 X65.0541 Y10.6054
G01 X65.0705 Y10.6235
G01 X65.0845 Y10.6367
G01 X65.1085 Y10.6553
G01 X65.1314 Y10.6708
G01 X65.1474 Y10.6798
G01 X65.1557 Y10.6838
G01 X65.1685 Y10.6889
G01 X65.1959 Y10.6979
G01 X65.2221 Y10.7040
G01 X65.2407 Y10.7070
G01 X65.2759 Y10.7092
G01 X65.2858 Y10.7090
G01 X65.3102 Y10.7074
G01 X65.3239 Y10.7057
G01 X65.3329 Y10.7040
G01 X65.3510 Y10.7001
G01 X65.3671 Y10.6954
G01 X65.3865 Y10.6889
G01 X65.3951 Y10.6856
G01 X65.4076 Y10.6798
G01 X65.4197 Y10.6732
G01 X65.4395 Y10.6603
G01 X65.4500 Y10.6528
G01 X65.4667 Y10.6398
G01 X65.4811 Y10.6269
G01 X65.4977 Y10.6089
G01 X65.5069 Y10.5981
G01 X65.5153 Y10.5865
G01 X65.5283 Y10.5665
G01 X65.5330 Y10.5583
G01 X65.5440 Y10.5361
G01 X65.5660 Y10.4839
G01 X65.5838 Y10.4458
G01 X65.6275 Y10.3663
G01 X65.6511 Y10.3292
G01 X65.6750 Y10.2938
G01 X65.7021 Y10.2591
G01 X65.7318 Y10.2222
G01 X65.7599 Y10.1899
G01 X65.7896 Y10.1594
G01 X65.8220 Y10.1288
G01 X65.8552 Y10.0998
G01 X65.8910 Y10.0710
G01 X65.9248 Y10.0454
G01 X65.9624 Y10.0206
G01 X66.0003 Y9.9965
G01 X66.0382 Y9.9755
G01 X66.0777 Y9.9549
G01 X66.1182 Y9.9363
G01 X66.1578 Y9.9198
G01 X66.1997 Y9.9053
G01 X66.2427 Y9.8912
G01 X66.2846 Y9.8797
G01 X66.3277 Y9.8702
G01 X66.3728 Y9.8614
G01 X66.4158 Y9.8548
G01 X66.4577 Y9.8507
G01 X66.5032 Y9.8481
G01 X66.5480 Y9.8472
G01 X66.5918 Y9.8481
G01 X66.6373 Y9.8507
G01 X66.6792 Y9.8548
G01 X66.7222 Y9.8614
G01 X66.7673 Y9.8702
G01 X66.8104 Y9.8797
G01 X66.8523 Y9.8912
G01 X66.8953 Y9.9053
G01 X66.9372 Y9.9198
G01 X66.9768 Y9.9363
G01 X67.0173 Y9.9549
G01 X67.0568 Y9.9755
G01 X67.0947 Y9.9965
G01 X67.1326 Y10.0206
G01 X67.1702 Y10.0454
G01 X67.2040 Y10.0710
G01 X67.2398 Y10.0998
G01 X67.2730 Y10.1288
G01 X67.3054 Y10.1594
G01 X67.3351 Y10.1899
G01 X67.3632 Y10.2222
G01 X67.3929 Y10.2591
G01 X67.4200 Y10.2938
G01 X67.4439 Y10.3292
G01 X67.4675 Y10.3663
G01 X67.5112 Y10.4458
G01 X67.5290 Y10.4839
G01 X67.5510 Y10.5361
G01 X67.5641 Y10.5620
G01 X67.5711 Y10.5735
G01 X67.5779 Y10.5834
G01 X67.5785 Y10.5949
G01 X67.5795 Y10.6043
G01 X67.5849 Y10.6383
G01 X67.5978 Y10.6950
G01 X67.6065 Y10.7411
G01 X67.6134 Y10.7860
G01 X67.6184 Y10.8309
G01 X67.6209 Y10.8752
G01 X67.6218 Y10.9210
G01 X67.6209 Y10.9679
G01 X67.6184 Y11.0121
G01 X67.6134 Y11.0570
G01 X67.6065 Y11.1019
G01 X67.5978 Y11.1480
G01 X67.5849 Y11.2047
G01 X67.5795 Y11.2387
G01 X67.5785 Y11.2481
G01 X67.5779 Y11.2596
G01 X67.5711 Y11.2695
G01 X67.5641 Y11.2810
G01 X67.5510 Y11.3069
G01 X67.5290 Y11.3591
G01 X67.5112 Y11.3972
G01 X67.4675 Y11.4767
G01 X67.4439 Y11.5138
G01 X67.4200 Y11.5492
G01 X67.3929 Y11.5839
G01 X67.3632 Y11.6208
G01 X67.3351 Y11.6531
G01 X67.3054 Y11.6836
G01 X67.2730 Y11.7142
G01 X67.2398 Y11.7432
G01 X67.2040 Y11.7720
G01 X67.1702 Y11.7976
G01 X67.1326 Y11.8224
G01 X67.0947 Y11.8465
G01 X67.0568 Y11.8675
G01 X67.0173 Y11.8881
G01 X66.9768 Y11.9067
G01 X66.9372 Y11.9232
G01 X66.8953 Y11.9377
G01 X66.8523 Y11.9518
G01 X66.8104 Y11.9633
G01 X66.7673 Y11.9728
G01 X66.7222 Y11.9816
G01 X66.6792 Y11.9882
G01 X66.6373 Y11.9923
G01 X66.5918 Y11.9949
G01 X66.5480 Y11.9958
G01 X66.5032 Y11.9949
G01 X66.4577 Y11.9923
G01 X66.4158 Y11.9882
G01 X66.3728 Y11.9816
G01 X66.3277 Y11.9728
G01 X66.2846 Y11.9633
G01 X66.2427 Y11.9518
G01 X66.1997 Y11.9377
G01 X66.1578 Y11.9232
G01 X66.1182 Y11.9067
G01 X66.0777 Y11.8881
G01 X66.0382 Y11.8675
G01 X66.0003 Y11.8465
G01 X65.9624 Y11.8224
G01 X65.9248 Y11.7976
G01 X65.8910 Y11.7720
G01 X65.8552 Y11.7432
G01 X65.8220 Y11.7142
G01 X65.7896 Y11.6836
G01 X65.7599 Y11.6531
G01 X65.7318 Y11.6208
G01 X65.7021 Y11.5839
G01 X65.6750 Y11.5492
G01 X65.6511 Y11.5138
G01 X65.6275 Y11.4767
G01 X65.5838 Y11.3972
G01 X65.5660 Y11.3591
G01 X65.5458 Y11.3108
G01 X65.5307 Y11.2806
G01 X65.5258 Y11.2725
G01 X65.5153 Y11.2565
G01 X65.5069 Y11.2449
G01 X65.4977 Y11.2341
G01 X65.4811 Y11.2161
G01 X65.4667 Y11.2032
G01 X65.4430 Y11.1852
G01 X65.4197 Y11.1698
G01 X65.4035 Y11.1611
G01 X65.3865 Y11.1541
G01 X65.3591 Y11.1451
G01 X65.3510 Y11.1429
G01 X65.3284 Y11.1381
G01 X65.3102 Y11.1356
G01 X65.2858 Y11.1340
G01 X65.2759 Y11.1338
G01 X65.2407 Y11.1360
G01 X65.2268 Y11.1381
G01 X65.2040 Y11.1429
G01 X65.1919 Y11.1463
G01 X65.1729 Y11.1526
G01 X65.1642 Y11.1557
G01 X65.1515 Y11.1611
G01 X65.1433 Y11.1653
G01 X65.1314 Y11.1722
G01 X65.1120 Y11.1852
G01 X65.1050 Y11.1902
G01 X65.0883 Y11.2032
G01 X65.0739 Y11.2161
G01 X65.0573 Y11.2341
G01 X65.0481 Y11.2449
G01 X65.0397 Y11.2565
G01 X65.0267 Y11.2765
G01 X65.0220 Y11.2847
G01 X65.0110 Y11.3069
G01 X64.9890 Y11.3591
G01 X64.9712 Y11.3972
G01 X64.9275 Y11.4767
G01 X64.9039 Y11.5138
G01 X64.8800 Y11.5492
G01 X64.8529 Y11.5839
G01 X64.8232 Y11.6208
G01 X64.7951 Y11.6531
G01 X64.7654 Y11.6836
G01 X64.7330 Y11.7142
G01 X64.6998 Y11.7432
G01 X64.6640 Y11.7720
G01 X64.6302 Y11.7976
G01 X64.5926 Y11.8224
G01 X64.5547 Y11.8465
G01 X64.5168 Y11.8675
G01 X64.4773 Y11.8881
G01 X64.4368 Y11.9067
G01 X64.3972 Y11.9232
G01 X64.3553 Y11.9377
G01 X64.3123 Y11.9518
G01 X64.2704 Y11.9633
G01 X64.2273 Y11.9728
G01 X64.1822 Y11.9816
G01 X64.1392 Y11.9882
G01 X64.0973 Y11.9923
G01 X64.0518 Y11.9949
G01 X64.0080 Y11.9958
G01 X63.9632 Y11.9949
G01 X63.9177 Y11.9923
G01 X63.8758 Y11.9882
G01 X63.8328 Y11.9816
G01 X63.7877 Y11.9728
G01 X63.7446 Y11.9633
G01 X63.7027 Y11.9518
G01 X63.6597 Y11.9377
G01 X63.6178 Y11.9232
G01 X63.5782 Y11.9067
G01 X63.5377 Y11.8881
G01 X63.4982 Y11.8675
G01 X63.4603 Y11.8465
G01 X63.4224 Y11.8224
G01 X63.3848 Y11.7976
G01 X63.3510 Y11.7720
G01 X63.3152 Y11.7432
G01 X63.2820 Y11.7142
G01 X63.2496 Y11.6836
G01 X63.2199 Y11.6531
G01 X63.1918 Y11.6208
G01 X63.1621 Y11.5839
G01 X63.1350 Y11.5492
G01 X63.1111 Y11.5138
G01 X63.0875 Y11.4767
G01 X63.0438 Y11.3972
G01 X63.0260 Y11.3591
G01 X63.0058 Y11.3108
G01 X62.9907 Y11.2806
G01 X62.9833 Y11.2685
G01 X62.9698 Y11.2487
G01 X62.9609 Y11.2376
G01 X62.9477 Y11.2231
G01 X62.9341 Y11.2095
G01 X62.9230 Y11.2002
G01 X62.9030 Y11.1852
G01 X62.8836 Y11.1722
G01 X62.8757 Y11.1675
G01 X62.8593 Y11.1592
G01 X62.8465 Y11.1541
G01 X62.8231 Y11.1463
G01 X62.8069 Y11.1420
G01 X62.7884 Y11.1381
G01 X62.7748 Y11.1361
G01 X62.7507 Y11.1342
G01 X62.7359 Y11.1338
G01 X62.7101 Y11.1352
G01 X62.6961 Y11.1366
G01 X62.6821 Y11.1390
G01 X62.6600 Y11.1440
G01 X62.6479 Y11.1476
G01 X62.6242 Y11.1557
G01 X62.6115 Y11.1611
G01 X62.6033 Y11.1653
G01 X62.5914 Y11.1722
G01 X62.5720 Y11.1852
G01 X62.5520 Y11.2002
G01 X62.5409 Y11.2095
G01 X62.5305 Y11.2195
G01 X62.5111 Y11.2412
G01 X62.5024 Y11.2526
G01 X62.4867 Y11.2765
G01 X62.4799 Y11.2889
G01 X62.4688 Y11.3117
G01 X62.4490 Y11.3599
G01 X62.4302 Y11.3992
G01 X62.4082 Y11.4405
G01 X62.3861 Y11.4796
G01 X62.3620 Y11.5170
G01 X62.3300 Y11.5631
G01 X62.3186 Y11.5810
G01 X62.3119 Y11.5929
G01 X62.3061 Y11.6052
G01 X62.2952 Y11.6329
G01 X62.2925 Y11.6416
G01 X62.2861 Y11.6656
G01 X62.2833 Y11.6794
G01 X62.2820 Y11.6887
G01 X62.2802 Y11.7141
G01 X62.2798 Y11.7260
G01 X62.2798 Y15.6710
G01 X62.2802 Y15.6829
G01 X62.2820 Y15.7083
G01 X62.2841 Y15.7222
G01 X62.2872 Y15.7360
G01 X62.2925 Y15.7554
G01 X62.2968 Y15.7684
G01 X62.3061 Y15.7918
G01 X62.3141 Y15.8081
G01 X62.3210 Y15.8199
G01 X62.3353 Y15.8416
G01 X62.3439 Y15.8528
G01 X62.3567 Y15.8680
G01 X62.3625 Y15.8744
G01 X63.7505 Y17.2625
G01 X63.7600 Y17.2713
G01 X63.7826 Y17.2899
G01 X63.7902 Y17.2954
G01 X63.8120 Y17.3094
G01 X63.8239 Y17.3161
G01 X63.8362 Y17.3219
G01 X63.8596 Y17.3312
G01 X63.8770 Y17.3368
G01 X63.9012 Y17.3430
G01 X63.9151 Y17.3454
G01 X63.9291 Y17.3468
G01 X63.9570 Y17.3482
G01 X75.6150 Y17.3482
G01 X75.6429 Y17.3468
G01 X75.6569 Y17.3454
G01 X75.6754 Y17.3419
G01 X75.7038 Y17.3342
G01 X75.7124 Y17.3312
G01 X75.7316 Y17.3236
G01 X75.7481 Y17.3161
G01 X75.7600 Y17.3094
G01 X75.7856 Y17.2927
G01 X75.7931 Y17.2871
G01 X75.8088 Y17.2741
G01 X75.8215 Y17.2625
G01 X77.8415 Y15.2425
G01 X77.8503 Y15.2330
G01 X77.8689 Y15.2104
G01 X77.8744 Y15.2028
G01 X77.8860 Y15.1849
G01 X77.8929 Y15.1731
G01 X77.8971 Y15.1651
G01 X77.9009 Y15.1568
G01 X77.9102 Y15.1334
G01 X77.9145 Y15.1204
G01 X77.9198 Y15.1010
G01 X77.9237 Y15.0826
G01 X77.9258 Y15.0639
G01 X77.9272 Y15.0360
G01 X77.9272 Y11.3790
G01 X77.9268 Y11.3671
G01 X77.9250 Y11.3417
G01 X77.9229 Y11.3278
G01 X77.9209 Y11.3186
G01 X77.9145 Y11.2946
G01 X77.9102 Y11.2816
G01 X77.9009 Y11.2582
G01 X77.8929 Y11.2419
G01 X77.8884 Y11.2340
G01 X77.8770 Y11.2161
G01 X77.8689 Y11.2046
G01 X77.8503 Y11.1820
G01 X77.8415 Y11.1725
G01 X72.9005 Y6.2315
G01 X72.8878 Y6.2199
G01 X72.8721 Y6.2069
G01 X72.8646 Y6.2013
G01 X72.8390 Y6.1846
G01 X72.8271 Y6.1779
G01 X72.8106 Y6.1704
G01 X72.7914 Y6.1628
G01 X72.7828 Y6.1598
G01 X72.7544 Y6.1521
G01 X72.7406 Y6.1493
G01 X72.7219 Y6.1472
G01 X72.6940 Y6.1458
G01 X66.2361 Y6.1460
G01 X66.2114 Y6.1475
G01 X66.1974 Y6.1493
G01 X66.1836 Y6.1521
G01 X66.1596 Y6.1585
G01 X66.1423 Y6.1644
G01 X66.1201 Y6.1739
G01 X66.1084 Y6.1797
G01 X66.0906 Y6.1899
G01 X66.0786 Y6.1973
G01 X66.0636 Y6.2086
G01 X66.0419 Y6.2282
G01 X66.0043 Y6.2639
G01 X65.9667 Y6.2963
G01 X65.9274 Y6.3285
G01 X65.8891 Y6.3574
G01 X65.8479 Y6.3855
G01 X65.8054 Y6.4129
G01 X65.7645 Y6.4367
G01 X65.7210 Y6.4598
G01 X65.6760 Y6.4810
G01 X65.6309 Y6.5009
G01 X65.5843 Y6.5185
G01 X65.5363 Y6.5357
G01 X65.4909 Y6.5500
G01 X65.4462 Y6.5614
G01 X65.3467 Y6.5811
G01 X65.2983 Y6.5870
G01 X65.2489 Y6.5923
G01 X65.2003 Y6.5949
G01 X65.1510 Y6.5958
G01 X65.1018 Y6.5949
G01 X65.0527 Y6.5923
G01 X65.0063 Y6.5880
G01 X64.9597 Y6.5813
G01 X64.9100 Y6.5722
G01 X64.8613 Y6.5623
G01 X64.8158 Y6.5514
G01 X64.7711 Y6.5379
G01 X64.7247 Y6.5221
G01 X64.6798 Y6.5048
G01 X64.6344 Y6.4853
G01 X64.5914 Y6.4655
G01 X64.5485 Y6.4427
G01 X64.5049 Y6.4187
G01 X64.4663 Y6.3949
G01 X64.4254 Y6.3664
G01 X64.3854 Y6.3380
G01 X64.3481 Y6.3083
G01 X64.3106 Y6.2762
G01 X64.2759 Y6.2449
G01 X64.2429 Y6.2109
G01 X64.2090 Y6.1744
G01 X64.1770 Y6.1371
G01 X64.1465 Y6.0997
G01 X64.1138 Y6.0550
G01 X64.1009 Y6.0384
G01 X64.0948 Y6.0313
G01 X64.0852 Y6.0212
G01 X64.0783 Y6.0149
G01 X64.0554 Y5.9961
G01 X64.0478 Y5.9906
G01 X64.0299 Y5.9790
G01 X64.0142 Y5.9700
G01 X64.0061 Y5.9660
G01 X63.9879 Y5.9582
G01 X63.9717 Y5.9521
G01 X63.9633 Y5.9496
G01 X63.9431 Y5.9445
G01 X63.9334 Y5.9423
G01 X63.9237 Y5.9407
G01 X63.9138 Y5.9395
G01 X63.8929 Y5.9382
G01 X63.8744 Y5.9379
G01 X63.8484 Y5.9394
G01 X63.8309 Y5.9417
G01 X63.8222 Y5.9435
G01 X63.8019 Y5.9485
G01 X63.7852 Y5.9535
G01 X63.7771 Y5.9565
G01 X63.7591 Y5.9642
G01 X63.7428 Y5.9721
G01 X63.7350 Y5.9766
G01 X63.7171 Y5.9880
G01 X63.7019 Y5.9989
G01 X63.6792 Y6.0180
G01 X63.6662 Y6.0313
G01 X63.6601 Y6.0384
G01 X63.6472 Y6.0550
G01 X63.6145 Y6.0997
G01 X63.5840 Y6.1371
G01 X63.5520 Y6.1744
G01 X63.5181 Y6.2109
G01 X63.4851 Y6.2449
G01 X63.4504 Y6.2762
G01 X63.4129 Y6.3083
G01 X63.3756 Y6.3380
G01 X63.3356 Y6.3664
G01 X63.2947 Y6.3949
G01 X63.2561 Y6.4187
G01 X63.2125 Y6.4427
G01 X63.1696 Y6.4655
G01 X63.1266 Y6.4853
G01 X63.0812 Y6.5048
G01 X63.0363 Y6.5221
G01 X62.9899 Y6.5379
G01 X62.9452 Y6.5514
G01 X62.8997 Y6.5623
G01 X62.8510 Y6.5722
G01 X62.8013 Y6.5813
G01 X62.7547 Y6.5880
G01 X62.7083 Y6.5923
G01 X62.6592 Y6.5949
G01 X62.6110 Y6.5958
G01 X62.5619 Y6.5949
G01 X62.5138 Y6.5923
G01 X62.4658 Y6.5879
G01 X62.4206 Y6.5820
G01 X62.3730 Y6.5732
G01 X62.3250 Y6.5636
G01 X62.2792 Y6.5515
G01 X62.2331 Y6.5385
G01 X62.1883 Y6.5230
G01 X62.1439 Y6.5064
G01 X62.0988 Y6.4870
G01 X62.0541 Y6.4668
G01 X62.0128 Y6.4453
G01 X61.9707 Y6.4221
G01 X61.9311 Y6.3971
G01 X61.8894 Y6.3696
G01 X61.8520 Y6.3424
G01 X61.8130 Y6.3116
G01 X61.7524 Y6.2625
G01 X61.7440 Y6.2567
G01 X61.7267 Y6.2460
G01 X61.7113 Y6.2375
G01 X61.6951 Y6.2304
G01 X61.6770 Y6.2239
G01 X61.6626 Y6.2194
G01 X61.6529 Y6.2170
G01 X61.6344 Y6.2131
G01 X61.6208 Y6.2111
G01 X61.5967 Y6.2092
G01 X61.5815 Y6.2088
G01 X61.5517 Y6.2106
G01 X61.5426 Y6.2116
G01 X61.5290 Y6.2141
G01 X61.5000 Y6.2216
G01 X61.4719 Y6.2314
G01 X61.4597 Y6.2366
G01 X61.4518 Y6.2405
G01 X61.4441 Y6.2447
G01 X61.4273 Y6.2550
G01 X61.4123 Y6.2652
G01 X61.3932 Y6.2809
G01 X61.3803 Y6.2927
G01 X61.3609 Y6.3138
G01 X61.3515 Y6.3256
G01 X61.3372 Y6.3463
G01 X61.3306 Y6.3571
G01 X61.3193 Y6.3780
G01 X61.3134 Y6.3909
G01 X61.3038 Y6.4156
G01 X61.2950 Y6.4321
G01 X61.2831 Y6.4524
G01 X61.2708 Y6.4705
G01 X61.2594 Y6.4854
G01 X61.2461 Y6.4998
G01 X61.2306 Y6.5146
G01 X61.2138 Y6.5288
G01 X61.1981 Y6.5405
G01 X61.1798 Y6.5518
G01 X61.1607 Y6.5624
G01 X61.1424 Y6.5709
G01 X61.1240 Y6.5780
G01 X61.1023 Y6.5846
G01 X61.0809 Y6.5900
G01 X61.0626 Y6.5933
G01 X61.0428 Y6.5950
G01 X61.0172 Y6.5958
G01 X60.7992 Y6.5958
G01 X60.7992 Y6.4732
G01 X61.0257 Y6.4731
G01 X61.0396 Y6.4723
G01 X61.0581 Y6.4695
G01 X61.0762 Y6.4650
G01 X61.0938 Y6.4587
G01 X61.1107 Y6.4507
G01 X61.1228 Y6.4437
G01 X61.1380 Y6.4329
G01 X61.1521 Y6.4207
G01 X61.1619 Y6.4107
G01 X61.1738 Y6.3963
G01 X61.1817 Y6.3848
G01 X61.1887 Y6.3727
G01 X61.1929 Y6.3643
G01 X61.1985 Y6.3514
G01 X61.2030 Y6.3382
G01 X61.2055 Y6.3292
G01 X61.2084 Y6.3155
G01 X61.2103 Y6.3016
G01 X61.2112 Y6.2830
G01 X61.2112 Y6.0470
G01 X61.2339 Y6.0387
G01 X61.2469 Y6.0327
G01 X61.2683 Y6.0212
G01 X61.2843 Y6.0110
G01 X61.3037 Y5.9964
G01 X61.3173 Y5.9846
G01 X61.3370 Y5.9647
G01 X61.3460 Y5.9539
G01 X61.3516 Y5.9464
G01 X61.3653 Y5.9257
G01 X61.3798 Y5.9006
G01 X61.3858 Y5.8879
G01 X61.3936 Y5.8697
G01 X61.3968 Y5.8610
G01 X61.4020 Y5.8433
G01 X61.4077 Y5.8159
G01 X61.4098 Y5.7977
G01 X61.4110 Y5.7783
G01 X61.4112 Y5.7695
G01 X61.4110 Y5.7608
G01 X61.4093 Y5.7380
G01 X61.4069 Y5.7205
G01 X61.4012 Y5.6944
G01 X61.3855 Y5.6385
G01 X61.3743 Y5.5885
G01 X61.3648 Y5.5385
G01 X61.3579 Y5.4874
G01 X61.3525 Y5.4359
G01 X61.3491 Y5.3841
G01 X61.3482 Y5.3330
G01 X61.3491 Y5.2830
G01 X61.3525 Y5.2311
G01 X61.3579 Y5.1796
G01 X61.3648 Y5.1285
G01 X61.3743 Y5.0785
G01 X61.3855 Y5.0285
G01 X61.4021 Y4.9687
G01 X61.4069 Y4.9465
G01 X61.4093 Y4.9290
G01 X61.4110 Y4.9062
G01 X61.4112 Y4.8975
G01 X61.4108 Y4.8843
G01 X61.4089 Y4.8602
G01 X61.4069 Y4.8466
G01 X61.4020 Y4.8237
G01 X61.3996 Y4.8147
G01 X61.3952 Y4.8016
G01 X61.3819 Y4.7706
G01 X61.3776 Y4.7622
G01 X61.3653 Y4.7413
G01 X61.3516 Y4.7206
G01 X61.3431 Y4.7094
G01 X61.3338 Y4.6989
G01 X61.3205 Y4.6855
G01 X61.3140 Y4.6793
G01 X61.3037 Y4.6706
G01 X61.2843 Y4.6560
G01 X61.2724 Y4.6482
G01 X61.2426 Y4.6322
G01 X61.2295 Y4.6265
G01 X61.2112 Y4.6200
G01 X61.2112 Y4.3830
G01 X61.2110 Y4.3737
G01 X61.2098 Y4.3597
G01 X61.2075 Y4.3459
G01 X61.2043 Y4.3323
G01 X61.2001 Y4.3189
G01 X61.1967 Y4.3102
G01 X61.1909 Y4.2975
G01 X61.1841 Y4.2852
G01 X61.1765 Y4.2735
G01 X61.1680 Y4.2623
G01 X61.1587 Y4.2519
G01 X61.1452 Y4.2390
G01 X61.1343 Y4.2302
G01 X61.1188 Y4.2199
G01 X61.1023 Y4.2111
G01 X61.0894 Y4.2055
G01 X61.0762 Y4.2010
G01 X61.0581 Y4.1965
G01 X61.0396 Y4.1937
G01 X61.0257 Y4.1929
G01 X60.7992 Y4.1928
G01 X60.7992 Y4.0712
G01 X61.0172 Y4.0712
G01 X61.0428 Y4.0720
G01 X61.0626 Y4.0737
G01 X61.0837 Y4.0775
G01 X61.1016 Y4.0815
G01 X61.1207 Y4.0880
G01 X61.1458 Y4.0974
G01 X61.1608 Y4.1039
G01 X61.1764 Y4.1131
G01 X61.1978 Y4.1268
G01 X61.2146 Y4.1387
G01 X61.2281 Y4.1501
G01 X61.2436 Y4.1656
G01 X61.2588 Y4.1821
G01 X61.2760 Y4.2035
G01 X61.2929 Y4.2234
G01 X61.3027 Y4.2336
G01 X61.3096 Y4.2400
G01 X61.3288 Y4.2560
G01 X61.3435 Y4.2666
G01 X61.3643 Y4.2794
G01 X61.3725 Y4.2839
G01 X61.3851 Y4.2898
G01 X61.4044 Y4.2976
G01 X61.4184 Y4.3026
G01 X61.4280 Y4.3053
G01 X61.4577 Y4.3114
G01 X61.4730 Y4.3134
G01 X61.4941 Y4.3148
G01 X61.5039 Y4.3152
G01 X61.5187 Y4.3148
G01 X61.5382 Y4.3134
G01 X61.5519 Y4.3117
G01 X61.5749 Y4.3070
G01 X61.5892 Y4.3033
G01 X61.6033 Y4.2985
G01 X61.6239 Y4.2904
G01 X61.6447 Y4.2808
G01 X61.6565 Y4.2745
G01 X61.6715 Y4.2648
G01 X61.6871 Y4.2532
G01 X61.6976 Y4.2447
G01 X61.7075 Y4.2355
G01 X61.7270 Y4.2142
G01 X61.7448 Y4.1922
G01 X61.7550 Y4.1771
G01 X61.7687 Y4.1519
G01 X61.7765 Y4.1343
G01 X61.7832 Y4.1166
G01 X61.7863 Y4.1072
G01 X61.7900 Y4.0929
G01 X61.7939 Y4.0744
G01 X61.7954 Y4.0653
G01 X61.7968 Y4.0517
G01 X61.7982 Y4.0240
G01 X61.7982 Y3.3031
G01 X61.7991 Y3.2633
G01 X61.8015 Y3.2255
G01 X61.8054 Y3.1896
G01 X61.8116 Y3.1539
G01 X61.8202 Y3.1152
G01 X61.8292 Y3.0785
G01 X61.8401 Y3.0444
G01 X61.8536 Y3.0072
G01 X61.8675 Y2.9728
G01 X61.8828 Y2.9400
G01 X61.9008 Y2.9072
G01 X61.9206 Y2.8728
G01 X61.9407 Y2.8415
G01 X61.9617 Y2.8118
G01 X61.9853 Y2.7826
G01 X62.0105 Y2.7531
G01 X62.0375 Y2.7245
G01 X62.6685 Y2.0935
G01 X62.6971 Y2.0665
G01 X62.7266 Y2.0413
G01 X62.7558 Y2.0177
G01 X62.7855 Y1.9967
G01 X62.8168 Y1.9766
G01 X62.8512 Y1.9568
G01 X62.8840 Y1.9388
G01 X62.9168 Y1.9235
G01 X62.9512 Y1.9096
G01 X62.9884 Y1.8961
G01 X63.0225 Y1.8852
G01 X63.0592 Y1.8762
G01 X63.0979 Y1.8676
G01 X63.1336 Y1.8614
G01 X63.1695 Y1.8575
G01 X63.2072 Y1.8551
G01 X63.2480 Y1.8542
G01 X73.4039 Y1.8542
G01 X73.4437 Y1.8551
G01 X73.4815 Y1.8575
G01 X73.5174 Y1.8614
G01 X73.5531 Y1.8676
G01 X73.5918 Y1.8762
G01 X73.6285 Y1.8852
G01 X73.6626 Y1.8961
G01 X73.6998 Y1.9096
G01 X73.7342 Y1.9235
G01 X73.7670 Y1.9388
G01 X73.7998 Y1.9568
G01 X73.8342 Y1.9766
G01 X73.8655 Y1.9967
G01 X73.8952 Y2.0177
G01 X73.9244 Y2.0413
G01 X73.9539 Y2.0665
G01 X73.9825 Y2.0935
G01 X81.0905 Y9.2015
G01 X81.1175 Y9.2301
G01 X81.1427 Y9.2596
G01 X81.1663 Y9.2888
G01 X81.1873 Y9.3185
G01 X81.2074 Y9.3498
G01 X81.2272 Y9.3842
G01 X81.2452 Y9.4170
G01 X81.2605 Y9.4498
G01 X81.2744 Y9.4842
G01 X81.2879 Y9.5214
G01 X81.2988 Y9.5555
G01 X81.3078 Y9.5922
G01 X81.3164 Y9.6309
G01 X81.3226 Y9.6666
G01 X81.3265 Y9.7025
G01 X81.3289 Y9.7403
G01 X81.3298 Y9.7801
G01 X81.3298 Y19.4280
G01 X81.3289 Y19.4688
G01 X81.3265 Y19.5065
G01 X81.3226 Y19.5424
G01 X81.3164 Y19.5781
G01 X81.3078 Y19.6168
G01 X81.2988 Y19.6535
G01 X81.2879 Y19.6876
G01 X81.2744 Y19.7248
G01 X81.2605 Y19.7592
G01 X81.2452 Y19.7920
G01 X81.2272 Y19.8248
G01 X81.2074 Y19.8592
G01 X81.1873 Y19.8905
G01 X81.1663 Y19.9202
G01 X81.1427 Y19.9494
G01 X81.1175 Y19.9789
G01 X81.0905 Y20.0075
G01 X72.5255 Y28.5715
G01 X72.5167 Y28.5810
G01 X72.5039 Y28.5962
G01 X72.4981 Y28.6036
G01 X72.4900 Y28.6151
G01 X72.4786 Y28.6330
G01 X72.4699 Y28.6489
G01 X72.4661 Y28.6572
G01 X72.4584 Y28.6764
G01 X72.4538 Y28.6892
G01 X72.4461 Y28.7176
G01 X72.4433 Y28.7314
G01 X72.4415 Y28.7454
G01 X72.4398 Y28.7740
G01 X72.4400 Y32.9849
G01 X72.4420 Y33.0143
G01 X72.4433 Y33.0236
G01 X72.4461 Y33.0374
G01 X72.4525 Y33.0614
G01 X72.4552 Y33.0701
G01 X72.4661 Y33.0978
G01 X72.4719 Y33.1101
G01 X72.4810 Y33.1259
G01 X72.4920 Y33.1429
G01 X72.5220 Y33.1860
G01 X72.5461 Y33.2234
G01 X72.5682 Y33.2625
G01 X72.5894 Y33.3024
G01 X72.6081 Y33.3431
G01 X72.6260 Y33.3847
G01 X72.6415 Y33.4278
G01 X72.6559 Y33.4704
G01 X72.6676 Y33.5135
G01 X72.6780 Y33.5578
G01 X72.6866 Y33.6024
G01 X72.6934 Y33.6472
G01 X72.6984 Y33.6910
G01 X72.7009 Y33.7361
G01 X72.7018 Y33.7810
G01 X72.7009 Y33.8245
G01 X72.6983 Y33.8681
G01 X72.6941 Y33.9115
G01 X72.6882 Y33.9540
G01 X72.6808 Y33.9949
G01 X72.6705 Y34.0379
G01 X72.6591 Y34.0817
G01 X72.6465 Y34.1219
G01 X72.6321 Y34.1626
G01 X72.6159 Y34.2025
G01 X72.5984 Y34.2419
G01 X72.5784 Y34.2810
G01 X72.5579 Y34.3194
G01 X72.5358 Y34.3555
G01 X72.5120 Y34.3910
G01 X72.4861 Y34.4266
G01 X72.4592 Y34.4613
G01 X72.4314 Y34.4941
G01 X72.4017 Y34.5263
G01 X72.3723 Y34.5557
G01 X72.3401 Y34.5854
G01 X72.3073 Y34.6132
G01 X72.2726 Y34.6401
G01 X72.2370 Y34.6660
G01 X72.2015 Y34.6898
G01 X72.1654 Y34.7119
G01 X72.1270 Y34.7324
G01 X72.0879 Y34.7524
G01 X72.0485 Y34.7699
G01 X72.0086 Y34.7861
G01 X71.9679 Y34.8005
G01 X71.9277 Y34.8131
G01 X71.8839 Y34.8245
G01 X71.8409 Y34.8348
G01 X71.8000 Y34.8422
G01 X71.7575 Y34.8481
G01 X71.7141 Y34.8523
G01 X71.6705 Y34.8549
G01 X71.6279 Y34.8558
G01 X71.5832 Y34.8549
G01 X71.5377 Y34.8523
G01 X71.4958 Y34.8482
G01 X71.4528 Y34.8416
G01 X71.4077 Y34.8328
G01 X71.3646 Y34.8233
G01 X71.3227 Y34.8118
G01 X71.2797 Y34.7977
G01 X71.2378 Y34.7832
G01 X71.1982 Y34.7667
G01 X71.1577 Y34.7481
G01 X71.1182 Y34.7275
G01 X71.0803 Y34.7065
G01 X71.0424 Y34.6824
G01 X71.0048 Y34.6576
G01 X70.9710 Y34.6320
G01 X70.9352 Y34.6032
G01 X70.9020 Y34.5742
G01 X70.8696 Y34.5436
G01 X70.8399 Y34.5131
G01 X70.8118 Y34.4808
G01 X70.7821 Y34.4439
G01 X70.7550 Y34.4092
G01 X70.7311 Y34.3738
G01 X70.7075 Y34.3367
G01 X70.6638 Y34.2572
G01 X70.6460 Y34.2191
G01 X70.6240 Y34.1669
G01 X70.6109 Y34.1410
G01 X70.6039 Y34.1295
G01 X70.5971 Y34.1196
G01 X70.5965 Y34.1081
G01 X70.5955 Y34.0987
G01 X70.5901 Y34.0647
G01 X70.5772 Y34.0080
G01 X70.5685 Y33.9619
G01 X70.5616 Y33.9170
G01 X70.5566 Y33.8721
G01 X70.5541 Y33.8279
G01 X70.5532 Y33.7810
G01 X70.5541 Y33.7352
G01 X70.5566 Y33.6909
G01 X70.5616 Y33.6460
G01 X70.5685 Y33.6011
G01 X70.5772 Y33.5550
G01 X70.5901 Y33.4983
G01 X70.5955 Y33.4643
G01 X70.5965 Y33.4549
G01 X70.5971 Y33.4434
G01 X70.6087 Y33.4259
G01 X70.6131 Y33.4181
G01 X70.6221 Y33.4001
G01 X70.6281 Y33.3869
G01 X70.6460 Y33.3431
G01 X70.6648 Y33.3038
G01 X70.6868 Y33.2625
G01 X70.7089 Y33.2234
G01 X70.7330 Y33.1860
G01 X70.7650 Y33.1399
G01 X70.7764 Y33.1220
G01 X70.7851 Y33.1061
G01 X70.7906 Y33.0936
G01 X70.7998 Y33.0701
G01 X70.8025 Y33.0614
G01 X70.8089 Y33.0374
G01 X70.8109 Y33.0282
G01 X70.8130 Y33.0143
G01 X70.8150 Y32.9849
G01 X70.8152 Y29.1590
G01 X70.8138 Y29.1311
G01 X70.8124 Y29.1171
G01 X70.8100 Y29.1032
G01 X70.8038 Y29.0790
G01 X70.7982 Y29.0616
G01 X70.7889 Y29.0382
G01 X70.7831 Y29.0259
G01 X70.7764 Y29.0140
G01 X70.7624 Y28.9922
G01 X70.7569 Y28.9846
G01 X70.7383 Y28.9620
G01 X70.7295 Y28.9525
G01 X62.9945 Y21.2175
G01 X62.9818 Y21.2059
G01 X62.9661 Y21.1929
G01 X62.9586 Y21.1873
G01 X62.9330 Y21.1706
G01 X62.9171 Y21.1619
G01 X62.9046 Y21.1564
G01 X62.8811 Y21.1472
G01 X62.8724 Y21.1445
G01 X62.8484 Y21.1381
G01 X62.8392 Y21.1361
G01 X62.8253 Y21.1340
G01 X62.7999 Y21.1322
G01 X62.7880 Y21.1318
G01 X24.6400 Y21.1318
G01 X24.5992 Y21.1309
G01 X24.5615 Y21.1285
G01 X24.5256 Y21.1246
G01 X24.4899 Y21.1184
G01 X24.4512 Y21.1098
G01 X24.4145 Y21.1008
G01 X24.3804 Y21.0899
G01 X24.3432 Y21.0764
G01 X24.3088 Y21.0625
G01 X24.2760 Y21.0472
G01 X24.2432 Y21.0292
G01 X24.2088 Y21.0094
G01 X24.1775 Y20.9893
G01 X24.1478 Y20.9683
G01 X24.1186 Y20.9447
G01 X24.0891 Y20.9195
G01 X24.0605 Y20.8925
G01 X23.3025 Y20.1345
G01 X23.2755 Y20.1059
G01 X23.2503 Y20.0764
G01 X23.2267 Y20.0472
G01 X23.2057 Y20.0175
G01 X23.1856 Y19.9862
G01 X23.1658 Y19.9518
G01 X23.1478 Y19.9190
G01 X23.1325 Y19.8862
G01 X23.1186 Y19.8518
G01 X23.1051 Y19.8146
G01 X23.0942 Y19.7805
G01 X23.0852 Y19.7438
G01 X23.0766 Y19.7051
G01 X23.0704 Y19.6694
G01 X23.0665 Y19.6335
G01 X23.0641 Y19.5958
G01 X23.0632 Y19.5550
G01 X23.0632 Y11.1740
G01 X23.0630 Y11.1650
G01 X23.0613 Y11.1420
G01 X23.0589 Y11.1245
G01 X23.0526 Y11.0964
G01 X23.0497 Y11.0868
G01 X23.0431 Y11.0680
G01 X23.0383 Y11.0558
G01 X23.0345 Y11.0478
G01 X23.0305 Y11.0400
G01 X23.0213 Y11.0242
G01 X23.0118 Y11.0094
G01 X22.9946 Y10.9868
G01 X22.9825 Y10.9735
G01 X22.9693 Y10.9604
G01 X22.9626 Y10.9543
G01 X22.9557 Y10.9486
G01 X22.9401 Y10.9368
G01 X22.9284 Y10.9287
G01 X22.9203 Y10.9238
G01 X22.9032 Y10.9145
G01 X22.8902 Y10.9082
G01 X22.8636 Y10.8978
G01 X22.8495 Y10.8933
G01 X22.8214 Y10.8871
G01 X22.8078 Y10.8851
G01 X22.7788 Y10.8830
G01 X22.7640 Y10.8829
G01 X22.7384 Y10.8845
G01 X22.7198 Y10.8871
G01 X22.7106 Y10.8891
G01 X22.6866 Y10.8955
G01 X22.6694 Y10.9014
G01 X22.6458 Y10.9111
G01 X22.6293 Y10.9196
G01 X22.6040 Y10.9354
G01 X22.5830 Y10.9512
G01 X22.5752 Y10.9576
G01 X22.5640 Y10.9680
G01 X22.2933 Y11.2407
G01 X22.2649 Y11.2675
G01 X22.2354 Y11.2927
G01 X22.2062 Y11.3163
G01 X22.1765 Y11.3373
G01 X22.1452 Y11.3574
G01 X22.1108 Y11.3772
G01 X22.0780 Y11.3952
G01 X22.0452 Y11.4105
G01 X22.0108 Y11.4244
G01 X21.9736 Y11.4379
G01 X21.9395 Y11.4488
G01 X21.9028 Y11.4578
G01 X21.8641 Y11.4664
G01 X21.8284 Y11.4726
G01 X21.7925 Y11.4765
G01 X21.7547 Y11.4789
G01 X21.7149 Y11.4798
G01 X16.3850 Y11.4798
G01 X16.3442 Y11.4789
G01 X16.3065 Y11.4765
G01 X16.2706 Y11.4726
G01 X16.2349 Y11.4664
G01 X16.1962 Y11.4578
G01 X16.1595 Y11.4488
G01 X16.1254 Y11.4379
G01 X16.0882 Y11.4244
G01 X16.0538 Y11.4105
G01 X16.0210 Y11.3952
G01 X15.9882 Y11.3772
G01 X15.9538 Y11.3574
G01 X15.9225 Y11.3373
G01 X15.8928 Y11.3163
G01 X15.8636 Y11.2927
G01 X15.8341 Y11.2675
G01 X15.8055 Y11.2405
G01 X12.7615 Y8.1965
G01 X12.7345 Y8.1679
G01 X12.7093 Y8.1384
G01 X12.6857 Y8.1092
G01 X12.6647 Y8.0795
G01 X12.6446 Y8.0482
G01 X12.6248 Y8.0138
G01 X12.6068 Y7.9810
G01 X12.5915 Y7.9482
G01 X12.5776 Y7.9138
G01 X12.5641 Y7.8766
G01 X12.5532 Y7.8425
G01 X12.5442 Y7.8058
G01 X12.5356 Y7.7671
G01 X12.5294 Y7.7314
G01 X12.5255 Y7.6955
G01 X12.5231 Y7.6578
G01 X12.5222 Y7.6170
G01 X12.5222 Y6.8858
G01 X12.5208 Y6.8623
G01 X12.5192 Y6.8475
G01 X12.5145 Y6.8227
G01 X12.5110 Y6.8083
G01 X12.5081 Y6.7989
G01 X12.5028 Y6.7851
G01 X12.4949 Y6.7668
G01 X12.4886 Y6.7542
G01 X12.4770 Y6.7344
G01 X12.4723 Y6.7270
G01 X12.4526 Y6.7008
G01 X12.4405 Y6.6875
G01 X12.4270 Y6.6741
G01 X12.4197 Y6.6676
G01 X12.4082 Y6.6585
G01 X12.3673 Y6.6300
G01 X12.3500 Y6.6174
G01 X12.3354 Y6.6046
G01 X12.3216 Y6.5914
G01 X12.3089 Y6.5769
G01 X12.2956 Y6.5603
G01 X12.2846 Y6.5444
G01 X12.2732 Y6.5257
G01 X12.2657 Y6.5115
G01 X12.2586 Y6.4939
G01 X12.2499 Y6.4700
G01 X12.2436 Y6.4508
G01 X12.2405 Y6.4368
G01 X12.2381 Y6.4179
G01 X12.2359 Y6.3952
G01 X12.2346 Y6.3585
G01 X12.2308 Y6.3289
G01 X12.2260 Y6.3051
G01 X12.2236 Y6.2954
G01 X12.2207 Y6.2858
G01 X12.2141 Y6.2670
G01 X12.2093 Y6.2548
G01 X12.2015 Y6.2390
G01 X12.1893 Y6.2183
G01 X12.1756 Y6.1977
G01 X12.1701 Y6.1902
G01 X12.1611 Y6.1795
G01 X12.1514 Y6.1694
G01 X12.1394 Y6.1585
G00 Z2.0000
G00 X12.5476 Y6.5646
G01 F60.00
G01 Z-0.1500
G01 F120.00
G01 X12.5290 Y6.5637
G01 X12.5151 Y6.5618
G01 X12.4969 Y6.5577
G01 X12.4791 Y6.5519
G01 X12.4621 Y6.5443
G01 X12.4458 Y6.5351
G01 X12.4306 Y6.5243
G01 X12.4164 Y6.5122
G01 X12.4036 Y6.4986
G01 X12.3921 Y6.4839
G01 X12.3821 Y6.4681
G01 X12.3757 Y6.4557
G01 X12.3685 Y6.4385
G01 X12.3643 Y6.4251
G01 X12.3602 Y6.4069
G01 X12.3579 Y6.3884
G01 X12.3574 Y6.3744
G01 X12.3575 Y4.7949
G01 X12.3583 Y4.7810
G01 X12.3611 Y4.7625
G01 X12.3643 Y4.7489
G01 X12.3701 Y4.7311
G01 X12.3757 Y4.7183
G01 X12.3845 Y4.7018
G01 X12.3948 Y4.6863
G01 X12.4036 Y4.6754
G01 X12.4164 Y4.6618
G01 X12.4306 Y4.6497
G01 X12.4381 Y4.6441
G01 X12.4498 Y4.6365
G01 X12.4663 Y4.6277
G01 X12.4835 Y4.6205
G01 X12.5014 Y4.6151
G01 X12.5197 Y4.6115
G01 X12.5290 Y4.6103
G01 X12.5429 Y4.6095
G01 X14.1224 Y4.6094
G01 X14.1410 Y4.6103
G01 X14.1595 Y4.6131
G01 X14.1731 Y4.6163
G01 X14.1909 Y4.6221
G01 X14.2037 Y4.6277
G01 X14.2161 Y4.6341
G01 X14.2281 Y4.6415
G01 X14.2394 Y4.6497
G01 X14.2466 Y4.6556
G01 X14.2569 Y4.6651
G01 X14.2664 Y4.6754
G01 X14.2752 Y4.6863
G01 X14.2805 Y4.6939
G01 X14.2879 Y4.7059
G01 X14.2943 Y4.7183
G01 X14.2999 Y4.7311
G01 X14.3044 Y4.7444
G01 X14.3080 Y4.7579
G01 X14.3105 Y4.7717
G01 X14.3121 Y4.7856
G01 X14.3126 Y4.7996
G01 X14.3124 Y6.3837
G01 X14.3112 Y6.3977
G01 X14.3098 Y6.4069
G01 X14.3080 Y6.4161
G01 X14.3044 Y6.4296
G01 X14.2981 Y6.4472
G01 X14.2943 Y6.4557
G01 X14.2879 Y6.4681
G01 X14.2831 Y6.4762
G01 X14.2752 Y6.4877
G01 X14.2664 Y6.4986
G01 X14.2602 Y6.5056
G01 X14.2501 Y6.5153
G01 X14.2431 Y6.5214
G01 X14.2357 Y6.5272
G01 X14.2242 Y6.5351
G01 X14.2161 Y6.5399
G01 X14.2037 Y6.5463
G01 X14.1865 Y6.5535
G01 X14.1686 Y6.5589
G01 X14.1503 Y6.5625
G01 X14.1410 Y6.5637
G01 X14.1271 Y6.5645
G01 X14.0254 Y6.5646
G01 X14.0254 Y7.3330
G01 X16.6690 Y9.9766
G01 X21.4310 Y9.9766
G01 X23.1856 Y8.2220
G01 X23.1856 Y6.6201
G01 X23.1600 Y6.6011
G01 X23.1491 Y6.5924
G01 X23.0731 Y6.5235
G01 X23.0633 Y6.5135
G01 X22.9976 Y6.4409
G01 X22.9889 Y6.4300
G01 X22.9280 Y6.3475
G01 X22.8727 Y6.2556
G01 X22.8662 Y6.2431
G01 X22.8226 Y6.1503
G01 X22.7849 Y6.0450
G01 X22.7577 Y5.9364
G01 X22.7424 Y5.8350
G01 X22.7409 Y5.8211
G01 X22.7358 Y5.7140
G01 X22.7413 Y5.6022
G01 X22.7577 Y5.4916
G01 X22.7824 Y5.3920
G01 X22.7878 Y5.3742
G01 X22.8192 Y5.2864
G01 X22.8264 Y5.2691
G01 X22.8704 Y5.1765
G01 X22.9254 Y5.0845
G01 X22.9333 Y5.0729
G01 X22.9946 Y4.9907
G01 X23.0698 Y4.9078
G01 X23.1527 Y4.8326
G01 X23.2349 Y4.7713
G01 X23.2504 Y4.7610
G01 X23.3304 Y4.7130
G01 X23.3469 Y4.7042
G01 X23.4397 Y4.6606
G01 X23.5362 Y4.6258
G01 X23.5540 Y4.6204
G01 X23.6536 Y4.5957
G01 X23.7642 Y4.5793
G01 X23.8760 Y4.5738
G01 X23.9784 Y4.5786
G01 X23.9970 Y4.5804
G01 X24.0892 Y4.5941
G01 X24.1076 Y4.5978
G01 X24.2070 Y4.6229
G01 X24.3036 Y4.6572
G01 X24.3209 Y4.6644
G01 X24.4135 Y4.7084
G01 X24.5095 Y4.7660
G01 X24.5993 Y4.8326
G01 X24.6755 Y4.9013
G01 X24.6855 Y4.9111
G01 X24.7574 Y4.9907
G01 X24.8240 Y5.0805
G01 X24.8816 Y5.1765
G01 X24.9294 Y5.2777
G01 X24.9671 Y5.3830
G01 X24.9943 Y5.4916
G01 X25.0107 Y5.6022
G01 X25.0162 Y5.7140
G01 X25.0107 Y5.8258
G01 X24.9959 Y5.9272
G01 X24.9922 Y5.9456
G01 X24.9671 Y6.0450
G01 X24.9328 Y6.1416
G01 X24.9256 Y6.1589
G01 X24.8837 Y6.2473
G01 X24.8770 Y6.2596
G01 X24.8240 Y6.3475
G01 X24.7631 Y6.4300
G01 X24.7544 Y6.4409
G01 X24.6887 Y6.5135
G01 X24.6789 Y6.5235
G01 X24.6029 Y6.5924
G01 X24.5920 Y6.6011
G01 X24.5664 Y6.6201
G01 X24.5664 Y19.2710
G01 X24.9240 Y19.6286
G01 X63.2460 Y19.6286
G01 X63.3137 Y19.6319
G01 X63.3761 Y19.6410
G01 X63.3898 Y19.6439
G01 X63.4374 Y19.6558
G01 X63.4553 Y19.6612
G01 X63.5102 Y19.6811
G01 X63.5715 Y19.7101
G01 X63.6296 Y19.7449
G01 X63.6767 Y19.7795
G01 X63.6911 Y19.7914
G01 X63.7342 Y19.8308
G01 X71.4375 Y27.5341
G01 X79.8276 Y19.1440
G01 X79.8276 Y10.0640
G01 X73.1200 Y3.3564
G01 X63.5320 Y3.3564
G01 X63.3014 Y3.5870
G01 X63.3014 Y4.4269
G01 X63.3270 Y4.4459
G01 X63.3379 Y4.4546
G01 X63.4139 Y4.5235
G01 X63.4237 Y4.5335
G01 X63.4894 Y4.6061
G01 X63.4981 Y4.6170
G01 X63.5590 Y4.6995
G01 X63.6120 Y4.7874
G01 X63.6187 Y4.7997
G01 X63.6606 Y4.8881
G01 X63.6678 Y4.9054
G01 X63.7021 Y5.0020
G01 X63.7272 Y5.1014
G01 X63.7309 Y5.1198
G01 X63.7457 Y5.2212
G01 X63.7510 Y5.3237
G01 X63.7510 Y5.3423
G01 X63.7457 Y5.4448
G01 X63.7293 Y5.5554
G01 X63.7021 Y5.6640
G01 X63.6644 Y5.7693
G01 X63.6166 Y5.8705
G01 X63.5590 Y5.9665
G01 X63.4924 Y6.0563
G01 X63.4237 Y6.1325
G01 X63.4105 Y6.1457
G01 X63.3343 Y6.2144
G01 X63.2521 Y6.2757
G01 X63.2366 Y6.2860
G01 X63.1485 Y6.3386
G01 X63.0473 Y6.3864
G01 X62.9508 Y6.4212
G01 X62.9330 Y6.4266
G01 X62.8426 Y6.4492
G01 X62.8242 Y6.4529
G01 X62.7228 Y6.4677
G01 X62.6203 Y6.4730
G01 X62.6017 Y6.4730
G01 X62.5086 Y6.4684
G01 X62.4900 Y6.4666
G01 X62.3886 Y6.4513
G01 X62.2800 Y6.4241
G01 X62.1747 Y6.3864
G01 X62.0819 Y6.3428
G01 X62.0654 Y6.3340
G01 X61.9854 Y6.2860
G01 X61.9699 Y6.2757
G01 X61.8877 Y6.2144
G01 X61.8048 Y6.1392
G01 X61.7296 Y6.0563
G01 X61.6683 Y5.9741
G01 X61.6580 Y5.9586
G01 X61.6054 Y5.8705
G01 X61.5576 Y5.7693
G01 X61.5228 Y5.6728
G01 X61.5174 Y5.6550
G01 X61.4927 Y5.5554
G01 X61.4774 Y5.4540
G01 X61.4756 Y5.4354
G01 X61.4708 Y5.3330
G01 X61.4759 Y5.2259
G01 X61.4774 Y5.2120
G01 X61.4927 Y5.1106
G01 X61.5199 Y5.0020
G01 X61.5576 Y4.8967
G01 X61.6012 Y4.8039
G01 X61.6077 Y4.7914
G01 X61.6630 Y4.6995
G01 X61.7239 Y4.6170
G01 X61.7326 Y4.6061
G01 X61.7983 Y4.5335
G01 X61.8081 Y4.5235
G01 X61.8841 Y4.4546
G01 X61.8950 Y4.4459
G01 X61.9206 Y4.4269
G01 X61.9206 Y3.3010
G01 X61.9232 Y3.2426
G01 X61.9250 Y3.2241
G01 X61.9338 Y3.1663
G01 X61.9503 Y3.1006
G01 X61.9731 Y3.0368
G01 X61.9999 Y2.9797
G01 X62.0067 Y2.9674
G01 X62.0319 Y2.9253
G01 X62.0423 Y2.9098
G01 X62.0773 Y2.8630
G01 X62.1195 Y2.8161
G01 X62.7611 Y2.1745
G01 X62.8009 Y2.1384
G01 X62.8153 Y2.1265
G01 X62.8624 Y2.0919
G01 X62.9124 Y2.0617
G01 X62.9289 Y2.0529
G01 X62.9818 Y2.0281
G01 X63.0367 Y2.0082
G01 X63.0501 Y2.0040
G01 X63.1113 Y1.9888
G01 X63.1691 Y1.9800
G01 X63.1876 Y1.9782
G01 X63.2460 Y1.9756
G01 X73.4060 Y1.9756
G01 X73.4737 Y1.9789
G01 X73.5407 Y1.9888
G01 X73.6064 Y2.0053
G01 X73.6615 Y2.0247
G01 X73.6788 Y2.0319
G01 X73.7315 Y2.0571
G01 X73.7896 Y2.0919
G01 X73.8367 Y2.1265
G01 X73.8511 Y2.1384
G01 X73.8942 Y2.1778
G01 X81.0062 Y9.2898
G01 X81.0517 Y9.3400
G01 X81.0921 Y9.3944
G01 X81.1269 Y9.4525
G01 X81.1541 Y9.5095
G01 X81.1593 Y9.5225
G01 X81.1787 Y9.5776
G01 X81.1952 Y9.6433
G01 X81.2051 Y9.7103
G01 X81.2084 Y9.7780
G01 X81.2084 Y19.4300
G01 X81.2051 Y19.4977
G01 X81.1952 Y19.5647
G01 X81.1812 Y19.6214
G01 X81.1758 Y19.6393
G01 X81.1559 Y19.6942
G01 X81.1269 Y19.7555
G01 X81.0921 Y19.8136
G01 X81.0575 Y19.8607
G01 X81.0456 Y19.8751
G01 X81.0062 Y19.9182
G01 X72.3184 Y28.6060
G01 X72.3184 Y33.1263
G01 X72.3641 Y33.1769
G01 X72.4143 Y33.2444
G01 X72.4247 Y33.2599
G01 X72.4632 Y33.3240
G01 X72.4720 Y33.3405
G01 X72.5077 Y33.4166
G01 X72.5378 Y33.5001
G01 X72.5417 Y33.5136
G01 X72.5619 Y33.5952
G01 X72.5756 Y33.6877
G01 X72.5802 Y33.7810
G01 X72.5763 Y33.8650
G01 X72.5745 Y33.8836
G01 X72.5619 Y33.9668
G01 X72.5392 Y34.0574
G01 X72.5077 Y34.1454
G01 X72.4720 Y34.2215
G01 X72.4632 Y34.2380
G01 X72.4247 Y34.3021
G01 X72.4143 Y34.3176
G01 X72.3641 Y34.3851
G01 X72.3077 Y34.4475
G01 X72.2945 Y34.4607
G01 X72.2321 Y34.5171
G01 X72.1646 Y34.5673
G01 X72.1491 Y34.5777
G01 X72.0769 Y34.6208
G01 X71.9924 Y34.6607
G01 X71.9044 Y34.6922
G01 X71.8138 Y34.7149
G01 X71.7213 Y34.7286
G01 X71.6280 Y34.7332
G01 X71.5347 Y34.7286
G01 X71.4422 Y34.7149
G01 X71.3516 Y34.6922
G01 X71.2723 Y34.6641
G01 X71.2551 Y34.6569
G01 X71.1791 Y34.6208
G01 X71.0990 Y34.5727
G01 X71.0313 Y34.5228
G01 X71.0169 Y34.5110
G01 X70.9615 Y34.4607
G01 X70.9483 Y34.4475
G01 X70.8919 Y34.3851
G01 X70.8363 Y34.3100
G01 X70.7882 Y34.2299
G01 X70.7521 Y34.1539
G01 X70.7449 Y34.1367
G01 X70.7197 Y34.0663
G01 X70.7143 Y34.0484
G01 X70.6941 Y33.9668
G01 X70.6804 Y33.8743
G01 X70.6758 Y33.7810
G01 X70.6804 Y33.6877
G01 X70.6941 Y33.5952
G01 X70.7143 Y33.5136
G01 X70.7182 Y33.5001
G01 X70.7483 Y33.4166
G01 X70.7840 Y33.3405
G01 X70.7928 Y33.3240
G01 X70.8313 Y33.2599
G01 X70.8417 Y33.2444
G01 X70.8919 Y33.1769
G01 X70.9376 Y33.1263
G01 X70.9376 Y28.9870
G01 X62.9600 Y21.0094
G01 X24.6380 Y21.0094
G01 X24.5796 Y21.0068
G01 X24.5611 Y21.0050
G01 X24.5033 Y20.9962
G01 X24.4421 Y20.9810
G01 X24.4287 Y20.9768
G01 X24.3738 Y20.9569
G01 X24.3125 Y20.9279
G01 X24.2544 Y20.8931
G01 X24.2073 Y20.8585
G01 X24.1929 Y20.8466
G01 X24.1498 Y20.8072
G01 X23.3813 Y20.0385
G01 X23.3423 Y19.9950
G01 X23.3019 Y19.9406
G01 X23.2671 Y19.8825
G01 X23.2419 Y19.8298
G01 X23.2347 Y19.8125
G01 X23.2167 Y19.7619
G01 X23.2128 Y19.7484
G01 X23.1988 Y19.6917
G01 X23.1894 Y19.6293
G01 X23.1882 Y19.6154
G01 X23.1856 Y19.5570
G01 X23.1856 Y10.1749
G01 X22.2052 Y11.1552
G01 X22.1586 Y11.1977
G01 X22.1477 Y11.2065
G01 X22.1082 Y11.2357
G01 X22.0927 Y11.2461
G01 X22.0425 Y11.2759
G01 X21.9898 Y11.3011
G01 X21.9725 Y11.3083
G01 X21.9174 Y11.3277
G01 X21.8608 Y11.3421
G01 X21.8471 Y11.3450
G01 X21.7847 Y11.3541
G01 X21.7170 Y11.3574
G01 X16.3830 Y11.3574
G01 X16.3153 Y11.3541
G01 X16.2575 Y11.3458
G01 X16.2392 Y11.3421
G01 X16.1916 Y11.3302
G01 X16.1781 Y11.3263
G01 X16.1275 Y11.3083
G01 X16.1102 Y11.3011
G01 X16.0575 Y11.2759
G01 X16.0073 Y11.2461
G01 X15.9918 Y11.2357
G01 X15.9450 Y11.2007
G01 X15.8981 Y11.1585
G01 X12.8468 Y8.1072
G01 X12.8074 Y8.0641
G01 X12.7984 Y8.0534
G01 X12.7609 Y8.0026
G01 X12.7307 Y7.9526
G01 X12.7219 Y7.9361
G01 X12.6971 Y7.8832
G01 X12.6772 Y7.8283
G01 X12.6718 Y7.8104
G01 X12.6578 Y7.7537
G01 X12.6479 Y7.6867
G01 X12.6446 Y7.6190
G01 X12.6446 Y6.5646
G01 X12.5476 Y6.5646
G00 Z2.0000
G00 X11.6835 Y4.9398
G01 F60.00
G01 Z-0.1500
G01 F120.00
G01 X11.5265 Y4.9398
G01 X11.4863 Y4.8957
G01 X11.4422 Y4.8555
G01 X11.4422 Y4.6987
G01 X11.4560 Y4.7086
G01 X11.4908 Y4.7366
G01 X11.5269 Y4.7673
G01 X11.5592 Y4.7963
G01 X11.5889 Y4.8268
G01 X11.6197 Y4.8601
G01 X11.6486 Y4.8952
G01 X11.6767 Y4.9302
G01 X11.6835 Y4.9398
G00 Z2.0000
G00 X7.3144 Y5.8515
G01 F60.00
G01 Z-0.1500
G01 F120.00
G01 X7.2962 Y5.7777
G01 X7.2821 Y5.6828
G01 X7.2774 Y5.5870
G01 X7.2821 Y5.4912
G01 X7.2962 Y5.3963
G01 X7.3195 Y5.3032
G01 X7.3518 Y5.2129
G01 X7.3928 Y5.1262
G01 X7.4422 Y5.0439
G01 X7.4993 Y4.9668
G01 X7.5637 Y4.8957
G01 X7.6348 Y4.8313
G01 X7.7119 Y4.7742
G01 X7.7942 Y4.7248
G01 X7.8809 Y4.6838
G01 X7.9712 Y4.6515
G01 X8.0643 Y4.6282
G01 X8.1592 Y4.6141
G01 X8.2550 Y4.6094
G01 X8.3508 Y4.6141
G01 X8.4457 Y4.6282
G01 X8.5388 Y4.6515
G01 X8.6291 Y4.6838
G01 X8.7158 Y4.7248
G01 X8.7981 Y4.7742
G01 X8.8752 Y4.8313
G01 X8.9463 Y4.8957
G01 X9.0107 Y4.9668
G01 X9.0678 Y5.0439
G01 X9.1172 Y5.1262
G01 X9.1582 Y5.2129
G01 X9.1905 Y5.3032
G01 X9.2138 Y5.3963
G01 X9.2267 Y5.4819
G01 X9.2286 Y5.5005
