(G-CODE GENERATED BY FLATCAM v8.994 - www.flatcam.org - Version Date: 2020/11/7)

(Name: Gerber_Drill_NPTH.DRL_mill_cnc)
(Type: G-code from Geometry)
(Units: MM)

(Created on Thursday, 04 March 2021 at 11:49)

(This preprocessor is the default preprocessor used by FlatCAM.)
(It is made to work with MACH3 compatible motion controllers.)

(TOOL DIAMETER: 2.0 mm)
(Feedrate_XY: 120.0 mm/min)
(Feedrate_Z: 60.0 mm/min)
(Feedrate rapids 1500.0 mm/min)

(Z_Cut: -2.4 mm)
(Z_Move: 2.0 mm)
(Z Start: None mm)
(Z End: 15.0 mm)
(X,Y End: None mm)
(Steps per circle: 64)
(Preprocessor Geometry: default)

(X range:    3.7485 ...   81.2495  mm)
(Y range:    3.8066 ...   25.3076  mm)

(Spindle Speed: 0.0 RPM)
G21
G90
G94

G01 F120.00

M5
G00 Z15.0000
G00 X0.0000 Y0.0000
T1
M6    
(MSG, Change to Tool Dia = 2.0000)
M0
G00 Z15.0000

M03
G01 F120.00
G00 X4.2495 Y4.0571
G01 F60.00
G01 Z-2.4000
G01 F120.00
G01 X4.2483 Y4.0326
G01 X4.2447 Y4.0082
G01 X4.2387 Y3.9844
G01 X4.2304 Y3.9612
G01 X4.2199 Y3.9390
G01 X4.2073 Y3.9179
G01 X4.1926 Y3.8982
G01 X4.1761 Y3.8800
G01 X4.1579 Y3.8635
G01 X4.1382 Y3.8488
G01 X4.1171 Y3.8362
G01 X4.0949 Y3.8257
G01 X4.0717 Y3.8174
G01 X4.0479 Y3.8114
G01 X4.0236 Y3.8078
G01 X3.9990 Y3.8066
G01 X3.9744 Y3.8078
G01 X3.9501 Y3.8114
G01 X3.9263 Y3.8174
G01 X3.9031 Y3.8257
G01 X3.8809 Y3.8362
G01 X3.8598 Y3.8488
G01 X3.8401 Y3.8635
G01 X3.8219 Y3.8800
G01 X3.8054 Y3.8982
G01 X3.7907 Y3.9179
G01 X3.7781 Y3.9390
G01 X3.7676 Y3.9612
G01 X3.7593 Y3.9844
G01 X3.7533 Y4.0082
G01 X3.7497 Y4.0326
G01 X3.7485 Y4.0571
G01 X3.7497 Y4.0817
G01 X3.7533 Y4.1060
G01 X3.7593 Y4.1298
G01 X3.7676 Y4.1530
G01 X3.7781 Y4.1752
G01 X3.7907 Y4.1963
G01 X3.8054 Y4.2160
G01 X3.8219 Y4.2342
G01 X3.8401 Y4.2507
G01 X3.8598 Y4.2654
G01 X3.8809 Y4.2780
G01 X3.9031 Y4.2885
G01 X3.9263 Y4.2968
G01 X3.9501 Y4.3028
G01 X3.9744 Y4.3064
G01 X3.9990 Y4.3076
G01 X4.0236 Y4.3064
G01 X4.0479 Y4.3028
G01 X4.0717 Y4.2968
G01 X4.0949 Y4.2885
G01 X4.1171 Y4.2780
G01 X4.1382 Y4.2654
G01 X4.1579 Y4.2507
G01 X4.1761 Y4.2342
G01 X4.1926 Y4.2160
G01 X4.2073 Y4.1963
G01 X4.2199 Y4.1752
G01 X4.2304 Y4.1530
G01 X4.2387 Y4.1298
G01 X4.2447 Y4.1060
G01 X4.2483 Y4.0817
G01 X4.2495 Y4.0571
G00 Z2.0000
G00 X4.2495 Y25.0571
G01 F60.00
G01 Z-2.4000
G01 F120.00
G01 X4.2483 Y25.0326
G01 X4.2447 Y25.0082
G01 X4.2387 Y24.9844
G01 X4.2304 Y24.9612
G01 X4.2199 Y24.9390
G01 X4.2073 Y24.9179
G01 X4.1926 Y24.8982
G01 X4.1761 Y24.8800
G01 X4.1579 Y24.8635
G01 X4.1382 Y24.8488
G01 X4.1171 Y24.8362
G01 X4.0949 Y24.8257
G01 X4.0717 Y24.8174
G01 X4.0479 Y24.8114
G01 X4.0236 Y24.8078
G01 X3.9990 Y24.8066
G01 X3.9744 Y24.8078
G01 X3.9501 Y24.8114
G01 X3.9263 Y24.8174
G01 X3.9031 Y24.8257
G01 X3.8809 Y24.8362
G01 X3.8598 Y24.8488
G01 X3.8401 Y24.8635
G01 X3.8219 Y24.8800
G01 X3.8054 Y24.8982
G01 X3.7907 Y24.9179
G01 X3.7781 Y24.9390
G01 X3.7676 Y24.9612
G01 X3.7593 Y24.9844
G01 X3.7533 Y25.0082
G01 X3.7497 Y25.0326
G01 X3.7485 Y25.0571
G01 X3.7497 Y25.0817
G01 X3.7533 Y25.1060
G01 X3.7593 Y25.1298
G01 X3.7676 Y25.1530
G01 X3.7781 Y25.1752
G01 X3.7907 Y25.1963
G01 X3.8054 Y25.2160
G01 X3.8219 Y25.2342
G01 X3.8401 Y25.2507
G01 X3.8598 Y25.2654
G01 X3.8809 Y25.2780
G01 X3.9031 Y25.2885
G01 X3.9263 Y25.2968
G01 X3.9501 Y25.3028
G01 X3.9744 Y25.3064
G01 X3.9990 Y25.3076
G01 X4.0236 Y25.3064
G01 X4.0479 Y25.3028
G01 X4.0717 Y25.2968
G01 X4.0949 Y25.2885
G01 X4.1171 Y25.2780
G01 X4.1382 Y25.2654
G01 X4.1579 Y25.2507
G01 X4.1761 Y25.2342
G01 X4.1926 Y25.2160
G01 X4.2073 Y25.1963
G01 X4.2199 Y25.1752
G01 X4.2304 Y25.1530
G01 X4.2387 Y25.1298
G01 X4.2447 Y25.1060
G01 X4.2483 Y25.0817
G01 X4.2495 Y25.0571
G00 Z2.0000
G00 X81.2495 Y25.0571
G01 F60.00
G01 Z-2.4000
G01 F120.00
G01 X81.2483 Y25.0326
G01 X81.2447 Y25.0082
G01 X81.2387 Y24.9844
G01 X81.2304 Y24.9612
G01 X81.2199 Y24.9390
G01 X81.2073 Y24.9179
G01 X81.1926 Y24.8982
G01 X81.1761 Y24.8800
G01 X81.1579 Y24.8635
G01 X81.1382 Y24.8488
G01 X81.1171 Y24.8362
G01 X81.0949 Y24.8257
G01 X81.0717 Y24.8174
G01 X81.0479 Y24.8114
G01 X81.0236 Y24.8078
G01 X80.9990 Y24.8066
G01 X80.9744 Y24.8078
G01 X80.9501 Y24.8114
G01 X80.9263 Y24.8174
G01 X80.9031 Y24.8257
G01 X80.8809 Y24.8362
G01 X80.8598 Y24.8488
G01 X80.8401 Y24.8635
G01 X80.8219 Y24.8800
G01 X80.8054 Y24.8982
G01 X80.7907 Y24.9179
G01 X80.7781 Y24.9390
G01 X80.7676 Y24.9612
G01 X80.7593 Y24.9844
G01 X80.7533 Y25.0082
G01 X80.7497 Y25.0326
G01 X80.7485 Y25.0571
G01 X80.7497 Y25.0817
G01 X80.7533 Y25.1060
G01 X80.7593 Y25.1298
G01 X80.7676 Y25.1530
G01 X80.7781 Y25.1752
G01 X80.7907 Y25.1963
G01 X80.8054 Y25.2160
G01 X80.8219 Y25.2342
G01 X80.8401 Y25.2507
G01 X80.8598 Y25.2654
G01 X80.8809 Y25.2780
G01 X80.9031 Y25.2885
G01 X80.9263 Y25.2968
G01 X80.9501 Y25.3028
G01 X80.9744 Y25.3064
G01 X80.9990 Y25.3076
G01 X81.0236 Y25.3064
G01 X81.0479 Y25.3028
G01 X81.0717 Y25.2968
G01 X81.0949 Y25.2885
G01 X81.1171 Y25.2780
G01 X81.1382 Y25.2654
G01 X81.1579 Y25.2507
G01 X81.1761 Y25.2342
G01 X81.1926 Y25.2160
G01 X81.2073 Y25.1963
G01 X81.2199 Y25.1752
G01 X81.2304 Y25.1530
G01 X81.2387 Y25.1298
G01 X81.2447 Y25.1060
G01 X81.2483 Y25.0817
G01 X81.2495 Y25.0571
G00 Z2.0000
G00 X81.2495 Y4.0571
G01 F60.00
G01 Z-2.4000
G01 F120.00
G01 X81.2483 Y4.0326
G01 X81.2447 Y4.0082
G01 X81.2387 Y3.9844
G01 X81.2304 Y3.9612
G01 X81.2199 Y3.9390
G01 X81.2073 Y3.9179
G01 X81.1926 Y3.8982
G01 X81.1761 Y3.8800
G01 X81.1579 Y3.8635
G01 X81.1382 Y3.8488
G01 X81.1171 Y3.8362
G01 X81.0949 Y3.8257
G01 X81.0717 Y3.8174
G01 X81.0479 Y3.8114
G01 X81.0236 Y3.8078
G01 X80.9990 Y3.8066
G01 X80.9744 Y3.8078
G01 X80.9501 Y3.8114
G01 X80.9263 Y3.8174
G01 X80.9031 Y3.8257
G01 X80.8809 Y3.8362
G01 X80.8598 Y3.8488
G01 X80.8401 Y3.8635
G01 X80.8219 Y3.8800
G01 X80.8054 Y3.8982
G01 X80.7907 Y3.9179
G01 X80.7781 Y3.9390
G01 X80.7676 Y3.9612
G01 X80.7593 Y3.9844
G01 X80.7533 Y4.0082
G01 X80.7497 Y4.0326
G01 X80.7485 Y4.0571
G01 X80.7497 Y4.0817
G01 X80.7533 Y4.1060
G01 X80.7593 Y4.1298
G01 X80.7676 Y4.1530
G01 X80.7781 Y4.1752
G01 X80.7907 Y4.1963
G01 X80.8054 Y4.2160
G01 X80.8219 Y4.2342
G01 X80.8401 Y4.2507
G01 X80.8598 Y4.2654
G01 X80.8809 Y4.2780
G01 X80.9031 Y4.2885
G01 X80.9263 Y4.2968
G01 X80.9501 Y4.3028
G01 X80.9744 Y4.3064
G01 X80.9990 Y4.3076
G01 X81.0236 Y4.3064
G01 X81.0479 Y4.3028
G01 X81.0717 Y4.2968
G01 X81.0949 Y4.2885
G01 X81.1171 Y4.2780
G01 X81.1382 Y4.2654
G01 X81.1579 Y4.2507
G01 X81.1761 Y4.2342
G01 X81.1926 Y4.2160
G01 X81.2073 Y4.1963
G01 X81.2199 Y4.1752
G01 X81.2304 Y4.1530
G01 X81.2387 Y4.1298
G01 X81.2447 Y4.1060
G01 X81.2483 Y4.0817
G01 X81.2495 Y4.0571
G00 Z2.0000
M05
G00 Z2.0000
G00 Z15.00


