(G-CODE GENERATED BY FLATCAM v8.994 - www.flatcam.org - Version Date: 2020/11/7)

(Name: Gerber_Drill_PTH.DRL_mill_cnc)
(Type: G-code from Geometry)
(Units: MM)

(Created on Thursday, 04 March 2021 at 11:47)

(This preprocessor is the default preprocessor used by FlatCAM.)
(It is made to work with MACH3 compatible motion controllers.)

(TOOL DIAMETER: 0.8 mm)
(Feedrate_XY: 120.0 mm/min)
(Feedrate_Z: 60.0 mm/min)
(Feedrate rapids 1500.0 mm/min)

(Z_Cut: -2.0 mm)
(Z_Move: 2.0 mm)
(Z Start: None mm)
(Z End: 15.0 mm)
(X,Y End: None mm)
(Steps per circle: 64)
(Preprocessor Geometry: default)

(X range:    8.2105 ...   71.6855  mm)
(Y range:    4.7805 ...   33.8385  mm)

(Spindle Speed: 0.0 RPM)
G21
G90
G94

G01 F120.00

M5
G00 Z15.0000
G00 X0.0000 Y0.0000
T1
M6    
(MSG, Change to Tool Dia = 0.8000)
M0
G00 Z15.0000

M03
G01 F120.00
G00 X8.2995 Y5.5870
G01 F60.00
G01 Z-2.0000
G01 F120.00
G01 X8.2986 Y5.5783
G01 X8.2961 Y5.5700
G01 X8.2920 Y5.5623
G01 X8.2865 Y5.5555
G01 X8.2797 Y5.5500
G01 X8.2720 Y5.5459
G01 X8.2637 Y5.5434
G01 X8.2550 Y5.5425
G01 X8.2463 Y5.5434
G01 X8.2380 Y5.5459
G01 X8.2303 Y5.5500
G01 X8.2235 Y5.5555
G01 X8.2180 Y5.5623
G01 X8.2139 Y5.5700
G01 X8.2114 Y5.5783
G01 X8.2105 Y5.5870
G01 X8.2114 Y5.5957
G01 X8.2139 Y5.6040
G01 X8.2180 Y5.6117
G01 X8.2235 Y5.6185
G01 X8.2303 Y5.6240
G01 X8.2380 Y5.6281
G01 X8.2463 Y5.6306
G01 X8.2550 Y5.6315
G01 X8.2637 Y5.6306
G01 X8.2720 Y5.6281
G01 X8.2797 Y5.6240
G01 X8.2865 Y5.6185
G01 X8.2920 Y5.6117
G01 X8.2961 Y5.6040
G01 X8.2986 Y5.5957
G01 X8.2995 Y5.5870
G00 Z2.0000
G00 X10.8395 Y5.5870
G01 F60.00
G01 Z-2.0000
G01 F120.00
G01 X10.8386 Y5.5783
G01 X10.8361 Y5.5700
G01 X10.8320 Y5.5623
G01 X10.8265 Y5.5555
G01 X10.8197 Y5.5500
G01 X10.8120 Y5.5459
G01 X10.8037 Y5.5434
G01 X10.7950 Y5.5425
G01 X10.7863 Y5.5434
G01 X10.7780 Y5.5459
G01 X10.7703 Y5.5500
G01 X10.7635 Y5.5555
G01 X10.7580 Y5.5623
G01 X10.7539 Y5.5700
G01 X10.7514 Y5.5783
G01 X10.7505 Y5.5870
G01 X10.7514 Y5.5957
G01 X10.7539 Y5.6040
G01 X10.7580 Y5.6117
G01 X10.7635 Y5.6185
G01 X10.7703 Y5.6240
G01 X10.7780 Y5.6281
G01 X10.7863 Y5.6306
G01 X10.7950 Y5.6315
G01 X10.8037 Y5.6306
G01 X10.8120 Y5.6281
G01 X10.8197 Y5.6240
G01 X10.8265 Y5.6185
G01 X10.8320 Y5.6117
G01 X10.8361 Y5.6040
G01 X10.8386 Y5.5957
G01 X10.8395 Y5.5870
G00 Z2.0000
G00 X13.3795 Y5.5870
G01 F60.00
G01 Z-2.0000
G01 F120.00
G01 X13.3786 Y5.5783
G01 X13.3761 Y5.5700
G01 X13.3720 Y5.5623
G01 X13.3665 Y5.5555
G01 X13.3597 Y5.5500
G01 X13.3520 Y5.5459
G01 X13.3437 Y5.5434
G01 X13.3350 Y5.5425
G01 X13.3263 Y5.5434
G01 X13.3180 Y5.5459
G01 X13.3103 Y5.5500
G01 X13.3035 Y5.5555
G01 X13.2980 Y5.5623
G01 X13.2939 Y5.5700
G01 X13.2914 Y5.5783
G01 X13.2905 Y5.5870
G01 X13.2914 Y5.5957
G01 X13.2939 Y5.6040
G01 X13.2980 Y5.6117
G01 X13.3035 Y5.6185
G01 X13.3103 Y5.6240
G01 X13.3180 Y5.6281
G01 X13.3263 Y5.6306
G01 X13.3350 Y5.6315
G01 X13.3437 Y5.6306
G01 X13.3520 Y5.6281
G01 X13.3597 Y5.6240
G01 X13.3665 Y5.6185
G01 X13.3720 Y5.6117
G01 X13.3761 Y5.6040
G01 X13.3786 Y5.5957
G01 X13.3795 Y5.5870
G00 Z2.0000
G00 X21.4360 Y5.7140
G01 F60.00
G01 Z-2.0000
G01 F120.00
G01 X21.4355 Y5.7042
G01 X21.4341 Y5.6945
G01 X21.4317 Y5.6850
G01 X21.4284 Y5.6757
G01 X21.4242 Y5.6669
G01 X21.4191 Y5.6584
G01 X21.4133 Y5.6506
G01 X21.4067 Y5.6433
G01 X21.3994 Y5.6367
G01 X21.3916 Y5.6309
G01 X21.3831 Y5.6258
G01 X21.3743 Y5.6216
G01 X21.3650 Y5.6183
G01 X21.3555 Y5.6159
G01 X21.3458 Y5.6145
G01 X21.3360 Y5.6140
G01 X21.3262 Y5.6145
G01 X21.3165 Y5.6159
G01 X21.3070 Y5.6183
G01 X21.2977 Y5.6216
G01 X21.2889 Y5.6258
G01 X21.2804 Y5.6309
G01 X21.2726 Y5.6367
G01 X21.2653 Y5.6433
G01 X21.2587 Y5.6506
G01 X21.2529 Y5.6584
G01 X21.2478 Y5.6669
G01 X21.2436 Y5.6757
G01 X21.2403 Y5.6850
G01 X21.2379 Y5.6945
G01 X21.2365 Y5.7042
G01 X21.2360 Y5.7140
G01 X21.2365 Y5.7238
G01 X21.2379 Y5.7335
G01 X21.2403 Y5.7430
G01 X21.2436 Y5.7523
G01 X21.2478 Y5.7611
G01 X21.2529 Y5.7696
G01 X21.2587 Y5.7774
G01 X21.2653 Y5.7847
G01 X21.2726 Y5.7913
G01 X21.2804 Y5.7971
G01 X21.2889 Y5.8022
G01 X21.2977 Y5.8064
G01 X21.3070 Y5.8097
G01 X21.3165 Y5.8121
G01 X21.3262 Y5.8135
G01 X21.3360 Y5.8140
G01 X21.3458 Y5.8135
G01 X21.3555 Y5.8121
G01 X21.3650 Y5.8097
G01 X21.3743 Y5.8064
G01 X21.3831 Y5.8022
G01 X21.3916 Y5.7971
G01 X21.3994 Y5.7913
G01 X21.4067 Y5.7847
G01 X21.4133 Y5.7774
G01 X21.4191 Y5.7696
G01 X21.4242 Y5.7611
G01 X21.4284 Y5.7523
G01 X21.4317 Y5.7430
G01 X21.4341 Y5.7335
G01 X21.4355 Y5.7238
G01 X21.4360 Y5.7140
G00 Z2.0000
G00 X23.9760 Y5.7140
G01 F60.00
G01 Z-2.0000
G01 F120.00
G01 X23.9755 Y5.7042
G01 X23.9741 Y5.6945
G01 X23.9717 Y5.6850
G01 X23.9684 Y5.6757
G01 X23.9642 Y5.6669
G01 X23.9591 Y5.6584
G01 X23.9533 Y5.6506
G01 X23.9467 Y5.6433
G01 X23.9394 Y5.6367
G01 X23.9316 Y5.6309
G01 X23.9231 Y5.6258
G01 X23.9143 Y5.6216
G01 X23.9050 Y5.6183
G01 X23.8955 Y5.6159
G01 X23.8858 Y5.6145
G01 X23.8760 Y5.6140
G01 X23.8662 Y5.6145
G01 X23.8565 Y5.6159
G01 X23.8470 Y5.6183
G01 X23.8377 Y5.6216
G01 X23.8289 Y5.6258
G01 X23.8204 Y5.6309
G01 X23.8126 Y5.6367
G01 X23.8053 Y5.6433
G01 X23.7987 Y5.6506
G01 X23.7929 Y5.6584
G01 X23.7878 Y5.6669
G01 X23.7836 Y5.6757
G01 X23.7803 Y5.6850
G01 X23.7779 Y5.6945
G01 X23.7765 Y5.7042
G01 X23.7760 Y5.7140
G01 X23.7765 Y5.7238
G01 X23.7779 Y5.7335
G01 X23.7803 Y5.7430
G01 X23.7836 Y5.7523
G01 X23.7878 Y5.7611
G01 X23.7929 Y5.7696
G01 X23.7987 Y5.7774
G01 X23.8053 Y5.7847
G01 X23.8126 Y5.7913
G01 X23.8204 Y5.7971
G01 X23.8289 Y5.8022
G01 X23.8377 Y5.8064
G01 X23.8470 Y5.8097
G01 X23.8565 Y5.8121
G01 X23.8662 Y5.8135
G01 X23.8760 Y5.8140
G01 X23.8858 Y5.8135
G01 X23.8955 Y5.8121
G01 X23.9050 Y5.8097
G01 X23.9143 Y5.8064
G01 X23.9231 Y5.8022
G01 X23.9316 Y5.7971
G01 X23.9394 Y5.7913
G01 X23.9467 Y5.7847
G01 X23.9533 Y5.7774
G01 X23.9591 Y5.7696
G01 X23.9642 Y5.7611
G01 X23.9684 Y5.7523
G01 X23.9717 Y5.7430
G01 X23.9741 Y5.7335
G01 X23.9755 Y5.7238
G01 X23.9760 Y5.7140
G00 Z2.0000
G00 X26.5160 Y5.7140
G01 F60.00
G01 Z-2.0000
G01 F120.00
G01 X26.5155 Y5.7042
G01 X26.5141 Y5.6945
G01 X26.5117 Y5.6850
G01 X26.5084 Y5.6757
G01 X26.5042 Y5.6669
G01 X26.4991 Y5.6584
G01 X26.4933 Y5.6506
G01 X26.4867 Y5.6433
G01 X26.4794 Y5.6367
G01 X26.4716 Y5.6309
G01 X26.4631 Y5.6258
G01 X26.4543 Y5.6216
G01 X26.4450 Y5.6183
G01 X26.4355 Y5.6159
G01 X26.4258 Y5.6145
G01 X26.4160 Y5.6140
G01 X26.4062 Y5.6145
G01 X26.3965 Y5.6159
G01 X26.3870 Y5.6183
G01 X26.3777 Y5.6216
G01 X26.3689 Y5.6258
G01 X26.3604 Y5.6309
G01 X26.3526 Y5.6367
G01 X26.3453 Y5.6433
G01 X26.3387 Y5.6506
G01 X26.3329 Y5.6584
G01 X26.3278 Y5.6669
G01 X26.3236 Y5.6757
G01 X26.3203 Y5.6850
G01 X26.3179 Y5.6945
G01 X26.3165 Y5.7042
G01 X26.3160 Y5.7140
G01 X26.3165 Y5.7238
G01 X26.3179 Y5.7335
G01 X26.3203 Y5.7430
G01 X26.3236 Y5.7523
G01 X26.3278 Y5.7611
G01 X26.3329 Y5.7696
G01 X26.3387 Y5.7774
G01 X26.3453 Y5.7847
G01 X26.3526 Y5.7913
G01 X26.3604 Y5.7971
G01 X26.3689 Y5.8022
G01 X26.3777 Y5.8064
G01 X26.3870 Y5.8097
G01 X26.3965 Y5.8121
G01 X26.4062 Y5.8135
G01 X26.4160 Y5.8140
G01 X26.4258 Y5.8135
G01 X26.4355 Y5.8121
G01 X26.4450 Y5.8097
G01 X26.4543 Y5.8064
G01 X26.4631 Y5.8022
G01 X26.4716 Y5.7971
G01 X26.4794 Y5.7913
G01 X26.4867 Y5.7847
G01 X26.4933 Y5.7774
G01 X26.4991 Y5.7696
G01 X26.5042 Y5.7611
G01 X26.5084 Y5.7523
G01 X26.5117 Y5.7430
G01 X26.5141 Y5.7335
G01 X26.5155 Y5.7238
G01 X26.5160 Y5.7140
G00 Z2.0000
G00 X36.1255 Y10.9210
G01 F60.00
G01 Z-2.0000
G01 F120.00
G01 X36.1252 Y10.9154
G01 X36.1244 Y10.9098
G01 X36.1230 Y10.9043
G01 X36.1211 Y10.8990
G01 X36.1187 Y10.8939
G01 X36.1158 Y10.8891
G01 X36.1124 Y10.8845
G01 X36.1087 Y10.8803
G01 X36.1045 Y10.8766
G01 X36.0999 Y10.8732
G01 X36.0951 Y10.8703
G01 X36.0900 Y10.8679
G01 X36.0847 Y10.8660
G01 X36.0792 Y10.8646
G01 X36.0736 Y10.8638
G01 X36.0680 Y10.8635
G01 X36.0624 Y10.8638
G01 X36.0568 Y10.8646
G01 X36.0513 Y10.8660
G01 X36.0460 Y10.8679
G01 X36.0409 Y10.8703
G01 X36.0361 Y10.8732
G01 X36.0315 Y10.8766
G01 X36.0273 Y10.8803
G01 X36.0236 Y10.8845
G01 X36.0202 Y10.8891
G01 X36.0173 Y10.8939
G01 X36.0149 Y10.8990
G01 X36.0130 Y10.9043
G01 X36.0116 Y10.9098
G01 X36.0108 Y10.9154
G01 X36.0105 Y10.9210
G01 X36.0108 Y10.9266
G01 X36.0116 Y10.9322
G01 X36.0130 Y10.9377
G01 X36.0149 Y10.9430
G01 X36.0173 Y10.9481
G01 X36.0202 Y10.9529
G01 X36.0236 Y10.9575
G01 X36.0273 Y10.9617
G01 X36.0315 Y10.9654
G01 X36.0361 Y10.9688
G01 X36.0409 Y10.9717
G01 X36.0460 Y10.9741
G01 X36.0513 Y10.9760
G01 X36.0568 Y10.9774
G01 X36.0624 Y10.9782
G01 X36.0680 Y10.9785
G01 X36.0736 Y10.9782
G01 X36.0792 Y10.9774
G01 X36.0847 Y10.9760
G01 X36.0900 Y10.9741
G01 X36.0951 Y10.9717
G01 X36.0999 Y10.9688
G01 X36.1045 Y10.9654
G01 X36.1087 Y10.9617
G01 X36.1124 Y10.9575
G01 X36.1158 Y10.9529
G01 X36.1187 Y10.9481
G01 X36.1211 Y10.9430
G01 X36.1230 Y10.9377
G01 X36.1244 Y10.9322
G01 X36.1252 Y10.9266
G01 X36.1255 Y10.9210
G00 Z2.0000
G00 X38.6655 Y10.9210
G01 F60.00
G01 Z-2.0000
G01 F120.00
G01 X38.6652 Y10.9154
G01 X38.6644 Y10.9098
G01 X38.6630 Y10.9043
G01 X38.6611 Y10.8990
G01 X38.6587 Y10.8939
G01 X38.6558 Y10.8891
G01 X38.6524 Y10.8845
G01 X38.6487 Y10.8803
G01 X38.6445 Y10.8766
G01 X38.6399 Y10.8732
G01 X38.6351 Y10.8703
G01 X38.6300 Y10.8679
G01 X38.6247 Y10.8660
G01 X38.6192 Y10.8646
G01 X38.6136 Y10.8638
G01 X38.6080 Y10.8635
G01 X38.6024 Y10.8638
G01 X38.5968 Y10.8646
G01 X38.5913 Y10.8660
G01 X38.5860 Y10.8679
G01 X38.5809 Y10.8703
G01 X38.5761 Y10.8732
G01 X38.5715 Y10.8766
G01 X38.5673 Y10.8803
G01 X38.5636 Y10.8845
G01 X38.5602 Y10.8891
G01 X38.5573 Y10.8939
G01 X38.5549 Y10.8990
G01 X38.5530 Y10.9043
G01 X38.5516 Y10.9098
G01 X38.5508 Y10.9154
G01 X38.5505 Y10.9210
G01 X38.5508 Y10.9266
G01 X38.5516 Y10.9322
G01 X38.5530 Y10.9377
G01 X38.5549 Y10.9430
G01 X38.5573 Y10.9481
G01 X38.5602 Y10.9529
G01 X38.5636 Y10.9575
G01 X38.5673 Y10.9617
G01 X38.5715 Y10.9654
G01 X38.5761 Y10.9688
G01 X38.5809 Y10.9717
G01 X38.5860 Y10.9741
G01 X38.5913 Y10.9760
G01 X38.5968 Y10.9774
G01 X38.6024 Y10.9782
G01 X38.6080 Y10.9785
G01 X38.6136 Y10.9782
G01 X38.6192 Y10.9774
G01 X38.6247 Y10.9760
G01 X38.6300 Y10.9741
G01 X38.6351 Y10.9717
G01 X38.6399 Y10.9688
G01 X38.6445 Y10.9654
G01 X38.6487 Y10.9617
G01 X38.6524 Y10.9575
G01 X38.6558 Y10.9529
G01 X38.6587 Y10.9481
G01 X38.6611 Y10.9430
G01 X38.6630 Y10.9377
G01 X38.6644 Y10.9322
G01 X38.6652 Y10.9266
G01 X38.6655 Y10.9210
G00 Z2.0000
G00 X41.2055 Y10.9210
G01 F60.00
G01 Z-2.0000
G01 F120.00
G01 X41.2052 Y10.9154
G01 X41.2044 Y10.9098
G01 X41.2030 Y10.9043
G01 X41.2011 Y10.8990
G01 X41.1987 Y10.8939
G01 X41.1958 Y10.8891
G01 X41.1924 Y10.8845
G01 X41.1887 Y10.8803
G01 X41.1845 Y10.8766
G01 X41.1799 Y10.8732
G01 X41.1751 Y10.8703
G01 X41.1700 Y10.8679
G01 X41.1647 Y10.8660
G01 X41.1592 Y10.8646
G01 X41.1536 Y10.8638
G01 X41.1480 Y10.8635
G01 X41.1424 Y10.8638
G01 X41.1368 Y10.8646
G01 X41.1313 Y10.8660
G01 X41.1260 Y10.8679
G01 X41.1209 Y10.8703
G01 X41.1161 Y10.8732
G01 X41.1115 Y10.8766
G01 X41.1073 Y10.8803
G01 X41.1036 Y10.8845
G01 X41.1002 Y10.8891
G01 X41.0973 Y10.8939
G01 X41.0949 Y10.8990
G01 X41.0930 Y10.9043
G01 X41.0916 Y10.9098
G01 X41.0908 Y10.9154
G01 X41.0905 Y10.9210
G01 X41.0908 Y10.9266
G01 X41.0916 Y10.9322
G01 X41.0930 Y10.9377
G01 X41.0949 Y10.9430
G01 X41.0973 Y10.9481
G01 X41.1002 Y10.9529
G01 X41.1036 Y10.9575
G01 X41.1073 Y10.9617
G01 X41.1115 Y10.9654
G01 X41.1161 Y10.9688
G01 X41.1209 Y10.9717
G01 X41.1260 Y10.9741
G01 X41.1313 Y10.9760
G01 X41.1368 Y10.9774
G01 X41.1424 Y10.9782
G01 X41.1480 Y10.9785
G01 X41.1536 Y10.9782
G01 X41.1592 Y10.9774
G01 X41.1647 Y10.9760
G01 X41.1700 Y10.9741
G01 X41.1751 Y10.9717
G01 X41.1799 Y10.9688
G01 X41.1845 Y10.9654
G01 X41.1887 Y10.9617
G01 X41.1924 Y10.9575
G01 X41.1958 Y10.9529
G01 X41.1987 Y10.9481
G01 X41.2011 Y10.9430
G01 X41.2030 Y10.9377
G01 X41.2044 Y10.9322
G01 X41.2052 Y10.9266
G01 X41.2055 Y10.9210
G00 Z2.0000
G00 X43.7455 Y10.9210
G01 F60.00
G01 Z-2.0000
G01 F120.00
G01 X43.7452 Y10.9154
G01 X43.7444 Y10.9098
G01 X43.7430 Y10.9043
G01 X43.7411 Y10.8990
G01 X43.7387 Y10.8939
G01 X43.7358 Y10.8891
G01 X43.7324 Y10.8845
G01 X43.7287 Y10.8803
G01 X43.7245 Y10.8766
G01 X43.7199 Y10.8732
G01 X43.7151 Y10.8703
G01 X43.7100 Y10.8679
G01 X43.7047 Y10.8660
G01 X43.6992 Y10.8646
G01 X43.6936 Y10.8638
G01 X43.6880 Y10.8635
G01 X43.6824 Y10.8638
G01 X43.6768 Y10.8646
G01 X43.6713 Y10.8660
G01 X43.6660 Y10.8679
G01 X43.6609 Y10.8703
G01 X43.6561 Y10.8732
G01 X43.6515 Y10.8766
G01 X43.6473 Y10.8803
G01 X43.6436 Y10.8845
G01 X43.6402 Y10.8891
G01 X43.6373 Y10.8939
G01 X43.6349 Y10.8990
G01 X43.6330 Y10.9043
G01 X43.6316 Y10.9098
G01 X43.6308 Y10.9154
G01 X43.6305 Y10.9210
G01 X43.6308 Y10.9266
G01 X43.6316 Y10.9322
G01 X43.6330 Y10.9377
G01 X43.6349 Y10.9430
G01 X43.6373 Y10.9481
G01 X43.6402 Y10.9529
G01 X43.6436 Y10.9575
G01 X43.6473 Y10.9617
G01 X43.6515 Y10.9654
G01 X43.6561 Y10.9688
G01 X43.6609 Y10.9717
G01 X43.6660 Y10.9741
G01 X43.6713 Y10.9760
G01 X43.6768 Y10.9774
G01 X43.6824 Y10.9782
G01 X43.6880 Y10.9785
G01 X43.6936 Y10.9782
G01 X43.6992 Y10.9774
G01 X43.7047 Y10.9760
G01 X43.7100 Y10.9741
G01 X43.7151 Y10.9717
G01 X43.7199 Y10.9688
G01 X43.7245 Y10.9654
G01 X43.7287 Y10.9617
G01 X43.7324 Y10.9575
G01 X43.7358 Y10.9529
G01 X43.7387 Y10.9481
G01 X43.7411 Y10.9430
G01 X43.7430 Y10.9377
G01 X43.7444 Y10.9322
G01 X43.7452 Y10.9266
G01 X43.7455 Y10.9210
G00 Z2.0000
G00 X46.2855 Y10.9210
G01 F60.00
G01 Z-2.0000
G01 F120.00
G01 X46.2852 Y10.9154
G01 X46.2844 Y10.9098
G01 X46.2830 Y10.9043
G01 X46.2811 Y10.8990
G01 X46.2787 Y10.8939
G01 X46.2758 Y10.8891
G01 X46.2724 Y10.8845
G01 X46.2687 Y10.8803
G01 X46.2645 Y10.8766
G01 X46.2599 Y10.8732
G01 X46.2551 Y10.8703
G01 X46.2500 Y10.8679
G01 X46.2447 Y10.8660
G01 X46.2392 Y10.8646
G01 X46.2336 Y10.8638
G01 X46.2280 Y10.8635
G01 X46.2224 Y10.8638
G01 X46.2168 Y10.8646
G01 X46.2113 Y10.8660
G01 X46.2060 Y10.8679
G01 X46.2009 Y10.8703
G01 X46.1961 Y10.8732
G01 X46.1915 Y10.8766
G01 X46.1873 Y10.8803
G01 X46.1836 Y10.8845
G01 X46.1802 Y10.8891
G01 X46.1773 Y10.8939
G01 X46.1749 Y10.8990
G01 X46.1730 Y10.9043
G01 X46.1716 Y10.9098
G01 X46.1708 Y10.9154
G01 X46.1705 Y10.9210
G01 X46.1708 Y10.9266
G01 X46.1716 Y10.9322
G01 X46.1730 Y10.9377
G01 X46.1749 Y10.9430
G01 X46.1773 Y10.9481
G01 X46.1802 Y10.9529
G01 X46.1836 Y10.9575
G01 X46.1873 Y10.9617
G01 X46.1915 Y10.9654
G01 X46.1961 Y10.9688
G01 X46.2009 Y10.9717
G01 X46.2060 Y10.9741
G01 X46.2113 Y10.9760
G01 X46.2168 Y10.9774
G01 X46.2224 Y10.9782
G01 X46.2280 Y10.9785
G01 X46.2336 Y10.9782
G01 X46.2392 Y10.9774
G01 X46.2447 Y10.9760
G01 X46.2500 Y10.9741
G01 X46.2551 Y10.9717
G01 X46.2599 Y10.9688
G01 X46.2645 Y10.9654
G01 X46.2687 Y10.9617
G01 X46.2724 Y10.9575
G01 X46.2758 Y10.9529
G01 X46.2787 Y10.9481
G01 X46.2811 Y10.9430
G01 X46.2830 Y10.9377
G01 X46.2844 Y10.9322
G01 X46.2852 Y10.9266
G01 X46.2855 Y10.9210
G00 Z2.0000
G00 X48.8255 Y10.9210
G01 F60.00
G01 Z-2.0000
G01 F120.00
G01 X48.8252 Y10.9154
G01 X48.8244 Y10.9098
G01 X48.8230 Y10.9043
G01 X48.8211 Y10.8990
G01 X48.8187 Y10.8939
G01 X48.8158 Y10.8891
G01 X48.8124 Y10.8845
G01 X48.8087 Y10.8803
G01 X48.8045 Y10.8766
G01 X48.7999 Y10.8732
G01 X48.7951 Y10.8703
G01 X48.7900 Y10.8679
G01 X48.7847 Y10.8660
G01 X48.7792 Y10.8646
G01 X48.7736 Y10.8638
G01 X48.7680 Y10.8635
G01 X48.7624 Y10.8638
G01 X48.7568 Y10.8646
G01 X48.7513 Y10.8660
G01 X48.7460 Y10.8679
G01 X48.7409 Y10.8703
G01 X48.7361 Y10.8732
G01 X48.7315 Y10.8766
G01 X48.7273 Y10.8803
G01 X48.7236 Y10.8845
G01 X48.7202 Y10.8891
G01 X48.7173 Y10.8939
G01 X48.7149 Y10.8990
G01 X48.7130 Y10.9043
G01 X48.7116 Y10.9098
G01 X48.7108 Y10.9154
G01 X48.7105 Y10.9210
G01 X48.7108 Y10.9266
G01 X48.7116 Y10.9322
G01 X48.7130 Y10.9377
G01 X48.7149 Y10.9430
G01 X48.7173 Y10.9481
G01 X48.7202 Y10.9529
G01 X48.7236 Y10.9575
G01 X48.7273 Y10.9617
G01 X48.7315 Y10.9654
G01 X48.7361 Y10.9688
G01 X48.7409 Y10.9717
G01 X48.7460 Y10.9741
G01 X48.7513 Y10.9760
G01 X48.7568 Y10.9774
G01 X48.7624 Y10.9782
G01 X48.7680 Y10.9785
G01 X48.7736 Y10.9782
G01 X48.7792 Y10.9774
G01 X48.7847 Y10.9760
G01 X48.7900 Y10.9741
G01 X48.7951 Y10.9717
G01 X48.7999 Y10.9688
G01 X48.8045 Y10.9654
G01 X48.8087 Y10.9617
G01 X48.8124 Y10.9575
G01 X48.8158 Y10.9529
G01 X48.8187 Y10.9481
G01 X48.8211 Y10.9430
G01 X48.8230 Y10.9377
G01 X48.8244 Y10.9322
G01 X48.8252 Y10.9266
G01 X48.8255 Y10.9210
G00 Z2.0000
G00 X51.3655 Y10.9210
G01 F60.00
G01 Z-2.0000
G01 F120.00
G01 X51.3652 Y10.9154
G01 X51.3644 Y10.9098
G01 X51.3630 Y10.9043
G01 X51.3611 Y10.8990
G01 X51.3587 Y10.8939
G01 X51.3558 Y10.8891
G01 X51.3524 Y10.8845
G01 X51.3487 Y10.8803
G01 X51.3445 Y10.8766
G01 X51.3399 Y10.8732
G01 X51.3351 Y10.8703
G01 X51.3300 Y10.8679
G01 X51.3247 Y10.8660
G01 X51.3192 Y10.8646
G01 X51.3136 Y10.8638
G01 X51.3080 Y10.8635
G01 X51.3024 Y10.8638
G01 X51.2968 Y10.8646
G01 X51.2913 Y10.8660
G01 X51.2860 Y10.8679
G01 X51.2809 Y10.8703
G01 X51.2761 Y10.8732
G01 X51.2715 Y10.8766
G01 X51.2673 Y10.8803
G01 X51.2636 Y10.8845
G01 X51.2602 Y10.8891
G01 X51.2573 Y10.8939
G01 X51.2549 Y10.8990
G01 X51.2530 Y10.9043
G01 X51.2516 Y10.9098
G01 X51.2508 Y10.9154
G01 X51.2505 Y10.9210
G01 X51.2508 Y10.9266
G01 X51.2516 Y10.9322
G01 X51.2530 Y10.9377
G01 X51.2549 Y10.9430
G01 X51.2573 Y10.9481
G01 X51.2602 Y10.9529
G01 X51.2636 Y10.9575
G01 X51.2673 Y10.9617
G01 X51.2715 Y10.9654
G01 X51.2761 Y10.9688
G01 X51.2809 Y10.9717
G01 X51.2860 Y10.9741
G01 X51.2913 Y10.9760
G01 X51.2968 Y10.9774
G01 X51.3024 Y10.9782
G01 X51.3080 Y10.9785
G01 X51.3136 Y10.9782
G01 X51.3192 Y10.9774
G01 X51.3247 Y10.9760
G01 X51.3300 Y10.9741
G01 X51.3351 Y10.9717
G01 X51.3399 Y10.9688
G01 X51.3445 Y10.9654
G01 X51.3487 Y10.9617
G01 X51.3524 Y10.9575
G01 X51.3558 Y10.9529
G01 X51.3587 Y10.9481
G01 X51.3611 Y10.9430
G01 X51.3630 Y10.9377
G01 X51.3644 Y10.9322
G01 X51.3652 Y10.9266
G01 X51.3655 Y10.9210
G00 Z2.0000
G00 X53.9055 Y10.9210
G01 F60.00
G01 Z-2.0000
G01 F120.00
G01 X53.9052 Y10.9154
G01 X53.9044 Y10.9098
G01 X53.9030 Y10.9043
G01 X53.9011 Y10.8990
G01 X53.8987 Y10.8939
G01 X53.8958 Y10.8891
G01 X53.8924 Y10.8845
G01 X53.8887 Y10.8803
G01 X53.8845 Y10.8766
G01 X53.8799 Y10.8732
G01 X53.8751 Y10.8703
G01 X53.8700 Y10.8679
G01 X53.8647 Y10.8660
G01 X53.8592 Y10.8646
G01 X53.8536 Y10.8638
G01 X53.8480 Y10.8635
G01 X53.8424 Y10.8638
G01 X53.8368 Y10.8646
G01 X53.8313 Y10.8660
G01 X53.8260 Y10.8679
G01 X53.8209 Y10.8703
G01 X53.8161 Y10.8732
G01 X53.8115 Y10.8766
G01 X53.8073 Y10.8803
G01 X53.8036 Y10.8845
G01 X53.8002 Y10.8891
G01 X53.7973 Y10.8939
G01 X53.7949 Y10.8990
G01 X53.7930 Y10.9043
G01 X53.7916 Y10.9098
G01 X53.7908 Y10.9154
G01 X53.7905 Y10.9210
G01 X53.7908 Y10.9266
G01 X53.7916 Y10.9322
G01 X53.7930 Y10.9377
G01 X53.7949 Y10.9430
G01 X53.7973 Y10.9481
G01 X53.8002 Y10.9529
G01 X53.8036 Y10.9575
G01 X53.8073 Y10.9617
G01 X53.8115 Y10.9654
G01 X53.8161 Y10.9688
G01 X53.8209 Y10.9717
G01 X53.8260 Y10.9741
G01 X53.8313 Y10.9760
G01 X53.8368 Y10.9774
G01 X53.8424 Y10.9782
G01 X53.8480 Y10.9785
G01 X53.8536 Y10.9782
G01 X53.8592 Y10.9774
G01 X53.8647 Y10.9760
G01 X53.8700 Y10.9741
G01 X53.8751 Y10.9717
G01 X53.8799 Y10.9688
G01 X53.8845 Y10.9654
G01 X53.8887 Y10.9617
G01 X53.8924 Y10.9575
G01 X53.8958 Y10.9529
G01 X53.8987 Y10.9481
G01 X53.9011 Y10.9430
G01 X53.9030 Y10.9377
G01 X53.9044 Y10.9322
G01 X53.9052 Y10.9266
G01 X53.9055 Y10.9210
G00 Z2.0000
G00 X56.4455 Y10.9210
G01 F60.00
G01 Z-2.0000
G01 F120.00
G01 X56.4452 Y10.9154
G01 X56.4444 Y10.9098
G01 X56.4430 Y10.9043
G01 X56.4411 Y10.8990
G01 X56.4387 Y10.8939
G01 X56.4358 Y10.8891
G01 X56.4324 Y10.8845
G01 X56.4287 Y10.8803
G01 X56.4245 Y10.8766
G01 X56.4199 Y10.8732
G01 X56.4151 Y10.8703
G01 X56.4100 Y10.8679
G01 X56.4047 Y10.8660
G01 X56.3992 Y10.8646
G01 X56.3936 Y10.8638
G01 X56.3880 Y10.8635
G01 X56.3824 Y10.8638
G01 X56.3768 Y10.8646
G01 X56.3713 Y10.8660
G01 X56.3660 Y10.8679
G01 X56.3609 Y10.8703
G01 X56.3561 Y10.8732
G01 X56.3515 Y10.8766
G01 X56.3473 Y10.8803
G01 X56.3436 Y10.8845
G01 X56.3402 Y10.8891
G01 X56.3373 Y10.8939
G01 X56.3349 Y10.8990
G01 X56.3330 Y10.9043
G01 X56.3316 Y10.9098
G01 X56.3308 Y10.9154
G01 X56.3305 Y10.9210
G01 X56.3308 Y10.9266
G01 X56.3316 Y10.9322
G01 X56.3330 Y10.9377
G01 X56.3349 Y10.9430
G01 X56.3373 Y10.9481
G01 X56.3402 Y10.9529
G01 X56.3436 Y10.9575
G01 X56.3473 Y10.9617
G01 X56.3515 Y10.9654
G01 X56.3561 Y10.9688
G01 X56.3609 Y10.9717
G01 X56.3660 Y10.9741
G01 X56.3713 Y10.9760
G01 X56.3768 Y10.9774
G01 X56.3824 Y10.9782
G01 X56.3880 Y10.9785
G01 X56.3936 Y10.9782
G01 X56.3992 Y10.9774
G01 X56.4047 Y10.9760
G01 X56.4100 Y10.9741
G01 X56.4151 Y10.9717
G01 X56.4199 Y10.9688
G01 X56.4245 Y10.9654
G01 X56.4287 Y10.9617
G01 X56.4324 Y10.9575
G01 X56.4358 Y10.9529
G01 X56.4387 Y10.9481
G01 X56.4411 Y10.9430
G01 X56.4430 Y10.9377
G01 X56.4444 Y10.9322
G01 X56.4452 Y10.9266
G01 X56.4455 Y10.9210
G00 Z2.0000
G00 X58.9855 Y10.9210
G01 F60.00
G01 Z-2.0000
G01 F120.00
G01 X58.9852 Y10.9154
G01 X58.9844 Y10.9098
G01 X58.9830 Y10.9043
G01 X58.9811 Y10.8990
G01 X58.9787 Y10.8939
G01 X58.9758 Y10.8891
G01 X58.9724 Y10.8845
G01 X58.9687 Y10.8803
G01 X58.9645 Y10.8766
G01 X58.9599 Y10.8732
G01 X58.9551 Y10.8703
G01 X58.9500 Y10.8679
G01 X58.9447 Y10.8660
G01 X58.9392 Y10.8646
G01 X58.9336 Y10.8638
G01 X58.9280 Y10.8635
G01 X58.9224 Y10.8638
G01 X58.9168 Y10.8646
G01 X58.9113 Y10.8660
G01 X58.9060 Y10.8679
G01 X58.9009 Y10.8703
G01 X58.8961 Y10.8732
G01 X58.8915 Y10.8766
G01 X58.8873 Y10.8803
G01 X58.8836 Y10.8845
G01 X58.8802 Y10.8891
G01 X58.8773 Y10.8939
G01 X58.8749 Y10.8990
G01 X58.8730 Y10.9043
G01 X58.8716 Y10.9098
G01 X58.8708 Y10.9154
G01 X58.8705 Y10.9210
G01 X58.8708 Y10.9266
G01 X58.8716 Y10.9322
G01 X58.8730 Y10.9377
G01 X58.8749 Y10.9430
G01 X58.8773 Y10.9481
G01 X58.8802 Y10.9529
G01 X58.8836 Y10.9575
G01 X58.8873 Y10.9617
G01 X58.8915 Y10.9654
G01 X58.8961 Y10.9688
G01 X58.9009 Y10.9717
G01 X58.9060 Y10.9741
G01 X58.9113 Y10.9760
G01 X58.9168 Y10.9774
G01 X58.9224 Y10.9782
G01 X58.9280 Y10.9785
G01 X58.9336 Y10.9782
G01 X58.9392 Y10.9774
G01 X58.9447 Y10.9760
G01 X58.9500 Y10.9741
G01 X58.9551 Y10.9717
G01 X58.9599 Y10.9688
G01 X58.9645 Y10.9654
G01 X58.9687 Y10.9617
G01 X58.9724 Y10.9575
G01 X58.9758 Y10.9529
G01 X58.9787 Y10.9481
G01 X58.9811 Y10.9430
G01 X58.9830 Y10.9377
G01 X58.9844 Y10.9322
G01 X58.9852 Y10.9266
G01 X58.9855 Y10.9210
G00 Z2.0000
G00 X61.5255 Y10.9210
G01 F60.00
G01 Z-2.0000
G01 F120.00
G01 X61.5252 Y10.9154
G01 X61.5244 Y10.9098
G01 X61.5230 Y10.9043
G01 X61.5211 Y10.8990
G01 X61.5187 Y10.8939
G01 X61.5158 Y10.8891
G01 X61.5124 Y10.8845
G01 X61.5087 Y10.8803
G01 X61.5045 Y10.8766
G01 X61.4999 Y10.8732
G01 X61.4951 Y10.8703
G01 X61.4900 Y10.8679
G01 X61.4847 Y10.8660
G01 X61.4792 Y10.8646
G01 X61.4736 Y10.8638
G01 X61.4680 Y10.8635
G01 X61.4624 Y10.8638
G01 X61.4568 Y10.8646
G01 X61.4513 Y10.8660
G01 X61.4460 Y10.8679
G01 X61.4409 Y10.8703
G01 X61.4361 Y10.8732
G01 X61.4315 Y10.8766
G01 X61.4273 Y10.8803
G01 X61.4236 Y10.8845
G01 X61.4202 Y10.8891
G01 X61.4173 Y10.8939
G01 X61.4149 Y10.8990
G01 X61.4130 Y10.9043
G01 X61.4116 Y10.9098
G01 X61.4108 Y10.9154
G01 X61.4105 Y10.9210
G01 X61.4108 Y10.9266
G01 X61.4116 Y10.9322
G01 X61.4130 Y10.9377
G01 X61.4149 Y10.9430
G01 X61.4173 Y10.9481
G01 X61.4202 Y10.9529
G01 X61.4236 Y10.9575
G01 X61.4273 Y10.9617
G01 X61.4315 Y10.9654
G01 X61.4361 Y10.9688
G01 X61.4409 Y10.9717
G01 X61.4460 Y10.9741
G01 X61.4513 Y10.9760
G01 X61.4568 Y10.9774
G01 X61.4624 Y10.9782
G01 X61.4680 Y10.9785
G01 X61.4736 Y10.9782
G01 X61.4792 Y10.9774
G01 X61.4847 Y10.9760
G01 X61.4900 Y10.9741
G01 X61.4951 Y10.9717
G01 X61.4999 Y10.9688
G01 X61.5045 Y10.9654
G01 X61.5087 Y10.9617
G01 X61.5124 Y10.9575
G01 X61.5158 Y10.9529
G01 X61.5187 Y10.9481
G01 X61.5211 Y10.9430
G01 X61.5230 Y10.9377
G01 X61.5244 Y10.9322
G01 X61.5252 Y10.9266
G01 X61.5255 Y10.9210
G00 Z2.0000
G00 X64.0655 Y10.9210
G01 F60.00
G01 Z-2.0000
G01 F120.00
G01 X64.0652 Y10.9154
G01 X64.0644 Y10.9098
G01 X64.0630 Y10.9043
G01 X64.0611 Y10.8990
G01 X64.0587 Y10.8939
G01 X64.0558 Y10.8891
G01 X64.0524 Y10.8845
G01 X64.0487 Y10.8803
G01 X64.0445 Y10.8766
G01 X64.0399 Y10.8732
G01 X64.0351 Y10.8703
G01 X64.0300 Y10.8679
G01 X64.0247 Y10.8660
G01 X64.0192 Y10.8646
G01 X64.0136 Y10.8638
G01 X64.0080 Y10.8635
G01 X64.0024 Y10.8638
G01 X63.9968 Y10.8646
G01 X63.9913 Y10.8660
G01 X63.9860 Y10.8679
G01 X63.9809 Y10.8703
G01 X63.9761 Y10.8732
G01 X63.9715 Y10.8766
G01 X63.9673 Y10.8803
G01 X63.9636 Y10.8845
G01 X63.9602 Y10.8891
G01 X63.9573 Y10.8939
G01 X63.9549 Y10.8990
G01 X63.9530 Y10.9043
G01 X63.9516 Y10.9098
G01 X63.9508 Y10.9154
G01 X63.9505 Y10.9210
G01 X63.9508 Y10.9266
G01 X63.9516 Y10.9322
G01 X63.9530 Y10.9377
G01 X63.9549 Y10.9430
G01 X63.9573 Y10.9481
G01 X63.9602 Y10.9529
G01 X63.9636 Y10.9575
G01 X63.9673 Y10.9617
G01 X63.9715 Y10.9654
G01 X63.9761 Y10.9688
G01 X63.9809 Y10.9717
G01 X63.9860 Y10.9741
G01 X63.9913 Y10.9760
G01 X63.9968 Y10.9774
G01 X64.0024 Y10.9782
G01 X64.0080 Y10.9785
G01 X64.0136 Y10.9782
G01 X64.0192 Y10.9774
G01 X64.0247 Y10.9760
G01 X64.0300 Y10.9741
G01 X64.0351 Y10.9717
G01 X64.0399 Y10.9688
G01 X64.0445 Y10.9654
G01 X64.0487 Y10.9617
G01 X64.0524 Y10.9575
G01 X64.0558 Y10.9529
G01 X64.0587 Y10.9481
G01 X64.0611 Y10.9430
G01 X64.0630 Y10.9377
G01 X64.0644 Y10.9322
G01 X64.0652 Y10.9266
G01 X64.0655 Y10.9210
G00 Z2.0000
G00 X66.6055 Y10.9210
G01 F60.00
G01 Z-2.0000
G01 F120.00
G01 X66.6052 Y10.9154
G01 X66.6044 Y10.9098
G01 X66.6030 Y10.9043
G01 X66.6011 Y10.8990
G01 X66.5987 Y10.8939
G01 X66.5958 Y10.8891
G01 X66.5924 Y10.8845
G01 X66.5887 Y10.8803
G01 X66.5845 Y10.8766
G01 X66.5799 Y10.8732
G01 X66.5751 Y10.8703
G01 X66.5700 Y10.8679
G01 X66.5647 Y10.8660
G01 X66.5592 Y10.8646
G01 X66.5536 Y10.8638
G01 X66.5480 Y10.8635
G01 X66.5424 Y10.8638
G01 X66.5368 Y10.8646
G01 X66.5313 Y10.8660
G01 X66.5260 Y10.8679
G01 X66.5209 Y10.8703
G01 X66.5161 Y10.8732
G01 X66.5115 Y10.8766
G01 X66.5073 Y10.8803
G01 X66.5036 Y10.8845
G01 X66.5002 Y10.8891
G01 X66.4973 Y10.8939
G01 X66.4949 Y10.8990
G01 X66.4930 Y10.9043
G01 X66.4916 Y10.9098
G01 X66.4908 Y10.9154
G01 X66.4905 Y10.9210
G01 X66.4908 Y10.9266
G01 X66.4916 Y10.9322
G01 X66.4930 Y10.9377
G01 X66.4949 Y10.9430
G01 X66.4973 Y10.9481
G01 X66.5002 Y10.9529
G01 X66.5036 Y10.9575
G01 X66.5073 Y10.9617
G01 X66.5115 Y10.9654
G01 X66.5161 Y10.9688
G01 X66.5209 Y10.9717
G01 X66.5260 Y10.9741
G01 X66.5313 Y10.9760
G01 X66.5368 Y10.9774
G01 X66.5424 Y10.9782
G01 X66.5480 Y10.9785
G01 X66.5536 Y10.9782
G01 X66.5592 Y10.9774
G01 X66.5647 Y10.9760
G01 X66.5700 Y10.9741
G01 X66.5751 Y10.9717
G01 X66.5799 Y10.9688
G01 X66.5845 Y10.9654
G01 X66.5887 Y10.9617
G01 X66.5924 Y10.9575
G01 X66.5958 Y10.9529
G01 X66.5987 Y10.9481
G01 X66.6011 Y10.9430
G01 X66.6030 Y10.9377
G01 X66.6044 Y10.9322
G01 X66.6052 Y10.9266
G01 X66.6055 Y10.9210
G00 Z2.0000
G00 X69.1455 Y10.9210
G01 F60.00
G01 Z-2.0000
G01 F120.00
G01 X69.1452 Y10.9154
G01 X69.1444 Y10.9098
G01 X69.1430 Y10.9043
G01 X69.1411 Y10.8990
G01 X69.1387 Y10.8939
G01 X69.1358 Y10.8891
G01 X69.1324 Y10.8845
G01 X69.1287 Y10.8803
G01 X69.1245 Y10.8766
G01 X69.1199 Y10.8732
G01 X69.1151 Y10.8703
G01 X69.1100 Y10.8679
G01 X69.1047 Y10.8660
G01 X69.0992 Y10.8646
G01 X69.0936 Y10.8638
G01 X69.0880 Y10.8635
G01 X69.0824 Y10.8638
G01 X69.0768 Y10.8646
G01 X69.0713 Y10.8660
G01 X69.0660 Y10.8679
G01 X69.0609 Y10.8703
G01 X69.0561 Y10.8732
G01 X69.0515 Y10.8766
G01 X69.0473 Y10.8803
G01 X69.0436 Y10.8845
G01 X69.0402 Y10.8891
G01 X69.0373 Y10.8939
G01 X69.0349 Y10.8990
G01 X69.0330 Y10.9043
G01 X69.0316 Y10.9098
G01 X69.0308 Y10.9154
G01 X69.0305 Y10.9210
G01 X69.0308 Y10.9266
G01 X69.0316 Y10.9322
G01 X69.0330 Y10.9377
G01 X69.0349 Y10.9430
G01 X69.0373 Y10.9481
G01 X69.0402 Y10.9529
G01 X69.0436 Y10.9575
G01 X69.0473 Y10.9617
G01 X69.0515 Y10.9654
G01 X69.0561 Y10.9688
G01 X69.0609 Y10.9717
G01 X69.0660 Y10.9741
G01 X69.0713 Y10.9760
G01 X69.0768 Y10.9774
G01 X69.0824 Y10.9782
G01 X69.0880 Y10.9785
G01 X69.0936 Y10.9782
G01 X69.0992 Y10.9774
G01 X69.1047 Y10.9760
G01 X69.1100 Y10.9741
G01 X69.1151 Y10.9717
G01 X69.1199 Y10.9688
G01 X69.1245 Y10.9654
G01 X69.1287 Y10.9617
G01 X69.1324 Y10.9575
G01 X69.1358 Y10.9529
G01 X69.1387 Y10.9481
G01 X69.1411 Y10.9430
G01 X69.1430 Y10.9377
G01 X69.1444 Y10.9322
G01 X69.1452 Y10.9266
G01 X69.1455 Y10.9210
G00 Z2.0000
G00 X71.6855 Y10.9210
G01 F60.00
G01 Z-2.0000
G01 F120.00
G01 X71.6852 Y10.9154
G01 X71.6844 Y10.9098
G01 X71.6830 Y10.9043
G01 X71.6811 Y10.8990
G01 X71.6787 Y10.8939
G01 X71.6758 Y10.8891
G01 X71.6724 Y10.8845
G01 X71.6687 Y10.8803
G01 X71.6645 Y10.8766
G01 X71.6599 Y10.8732
G01 X71.6551 Y10.8703
G01 X71.6500 Y10.8679
G01 X71.6447 Y10.8660
G01 X71.6392 Y10.8646
G01 X71.6336 Y10.8638
G01 X71.6280 Y10.8635
G01 X71.6224 Y10.8638
G01 X71.6168 Y10.8646
G01 X71.6113 Y10.8660
G01 X71.6060 Y10.8679
G01 X71.6009 Y10.8703
G01 X71.5961 Y10.8732
G01 X71.5915 Y10.8766
G01 X71.5873 Y10.8803
G01 X71.5836 Y10.8845
G01 X71.5802 Y10.8891
G01 X71.5773 Y10.8939
G01 X71.5749 Y10.8990
G01 X71.5730 Y10.9043
G01 X71.5716 Y10.9098
G01 X71.5708 Y10.9154
G01 X71.5705 Y10.9210
G01 X71.5708 Y10.9266
G01 X71.5716 Y10.9322
G01 X71.5730 Y10.9377
G01 X71.5749 Y10.9430
G01 X71.5773 Y10.9481
G01 X71.5802 Y10.9529
G01 X71.5836 Y10.9575
G01 X71.5873 Y10.9617
G01 X71.5915 Y10.9654
G01 X71.5961 Y10.9688
G01 X71.6009 Y10.9717
G01 X71.6060 Y10.9741
G01 X71.6113 Y10.9760
G01 X71.6168 Y10.9774
G01 X71.6224 Y10.9782
G01 X71.6280 Y10.9785
G01 X71.6336 Y10.9782
G01 X71.6392 Y10.9774
G01 X71.6447 Y10.9760
G01 X71.6500 Y10.9741
G01 X71.6551 Y10.9717
G01 X71.6599 Y10.9688
G01 X71.6645 Y10.9654
G01 X71.6687 Y10.9617
G01 X71.6724 Y10.9575
G01 X71.6758 Y10.9529
G01 X71.6787 Y10.9481
G01 X71.6811 Y10.9430
G01 X71.6830 Y10.9377
G01 X71.6844 Y10.9322
G01 X71.6852 Y10.9266
G01 X71.6855 Y10.9210
G00 Z2.0000
G00 X65.2510 Y5.3330
G01 F60.00
G01 Z-2.0000
G01 F120.00
G01 X65.2505 Y5.3232
G01 X65.2491 Y5.3135
G01 X65.2467 Y5.3040
G01 X65.2434 Y5.2947
G01 X65.2392 Y5.2859
G01 X65.2341 Y5.2774
G01 X65.2283 Y5.2696
G01 X65.2217 Y5.2623
G01 X65.2144 Y5.2557
G01 X65.2066 Y5.2499
G01 X65.1981 Y5.2448
G01 X65.1893 Y5.2406
G01 X65.1800 Y5.2373
G01 X65.1705 Y5.2349
G01 X65.1608 Y5.2335
G01 X65.1510 Y5.2330
G01 X65.1412 Y5.2335
G01 X65.1315 Y5.2349
G01 X65.1220 Y5.2373
G01 X65.1127 Y5.2406
G01 X65.1039 Y5.2448
G01 X65.0954 Y5.2499
G01 X65.0876 Y5.2557
G01 X65.0803 Y5.2623
G01 X65.0737 Y5.2696
G01 X65.0679 Y5.2774
G01 X65.0628 Y5.2859
G01 X65.0586 Y5.2947
G01 X65.0553 Y5.3040
G01 X65.0529 Y5.3135
G01 X65.0515 Y5.3232
G01 X65.0510 Y5.3330
G01 X65.0515 Y5.3428
G01 X65.0529 Y5.3525
G01 X65.0553 Y5.3620
G01 X65.0586 Y5.3713
G01 X65.0628 Y5.3801
G01 X65.0679 Y5.3886
G01 X65.0737 Y5.3964
G01 X65.0803 Y5.4037
G01 X65.0876 Y5.4103
G01 X65.0954 Y5.4161
G01 X65.1039 Y5.4212
G01 X65.1127 Y5.4254
G01 X65.1220 Y5.4287
G01 X65.1315 Y5.4311
G01 X65.1412 Y5.4325
G01 X65.1510 Y5.4330
G01 X65.1608 Y5.4325
G01 X65.1705 Y5.4311
G01 X65.1800 Y5.4287
G01 X65.1893 Y5.4254
G01 X65.1981 Y5.4212
G01 X65.2066 Y5.4161
G01 X65.2144 Y5.4103
G01 X65.2217 Y5.4037
G01 X65.2283 Y5.3964
G01 X65.2341 Y5.3886
G01 X65.2392 Y5.3801
G01 X65.2434 Y5.3713
G01 X65.2467 Y5.3620
G01 X65.2491 Y5.3525
G01 X65.2505 Y5.3428
G01 X65.2510 Y5.3330
G00 Z2.0000
G00 X62.7110 Y5.3330
G01 F60.00
G01 Z-2.0000
G01 F120.00
G01 X62.7105 Y5.3232
G01 X62.7091 Y5.3135
G01 X62.7067 Y5.3040
G01 X62.7034 Y5.2947
G01 X62.6992 Y5.2859
G01 X62.6941 Y5.2774
G01 X62.6883 Y5.2696
G01 X62.6817 Y5.2623
G01 X62.6744 Y5.2557
G01 X62.6666 Y5.2499
G01 X62.6581 Y5.2448
G01 X62.6493 Y5.2406
G01 X62.6400 Y5.2373
G01 X62.6305 Y5.2349
G01 X62.6208 Y5.2335
G01 X62.6110 Y5.2330
G01 X62.6012 Y5.2335
G01 X62.5915 Y5.2349
G01 X62.5820 Y5.2373
G01 X62.5727 Y5.2406
G01 X62.5639 Y5.2448
G01 X62.5554 Y5.2499
G01 X62.5476 Y5.2557
G01 X62.5403 Y5.2623
G01 X62.5337 Y5.2696
G01 X62.5279 Y5.2774
G01 X62.5228 Y5.2859
G01 X62.5186 Y5.2947
G01 X62.5153 Y5.3040
G01 X62.5129 Y5.3135
G01 X62.5115 Y5.3232
G01 X62.5110 Y5.3330
G01 X62.5115 Y5.3428
G01 X62.5129 Y5.3525
G01 X62.5153 Y5.3620
G01 X62.5186 Y5.3713
G01 X62.5228 Y5.3801
G01 X62.5279 Y5.3886
G01 X62.5337 Y5.3964
G01 X62.5403 Y5.4037
G01 X62.5476 Y5.4103
G01 X62.5554 Y5.4161
G01 X62.5639 Y5.4212
G01 X62.5727 Y5.4254
G01 X62.5820 Y5.4287
G01 X62.5915 Y5.4311
G01 X62.6012 Y5.4325
G01 X62.6110 Y5.4330
G01 X62.6208 Y5.4325
G01 X62.6305 Y5.4311
G01 X62.6400 Y5.4287
G01 X62.6493 Y5.4254
G01 X62.6581 Y5.4212
G01 X62.6666 Y5.4161
G01 X62.6744 Y5.4103
G01 X62.6817 Y5.4037
G01 X62.6883 Y5.3964
G01 X62.6941 Y5.3886
G01 X62.6992 Y5.3801
G01 X62.7034 Y5.3713
G01 X62.7067 Y5.3620
G01 X62.7091 Y5.3525
G01 X62.7105 Y5.3428
G01 X62.7110 Y5.3330
G00 Z2.0000
G00 X60.1710 Y5.3330
G01 F60.00
G01 Z-2.0000
G01 F120.00
G01 X60.1705 Y5.3232
G01 X60.1691 Y5.3135
G01 X60.1667 Y5.3040
G01 X60.1634 Y5.2947
G01 X60.1592 Y5.2859
G01 X60.1541 Y5.2774
G01 X60.1483 Y5.2696
G01 X60.1417 Y5.2623
G01 X60.1344 Y5.2557
G01 X60.1266 Y5.2499
G01 X60.1181 Y5.2448
G01 X60.1093 Y5.2406
G01 X60.1000 Y5.2373
G01 X60.0905 Y5.2349
G01 X60.0808 Y5.2335
G01 X60.0710 Y5.2330
G01 X60.0612 Y5.2335
G01 X60.0515 Y5.2349
G01 X60.0420 Y5.2373
G01 X60.0327 Y5.2406
G01 X60.0239 Y5.2448
G01 X60.0154 Y5.2499
G01 X60.0076 Y5.2557
G01 X60.0003 Y5.2623
G01 X59.9937 Y5.2696
G01 X59.9879 Y5.2774
G01 X59.9828 Y5.2859
G01 X59.9786 Y5.2947
G01 X59.9753 Y5.3040
G01 X59.9729 Y5.3135
G01 X59.9715 Y5.3232
G01 X59.9710 Y5.3330
G01 X59.9715 Y5.3428
G01 X59.9729 Y5.3525
G01 X59.9753 Y5.3620
G01 X59.9786 Y5.3713
G01 X59.9828 Y5.3801
G01 X59.9879 Y5.3886
G01 X59.9937 Y5.3964
G01 X60.0003 Y5.4037
G01 X60.0076 Y5.4103
G01 X60.0154 Y5.4161
G01 X60.0239 Y5.4212
G01 X60.0327 Y5.4254
G01 X60.0420 Y5.4287
G01 X60.0515 Y5.4311
G01 X60.0612 Y5.4325
G01 X60.0710 Y5.4330
G01 X60.0808 Y5.4325
G01 X60.0905 Y5.4311
G01 X60.1000 Y5.4287
G01 X60.1093 Y5.4254
G01 X60.1181 Y5.4212
G01 X60.1266 Y5.4161
G01 X60.1344 Y5.4103
G01 X60.1417 Y5.4037
G01 X60.1483 Y5.3964
G01 X60.1541 Y5.3886
G01 X60.1592 Y5.3801
G01 X60.1634 Y5.3713
G01 X60.1667 Y5.3620
G01 X60.1691 Y5.3525
G01 X60.1705 Y5.3428
G01 X60.1710 Y5.3330
G00 Z2.0000
G00 X50.9715 Y4.8250
G01 F60.00
G01 Z-2.0000
G01 F120.00
G01 X50.9706 Y4.8163
G01 X50.9681 Y4.8080
G01 X50.9640 Y4.8003
G01 X50.9585 Y4.7935
G01 X50.9517 Y4.7880
G01 X50.9440 Y4.7839
G01 X50.9357 Y4.7814
G01 X50.9270 Y4.7805
G01 X50.9183 Y4.7814
G01 X50.9100 Y4.7839
G01 X50.9023 Y4.7880
G01 X50.8955 Y4.7935
G01 X50.8900 Y4.8003
G01 X50.8859 Y4.8080
G01 X50.8834 Y4.8163
G01 X50.8825 Y4.8250
G01 X50.8834 Y4.8337
G01 X50.8859 Y4.8420
G01 X50.8900 Y4.8497
G01 X50.8955 Y4.8565
G01 X50.9023 Y4.8620
G01 X50.9100 Y4.8661
G01 X50.9183 Y4.8686
G01 X50.9270 Y4.8695
G01 X50.9357 Y4.8686
G01 X50.9440 Y4.8661
G01 X50.9517 Y4.8620
G01 X50.9585 Y4.8565
G01 X50.9640 Y4.8497
G01 X50.9681 Y4.8420
G01 X50.9706 Y4.8337
G01 X50.9715 Y4.8250
G00 Z2.0000
G00 X48.4315 Y4.8250
G01 F60.00
G01 Z-2.0000
G01 F120.00
G01 X48.4306 Y4.8163
G01 X48.4281 Y4.8080
G01 X48.4240 Y4.8003
G01 X48.4185 Y4.7935
G01 X48.4117 Y4.7880
G01 X48.4040 Y4.7839
G01 X48.3957 Y4.7814
G01 X48.3870 Y4.7805
G01 X48.3783 Y4.7814
G01 X48.3700 Y4.7839
G01 X48.3623 Y4.7880
G01 X48.3555 Y4.7935
G01 X48.3500 Y4.8003
G01 X48.3459 Y4.8080
G01 X48.3434 Y4.8163
G01 X48.3425 Y4.8250
G01 X48.3434 Y4.8337
G01 X48.3459 Y4.8420
G01 X48.3500 Y4.8497
G01 X48.3555 Y4.8565
G01 X48.3623 Y4.8620
G01 X48.3700 Y4.8661
G01 X48.3783 Y4.8686
G01 X48.3870 Y4.8695
G01 X48.3957 Y4.8686
G01 X48.4040 Y4.8661
G01 X48.4117 Y4.8620
G01 X48.4185 Y4.8565
G01 X48.4240 Y4.8497
G01 X48.4281 Y4.8420
G01 X48.4306 Y4.8337
G01 X48.4315 Y4.8250
G00 Z2.0000
G00 X45.8915 Y4.8250
G01 F60.00
G01 Z-2.0000
G01 F120.00
G01 X45.8906 Y4.8163
G01 X45.8881 Y4.8080
G01 X45.8840 Y4.8003
G01 X45.8785 Y4.7935
G01 X45.8717 Y4.7880
G01 X45.8640 Y4.7839
G01 X45.8557 Y4.7814
G01 X45.8470 Y4.7805
G01 X45.8383 Y4.7814
G01 X45.8300 Y4.7839
G01 X45.8223 Y4.7880
G01 X45.8155 Y4.7935
G01 X45.8100 Y4.8003
G01 X45.8059 Y4.8080
G01 X45.8034 Y4.8163
G01 X45.8025 Y4.8250
G01 X45.8034 Y4.8337
G01 X45.8059 Y4.8420
G01 X45.8100 Y4.8497
G01 X45.8155 Y4.8565
G01 X45.8223 Y4.8620
G01 X45.8300 Y4.8661
G01 X45.8383 Y4.8686
G01 X45.8470 Y4.8695
G01 X45.8557 Y4.8686
G01 X45.8640 Y4.8661
G01 X45.8717 Y4.8620
G01 X45.8785 Y4.8565
G01 X45.8840 Y4.8497
G01 X45.8881 Y4.8420
G01 X45.8906 Y4.8337
G01 X45.8915 Y4.8250
G00 Z2.0000
G00 X43.3515 Y4.8250
G01 F60.00
G01 Z-2.0000
G01 F120.00
G01 X43.3506 Y4.8163
G01 X43.3481 Y4.8080
G01 X43.3440 Y4.8003
G01 X43.3385 Y4.7935
G01 X43.3317 Y4.7880
G01 X43.3240 Y4.7839
G01 X43.3157 Y4.7814
G01 X43.3070 Y4.7805
G01 X43.2983 Y4.7814
G01 X43.2900 Y4.7839
G01 X43.2823 Y4.7880
G01 X43.2755 Y4.7935
G01 X43.2700 Y4.8003
G01 X43.2659 Y4.8080
G01 X43.2634 Y4.8163
G01 X43.2625 Y4.8250
G01 X43.2634 Y4.8337
G01 X43.2659 Y4.8420
G01 X43.2700 Y4.8497
G01 X43.2755 Y4.8565
G01 X43.2823 Y4.8620
G01 X43.2900 Y4.8661
G01 X43.2983 Y4.8686
G01 X43.3070 Y4.8695
G01 X43.3157 Y4.8686
G01 X43.3240 Y4.8661
G01 X43.3317 Y4.8620
G01 X43.3385 Y4.8565
G01 X43.3440 Y4.8497
G01 X43.3481 Y4.8420
G01 X43.3506 Y4.8337
G01 X43.3515 Y4.8250
G00 Z2.0000
G00 X40.8115 Y4.8250
G01 F60.00
G01 Z-2.0000
G01 F120.00
G01 X40.8106 Y4.8163
G01 X40.8081 Y4.8080
G01 X40.8040 Y4.8003
G01 X40.7985 Y4.7935
G01 X40.7917 Y4.7880
G01 X40.7840 Y4.7839
G01 X40.7757 Y4.7814
G01 X40.7670 Y4.7805
G01 X40.7583 Y4.7814
G01 X40.7500 Y4.7839
G01 X40.7423 Y4.7880
G01 X40.7355 Y4.7935
G01 X40.7300 Y4.8003
G01 X40.7259 Y4.8080
G01 X40.7234 Y4.8163
G01 X40.7225 Y4.8250
G01 X40.7234 Y4.8337
G01 X40.7259 Y4.8420
G01 X40.7300 Y4.8497
G01 X40.7355 Y4.8565
G01 X40.7423 Y4.8620
G01 X40.7500 Y4.8661
G01 X40.7583 Y4.8686
G01 X40.7670 Y4.8695
G01 X40.7757 Y4.8686
G01 X40.7840 Y4.8661
G01 X40.7917 Y4.8620
G01 X40.7985 Y4.8565
G01 X40.8040 Y4.8497
G01 X40.8081 Y4.8420
G01 X40.8106 Y4.8337
G01 X40.8115 Y4.8250
G00 Z2.0000
G00 X38.2715 Y4.8250
G01 F60.00
G01 Z-2.0000
G01 F120.00
G01 X38.2706 Y4.8163
G01 X38.2681 Y4.8080
G01 X38.2640 Y4.8003
G01 X38.2585 Y4.7935
G01 X38.2517 Y4.7880
G01 X38.2440 Y4.7839
G01 X38.2357 Y4.7814
G01 X38.2270 Y4.7805
G01 X38.2183 Y4.7814
G01 X38.2100 Y4.7839
G01 X38.2023 Y4.7880
G01 X38.1955 Y4.7935
G01 X38.1900 Y4.8003
G01 X38.1859 Y4.8080
G01 X38.1834 Y4.8163
G01 X38.1825 Y4.8250
G01 X38.1834 Y4.8337
G01 X38.1859 Y4.8420
G01 X38.1900 Y4.8497
G01 X38.1955 Y4.8565
G01 X38.2023 Y4.8620
G01 X38.2100 Y4.8661
G01 X38.2183 Y4.8686
G01 X38.2270 Y4.8695
G01 X38.2357 Y4.8686
G01 X38.2440 Y4.8661
G01 X38.2517 Y4.8620
G01 X38.2585 Y4.8565
G01 X38.2640 Y4.8497
G01 X38.2681 Y4.8420
G01 X38.2706 Y4.8337
G01 X38.2715 Y4.8250
G00 Z2.0000
G00 X38.6655 Y33.7810
G01 F60.00
G01 Z-2.0000
G01 F120.00
G01 X38.6652 Y33.7754
G01 X38.6644 Y33.7698
G01 X38.6630 Y33.7643
G01 X38.6611 Y33.7590
G01 X38.6587 Y33.7539
G01 X38.6558 Y33.7491
G01 X38.6524 Y33.7445
G01 X38.6487 Y33.7403
G01 X38.6445 Y33.7366
G01 X38.6399 Y33.7332
G01 X38.6351 Y33.7303
G01 X38.6300 Y33.7279
G01 X38.6247 Y33.7260
G01 X38.6192 Y33.7246
G01 X38.6136 Y33.7238
G01 X38.6080 Y33.7235
G01 X38.6024 Y33.7238
G01 X38.5968 Y33.7246
G01 X38.5913 Y33.7260
G01 X38.5860 Y33.7279
G01 X38.5809 Y33.7303
G01 X38.5761 Y33.7332
G01 X38.5715 Y33.7366
G01 X38.5673 Y33.7403
G01 X38.5636 Y33.7445
G01 X38.5602 Y33.7491
G01 X38.5573 Y33.7539
G01 X38.5549 Y33.7590
G01 X38.5530 Y33.7643
G01 X38.5516 Y33.7698
G01 X38.5508 Y33.7754
G01 X38.5505 Y33.7810
G01 X38.5508 Y33.7866
G01 X38.5516 Y33.7922
G01 X38.5530 Y33.7977
G01 X38.5549 Y33.8030
G01 X38.5573 Y33.8081
G01 X38.5602 Y33.8129
G01 X38.5636 Y33.8175
G01 X38.5673 Y33.8217
G01 X38.5715 Y33.8254
G01 X38.5761 Y33.8288
G01 X38.5809 Y33.8317
G01 X38.5860 Y33.8341
G01 X38.5913 Y33.8360
G01 X38.5968 Y33.8374
G01 X38.6024 Y33.8382
G01 X38.6080 Y33.8385
G01 X38.6136 Y33.8382
G01 X38.6192 Y33.8374
G01 X38.6247 Y33.8360
G01 X38.6300 Y33.8341
G01 X38.6351 Y33.8317
G01 X38.6399 Y33.8288
G01 X38.6445 Y33.8254
G01 X38.6487 Y33.8217
G01 X38.6524 Y33.8175
G01 X38.6558 Y33.8129
G01 X38.6587 Y33.8081
G01 X38.6611 Y33.8030
G01 X38.6630 Y33.7977
G01 X38.6644 Y33.7922
G01 X38.6652 Y33.7866
G01 X38.6655 Y33.7810
G00 Z2.0000
G00 X36.1255 Y33.7810
G01 F60.00
G01 Z-2.0000
G01 F120.00
G01 X36.1252 Y33.7754
G01 X36.1244 Y33.7698
G01 X36.1230 Y33.7643
G01 X36.1211 Y33.7590
G01 X36.1187 Y33.7539
G01 X36.1158 Y33.7491
G01 X36.1124 Y33.7445
G01 X36.1087 Y33.7403
G01 X36.1045 Y33.7366
G01 X36.0999 Y33.7332
G01 X36.0951 Y33.7303
G01 X36.0900 Y33.7279
G01 X36.0847 Y33.7260
G01 X36.0792 Y33.7246
G01 X36.0736 Y33.7238
G01 X36.0680 Y33.7235
G01 X36.0624 Y33.7238
G01 X36.0568 Y33.7246
G01 X36.0513 Y33.7260
G01 X36.0460 Y33.7279
G01 X36.0409 Y33.7303
G01 X36.0361 Y33.7332
G01 X36.0315 Y33.7366
G01 X36.0273 Y33.7403
G01 X36.0236 Y33.7445
G01 X36.0202 Y33.7491
G01 X36.0173 Y33.7539
G01 X36.0149 Y33.7590
G01 X36.0130 Y33.7643
G01 X36.0116 Y33.7698
G01 X36.0108 Y33.7754
G01 X36.0105 Y33.7810
G01 X36.0108 Y33.7866
G01 X36.0116 Y33.7922
G01 X36.0130 Y33.7977
G01 X36.0149 Y33.8030
G01 X36.0173 Y33.8081
G01 X36.0202 Y33.8129
G01 X36.0236 Y33.8175
G01 X36.0273 Y33.8217
G01 X36.0315 Y33.8254
G01 X36.0361 Y33.8288
G01 X36.0409 Y33.8317
G01 X36.0460 Y33.8341
G01 X36.0513 Y33.8360
G01 X36.0568 Y33.8374
G01 X36.0624 Y33.8382
G01 X36.0680 Y33.8385
G01 X36.0736 Y33.8382
G01 X36.0792 Y33.8374
G01 X36.0847 Y33.8360
G01 X36.0900 Y33.8341
G01 X36.0951 Y33.8317
G01 X36.0999 Y33.8288
G01 X36.1045 Y33.8254
G01 X36.1087 Y33.8217
G01 X36.1124 Y33.8175
G01 X36.1158 Y33.8129
G01 X36.1187 Y33.8081
G01 X36.1211 Y33.8030
G01 X36.1230 Y33.7977
G01 X36.1244 Y33.7922
G01 X36.1252 Y33.7866
G01 X36.1255 Y33.7810
G00 Z2.0000
G00 X41.2055 Y33.7810
G01 F60.00
G01 Z-2.0000
G01 F120.00
G01 X41.2052 Y33.7754
G01 X41.2044 Y33.7698
G01 X41.2030 Y33.7643
G01 X41.2011 Y33.7590
G01 X41.1987 Y33.7539
G01 X41.1958 Y33.7491
G01 X41.1924 Y33.7445
G01 X41.1887 Y33.7403
G01 X41.1845 Y33.7366
G01 X41.1799 Y33.7332
G01 X41.1751 Y33.7303
G01 X41.1700 Y33.7279
G01 X41.1647 Y33.7260
G01 X41.1592 Y33.7246
G01 X41.1536 Y33.7238
G01 X41.1480 Y33.7235
G01 X41.1424 Y33.7238
G01 X41.1368 Y33.7246
G01 X41.1313 Y33.7260
G01 X41.1260 Y33.7279
G01 X41.1209 Y33.7303
G01 X41.1161 Y33.7332
G01 X41.1115 Y33.7366
G01 X41.1073 Y33.7403
G01 X41.1036 Y33.7445
G01 X41.1002 Y33.7491
G01 X41.0973 Y33.7539
G01 X41.0949 Y33.7590
G01 X41.0930 Y33.7643
G01 X41.0916 Y33.7698
G01 X41.0908 Y33.7754
G01 X41.0905 Y33.7810
G01 X41.0908 Y33.7866
G01 X41.0916 Y33.7922
G01 X41.0930 Y33.7977
G01 X41.0949 Y33.8030
G01 X41.0973 Y33.8081
G01 X41.1002 Y33.8129
G01 X41.1036 Y33.8175
G01 X41.1073 Y33.8217
G01 X41.1115 Y33.8254
G01 X41.1161 Y33.8288
G01 X41.1209 Y33.8317
G01 X41.1260 Y33.8341
G01 X41.1313 Y33.8360
G01 X41.1368 Y33.8374
G01 X41.1424 Y33.8382
G01 X41.1480 Y33.8385
G01 X41.1536 Y33.8382
G01 X41.1592 Y33.8374
G01 X41.1647 Y33.8360
G01 X41.1700 Y33.8341
G01 X41.1751 Y33.8317
G01 X41.1799 Y33.8288
G01 X41.1845 Y33.8254
G01 X41.1887 Y33.8217
G01 X41.1924 Y33.8175
G01 X41.1958 Y33.8129
G01 X41.1987 Y33.8081
G01 X41.2011 Y33.8030
G01 X41.2030 Y33.7977
G01 X41.2044 Y33.7922
G01 X41.2052 Y33.7866
G01 X41.2055 Y33.7810
G00 Z2.0000
G00 X43.7455 Y33.7810
G01 F60.00
G01 Z-2.0000
G01 F120.00
G01 X43.7452 Y33.7754
G01 X43.7444 Y33.7698
G01 X43.7430 Y33.7643
G01 X43.7411 Y33.7590
G01 X43.7387 Y33.7539
G01 X43.7358 Y33.7491
G01 X43.7324 Y33.7445
G01 X43.7287 Y33.7403
G01 X43.7245 Y33.7366
G01 X43.7199 Y33.7332
G01 X43.7151 Y33.7303
G01 X43.7100 Y33.7279
G01 X43.7047 Y33.7260
G01 X43.6992 Y33.7246
G01 X43.6936 Y33.7238
G01 X43.6880 Y33.7235
G01 X43.6824 Y33.7238
G01 X43.6768 Y33.7246
G01 X43.6713 Y33.7260
G01 X43.6660 Y33.7279
G01 X43.6609 Y33.7303
G01 X43.6561 Y33.7332
G01 X43.6515 Y33.7366
G01 X43.6473 Y33.7403
G01 X43.6436 Y33.7445
G01 X43.6402 Y33.7491
G01 X43.6373 Y33.7539
G01 X43.6349 Y33.7590
G01 X43.6330 Y33.7643
G01 X43.6316 Y33.7698
G01 X43.6308 Y33.7754
G01 X43.6305 Y33.7810
G01 X43.6308 Y33.7866
G01 X43.6316 Y33.7922
G01 X43.6330 Y33.7977
G01 X43.6349 Y33.8030
G01 X43.6373 Y33.8081
G01 X43.6402 Y33.8129
G01 X43.6436 Y33.8175
G01 X43.6473 Y33.8217
G01 X43.6515 Y33.8254
G01 X43.6561 Y33.8288
G01 X43.6609 Y33.8317
G01 X43.6660 Y33.8341
G01 X43.6713 Y33.8360
G01 X43.6768 Y33.8374
G01 X43.6824 Y33.8382
G01 X43.6880 Y33.8385
G01 X43.6936 Y33.8382
G01 X43.6992 Y33.8374
G01 X43.7047 Y33.8360
G01 X43.7100 Y33.8341
G01 X43.7151 Y33.8317
G01 X43.7199 Y33.8288
G01 X43.7245 Y33.8254
G01 X43.7287 Y33.8217
G01 X43.7324 Y33.8175
G01 X43.7358 Y33.8129
G01 X43.7387 Y33.8081
G01 X43.7411 Y33.8030
G01 X43.7430 Y33.7977
G01 X43.7444 Y33.7922
G01 X43.7452 Y33.7866
G01 X43.7455 Y33.7810
G00 Z2.0000
G00 X46.2855 Y33.7810
G01 F60.00
G01 Z-2.0000
G01 F120.00
G01 X46.2852 Y33.7754
G01 X46.2844 Y33.7698
G01 X46.2830 Y33.7643
G01 X46.2811 Y33.7590
G01 X46.2787 Y33.7539
G01 X46.2758 Y33.7491
G01 X46.2724 Y33.7445
G01 X46.2687 Y33.7403
G01 X46.2645 Y33.7366
G01 X46.2599 Y33.7332
G01 X46.2551 Y33.7303
G01 X46.2500 Y33.7279
G01 X46.2447 Y33.7260
G01 X46.2392 Y33.7246
G01 X46.2336 Y33.7238
G01 X46.2280 Y33.7235
G01 X46.2224 Y33.7238
G01 X46.2168 Y33.7246
G01 X46.2113 Y33.7260
G01 X46.2060 Y33.7279
G01 X46.2009 Y33.7303
G01 X46.1961 Y33.7332
G01 X46.1915 Y33.7366
G01 X46.1873 Y33.7403
G01 X46.1836 Y33.7445
G01 X46.1802 Y33.7491
G01 X46.1773 Y33.7539
G01 X46.1749 Y33.7590
G01 X46.1730 Y33.7643
G01 X46.1716 Y33.7698
G01 X46.1708 Y33.7754
G01 X46.1705 Y33.7810
G01 X46.1708 Y33.7866
G01 X46.1716 Y33.7922
G01 X46.1730 Y33.7977
G01 X46.1749 Y33.8030
G01 X46.1773 Y33.8081
G01 X46.1802 Y33.8129
G01 X46.1836 Y33.8175
G01 X46.1873 Y33.8217
G01 X46.1915 Y33.8254
G01 X46.1961 Y33.8288
G01 X46.2009 Y33.8317
G01 X46.2060 Y33.8341
G01 X46.2113 Y33.8360
G01 X46.2168 Y33.8374
G01 X46.2224 Y33.8382
G01 X46.2280 Y33.8385
G01 X46.2336 Y33.8382
G01 X46.2392 Y33.8374
G01 X46.2447 Y33.8360
G01 X46.2500 Y33.8341
G01 X46.2551 Y33.8317
G01 X46.2599 Y33.8288
G01 X46.2645 Y33.8254
G01 X46.2687 Y33.8217
G01 X46.2724 Y33.8175
G01 X46.2758 Y33.8129
G01 X46.2787 Y33.8081
G01 X46.2811 Y33.8030
G01 X46.2830 Y33.7977
G01 X46.2844 Y33.7922
G01 X46.2852 Y33.7866
G01 X46.2855 Y33.7810
G00 Z2.0000
G00 X48.8255 Y33.7810
G01 F60.00
G01 Z-2.0000
G01 F120.00
G01 X48.8252 Y33.7754
G01 X48.8244 Y33.7698
G01 X48.8230 Y33.7643
G01 X48.8211 Y33.7590
G01 X48.8187 Y33.7539
G01 X48.8158 Y33.7491
G01 X48.8124 Y33.7445
G01 X48.8087 Y33.7403
G01 X48.8045 Y33.7366
G01 X48.7999 Y33.7332
G01 X48.7951 Y33.7303
G01 X48.7900 Y33.7279
G01 X48.7847 Y33.7260
G01 X48.7792 Y33.7246
G01 X48.7736 Y33.7238
G01 X48.7680 Y33.7235
G01 X48.7624 Y33.7238
G01 X48.7568 Y33.7246
G01 X48.7513 Y33.7260
G01 X48.7460 Y33.7279
G01 X48.7409 Y33.7303
G01 X48.7361 Y33.7332
G01 X48.7315 Y33.7366
G01 X48.7273 Y33.7403
G01 X48.7236 Y33.7445
G01 X48.7202 Y33.7491
G01 X48.7173 Y33.7539
G01 X48.7149 Y33.7590
G01 X48.7130 Y33.7643
G01 X48.7116 Y33.7698
G01 X48.7108 Y33.7754
G01 X48.7105 Y33.7810
G01 X48.7108 Y33.7866
G01 X48.7116 Y33.7922
G01 X48.7130 Y33.7977
G01 X48.7149 Y33.8030
G01 X48.7173 Y33.8081
G01 X48.7202 Y33.8129
G01 X48.7236 Y33.8175
G01 X48.7273 Y33.8217
G01 X48.7315 Y33.8254
G01 X48.7361 Y33.8288
G01 X48.7409 Y33.8317
G01 X48.7460 Y33.8341
G01 X48.7513 Y33.8360
G01 X48.7568 Y33.8374
G01 X48.7624 Y33.8382
G01 X48.7680 Y33.8385
G01 X48.7736 Y33.8382
G01 X48.7792 Y33.8374
G01 X48.7847 Y33.8360
G01 X48.7900 Y33.8341
G01 X48.7951 Y33.8317
G01 X48.7999 Y33.8288
G01 X48.8045 Y33.8254
G01 X48.8087 Y33.8217
G01 X48.8124 Y33.8175
G01 X48.8158 Y33.8129
G01 X48.8187 Y33.8081
G01 X48.8211 Y33.8030
G01 X48.8230 Y33.7977
G01 X48.8244 Y33.7922
G01 X48.8252 Y33.7866
G01 X48.8255 Y33.7810
G00 Z2.0000
G00 X51.3655 Y33.7810
G01 F60.00
G01 Z-2.0000
G01 F120.00
G01 X51.3652 Y33.7754
G01 X51.3644 Y33.7698
G01 X51.3630 Y33.7643
G01 X51.3611 Y33.7590
G01 X51.3587 Y33.7539
G01 X51.3558 Y33.7491
G01 X51.3524 Y33.7445
G01 X51.3487 Y33.7403
G01 X51.3445 Y33.7366
G01 X51.3399 Y33.7332
G01 X51.3351 Y33.7303
G01 X51.3300 Y33.7279
G01 X51.3247 Y33.7260
G01 X51.3192 Y33.7246
G01 X51.3136 Y33.7238
G01 X51.3080 Y33.7235
G01 X51.3024 Y33.7238
G01 X51.2968 Y33.7246
G01 X51.2913 Y33.7260
G01 X51.2860 Y33.7279
G01 X51.2809 Y33.7303
G01 X51.2761 Y33.7332
G01 X51.2715 Y33.7366
G01 X51.2673 Y33.7403
G01 X51.2636 Y33.7445
G01 X51.2602 Y33.7491
G01 X51.2573 Y33.7539
G01 X51.2549 Y33.7590
G01 X51.2530 Y33.7643
G01 X51.2516 Y33.7698
G01 X51.2508 Y33.7754
G01 X51.2505 Y33.7810
G01 X51.2508 Y33.7866
G01 X51.2516 Y33.7922
G01 X51.2530 Y33.7977
G01 X51.2549 Y33.8030
G01 X51.2573 Y33.8081
G01 X51.2602 Y33.8129
G01 X51.2636 Y33.8175
G01 X51.2673 Y33.8217
G01 X51.2715 Y33.8254
G01 X51.2761 Y33.8288
G01 X51.2809 Y33.8317
G01 X51.2860 Y33.8341
G01 X51.2913 Y33.8360
G01 X51.2968 Y33.8374
G01 X51.3024 Y33.8382
G01 X51.3080 Y33.8385
G01 X51.3136 Y33.8382
G01 X51.3192 Y33.8374
G01 X51.3247 Y33.8360
G01 X51.3300 Y33.8341
G01 X51.3351 Y33.8317
G01 X51.3399 Y33.8288
G01 X51.3445 Y33.8254
G01 X51.3487 Y33.8217
G01 X51.3524 Y33.8175
G01 X51.3558 Y33.8129
G01 X51.3587 Y33.8081
G01 X51.3611 Y33.8030
G01 X51.3630 Y33.7977
G01 X51.3644 Y33.7922
G01 X51.3652 Y33.7866
G01 X51.3655 Y33.7810
G00 Z2.0000
G00 X53.9055 Y33.7810
G01 F60.00
G01 Z-2.0000
G01 F120.00
G01 X53.9052 Y33.7754
G01 X53.9044 Y33.7698
G01 X53.9030 Y33.7643
G01 X53.9011 Y33.7590
G01 X53.8987 Y33.7539
G01 X53.8958 Y33.7491
G01 X53.8924 Y33.7445
G01 X53.8887 Y33.7403
G01 X53.8845 Y33.7366
G01 X53.8799 Y33.7332
G01 X53.8751 Y33.7303
G01 X53.8700 Y33.7279
G01 X53.8647 Y33.7260
G01 X53.8592 Y33.7246
G01 X53.8536 Y33.7238
G01 X53.8480 Y33.7235
G01 X53.8424 Y33.7238
G01 X53.8368 Y33.7246
G01 X53.8313 Y33.7260
G01 X53.8260 Y33.7279
G01 X53.8209 Y33.7303
G01 X53.8161 Y33.7332
G01 X53.8115 Y33.7366
G01 X53.8073 Y33.7403
G01 X53.8036 Y33.7445
G01 X53.8002 Y33.7491
G01 X53.7973 Y33.7539
G01 X53.7949 Y33.7590
G01 X53.7930 Y33.7643
G01 X53.7916 Y33.7698
G01 X53.7908 Y33.7754
G01 X53.7905 Y33.7810
G01 X53.7908 Y33.7866
G01 X53.7916 Y33.7922
G01 X53.7930 Y33.7977
G01 X53.7949 Y33.8030
G01 X53.7973 Y33.8081
G01 X53.8002 Y33.8129
G01 X53.8036 Y33.8175
G01 X53.8073 Y33.8217
G01 X53.8115 Y33.8254
G01 X53.8161 Y33.8288
G01 X53.8209 Y33.8317
G01 X53.8260 Y33.8341
G01 X53.8313 Y33.8360
G01 X53.8368 Y33.8374
G01 X53.8424 Y33.8382
G01 X53.8480 Y33.8385
G01 X53.8536 Y33.8382
G01 X53.8592 Y33.8374
G01 X53.8647 Y33.8360
G01 X53.8700 Y33.8341
G01 X53.8751 Y33.8317
G01 X53.8799 Y33.8288
G01 X53.8845 Y33.8254
G01 X53.8887 Y33.8217
G01 X53.8924 Y33.8175
G01 X53.8958 Y33.8129
G01 X53.8987 Y33.8081
G01 X53.9011 Y33.8030
G01 X53.9030 Y33.7977
G01 X53.9044 Y33.7922
G01 X53.9052 Y33.7866
G01 X53.9055 Y33.7810
G00 Z2.0000
G00 X56.4455 Y33.7810
G01 F60.00
G01 Z-2.0000
G01 F120.00
G01 X56.4452 Y33.7754
G01 X56.4444 Y33.7698
G01 X56.4430 Y33.7643
G01 X56.4411 Y33.7590
G01 X56.4387 Y33.7539
G01 X56.4358 Y33.7491
G01 X56.4324 Y33.7445
G01 X56.4287 Y33.7403
G01 X56.4245 Y33.7366
G01 X56.4199 Y33.7332
G01 X56.4151 Y33.7303
G01 X56.4100 Y33.7279
G01 X56.4047 Y33.7260
G01 X56.3992 Y33.7246
G01 X56.3936 Y33.7238
G01 X56.3880 Y33.7235
G01 X56.3824 Y33.7238
G01 X56.3768 Y33.7246
G01 X56.3713 Y33.7260
G01 X56.3660 Y33.7279
G01 X56.3609 Y33.7303
G01 X56.3561 Y33.7332
G01 X56.3515 Y33.7366
G01 X56.3473 Y33.7403
G01 X56.3436 Y33.7445
G01 X56.3402 Y33.7491
G01 X56.3373 Y33.7539
G01 X56.3349 Y33.7590
G01 X56.3330 Y33.7643
G01 X56.3316 Y33.7698
G01 X56.3308 Y33.7754
G01 X56.3305 Y33.7810
G01 X56.3308 Y33.7866
G01 X56.3316 Y33.7922
G01 X56.3330 Y33.7977
G01 X56.3349 Y33.8030
G01 X56.3373 Y33.8081
G01 X56.3402 Y33.8129
G01 X56.3436 Y33.8175
G01 X56.3473 Y33.8217
G01 X56.3515 Y33.8254
G01 X56.3561 Y33.8288
G01 X56.3609 Y33.8317
G01 X56.3660 Y33.8341
G01 X56.3713 Y33.8360
G01 X56.3768 Y33.8374
G01 X56.3824 Y33.8382
G01 X56.3880 Y33.8385
G01 X56.3936 Y33.8382
G01 X56.3992 Y33.8374
G01 X56.4047 Y33.8360
G01 X56.4100 Y33.8341
G01 X56.4151 Y33.8317
G01 X56.4199 Y33.8288
G01 X56.4245 Y33.8254
G01 X56.4287 Y33.8217
G01 X56.4324 Y33.8175
G01 X56.4358 Y33.8129
G01 X56.4387 Y33.8081
G01 X56.4411 Y33.8030
G01 X56.4430 Y33.7977
G01 X56.4444 Y33.7922
G01 X56.4452 Y33.7866
G01 X56.4455 Y33.7810
G00 Z2.0000
G00 X58.9855 Y33.7810
G01 F60.00
G01 Z-2.0000
G01 F120.00
G01 X58.9852 Y33.7754
G01 X58.9844 Y33.7698
G01 X58.9830 Y33.7643
G01 X58.9811 Y33.7590
G01 X58.9787 Y33.7539
G01 X58.9758 Y33.7491
G01 X58.9724 Y33.7445
G01 X58.9687 Y33.7403
G01 X58.9645 Y33.7366
G01 X58.9599 Y33.7332
G01 X58.9551 Y33.7303
G01 X58.9500 Y33.7279
G01 X58.9447 Y33.7260
G01 X58.9392 Y33.7246
G01 X58.9336 Y33.7238
G01 X58.9280 Y33.7235
G01 X58.9224 Y33.7238
G01 X58.9168 Y33.7246
G01 X58.9113 Y33.7260
G01 X58.9060 Y33.7279
G01 X58.9009 Y33.7303
G01 X58.8961 Y33.7332
G01 X58.8915 Y33.7366
G01 X58.8873 Y33.7403
G01 X58.8836 Y33.7445
G01 X58.8802 Y33.7491
G01 X58.8773 Y33.7539
G01 X58.8749 Y33.7590
G01 X58.8730 Y33.7643
G01 X58.8716 Y33.7698
G01 X58.8708 Y33.7754
G01 X58.8705 Y33.7810
G01 X58.8708 Y33.7866
G01 X58.8716 Y33.7922
G01 X58.8730 Y33.7977
G01 X58.8749 Y33.8030
G01 X58.8773 Y33.8081
G01 X58.8802 Y33.8129
G01 X58.8836 Y33.8175
G01 X58.8873 Y33.8217
G01 X58.8915 Y33.8254
G01 X58.8961 Y33.8288
G01 X58.9009 Y33.8317
G01 X58.9060 Y33.8341
G01 X58.9113 Y33.8360
G01 X58.9168 Y33.8374
G01 X58.9224 Y33.8382
G01 X58.9280 Y33.8385
G01 X58.9336 Y33.8382
G01 X58.9392 Y33.8374
G01 X58.9447 Y33.8360
G01 X58.9500 Y33.8341
G01 X58.9551 Y33.8317
G01 X58.9599 Y33.8288
G01 X58.9645 Y33.8254
G01 X58.9687 Y33.8217
G01 X58.9724 Y33.8175
G01 X58.9758 Y33.8129
G01 X58.9787 Y33.8081
G01 X58.9811 Y33.8030
G01 X58.9830 Y33.7977
G01 X58.9844 Y33.7922
G01 X58.9852 Y33.7866
G01 X58.9855 Y33.7810
G00 Z2.0000
G00 X61.5255 Y33.7810
G01 F60.00
G01 Z-2.0000
G01 F120.00
G01 X61.5252 Y33.7754
G01 X61.5244 Y33.7698
G01 X61.5230 Y33.7643
G01 X61.5211 Y33.7590
G01 X61.5187 Y33.7539
G01 X61.5158 Y33.7491
G01 X61.5124 Y33.7445
G01 X61.5087 Y33.7403
G01 X61.5045 Y33.7366
G01 X61.4999 Y33.7332
G01 X61.4951 Y33.7303
G01 X61.4900 Y33.7279
G01 X61.4847 Y33.7260
G01 X61.4792 Y33.7246
G01 X61.4736 Y33.7238
G01 X61.4680 Y33.7235
G01 X61.4624 Y33.7238
G01 X61.4568 Y33.7246
G01 X61.4513 Y33.7260
G01 X61.4460 Y33.7279
G01 X61.4409 Y33.7303
G01 X61.4361 Y33.7332
G01 X61.4315 Y33.7366
G01 X61.4273 Y33.7403
G01 X61.4236 Y33.7445
G01 X61.4202 Y33.7491
G01 X61.4173 Y33.7539
G01 X61.4149 Y33.7590
G01 X61.4130 Y33.7643
G01 X61.4116 Y33.7698
G01 X61.4108 Y33.7754
G01 X61.4105 Y33.7810
G01 X61.4108 Y33.7866
G01 X61.4116 Y33.7922
G01 X61.4130 Y33.7977
G01 X61.4149 Y33.8030
G01 X61.4173 Y33.8081
G01 X61.4202 Y33.8129
G01 X61.4236 Y33.8175
G01 X61.4273 Y33.8217
G01 X61.4315 Y33.8254
G01 X61.4361 Y33.8288
G01 X61.4409 Y33.8317
G01 X61.4460 Y33.8341
G01 X61.4513 Y33.8360
G01 X61.4568 Y33.8374
G01 X61.4624 Y33.8382
G01 X61.4680 Y33.8385
G01 X61.4736 Y33.8382
G01 X61.4792 Y33.8374
G01 X61.4847 Y33.8360
G01 X61.4900 Y33.8341
G01 X61.4951 Y33.8317
G01 X61.4999 Y33.8288
G01 X61.5045 Y33.8254
G01 X61.5087 Y33.8217
G01 X61.5124 Y33.8175
G01 X61.5158 Y33.8129
G01 X61.5187 Y33.8081
G01 X61.5211 Y33.8030
G01 X61.5230 Y33.7977
G01 X61.5244 Y33.7922
G01 X61.5252 Y33.7866
G01 X61.5255 Y33.7810
G00 Z2.0000
G00 X64.0655 Y33.7810
G01 F60.00
G01 Z-2.0000
G01 F120.00
G01 X64.0652 Y33.7754
G01 X64.0644 Y33.7698
G01 X64.0630 Y33.7643
G01 X64.0611 Y33.7590
G01 X64.0587 Y33.7539
G01 X64.0558 Y33.7491
G01 X64.0524 Y33.7445
G01 X64.0487 Y33.7403
G01 X64.0445 Y33.7366
G01 X64.0399 Y33.7332
G01 X64.0351 Y33.7303
G01 X64.0300 Y33.7279
G01 X64.0247 Y33.7260
G01 X64.0192 Y33.7246
G01 X64.0136 Y33.7238
G01 X64.0080 Y33.7235
G01 X64.0024 Y33.7238
G01 X63.9968 Y33.7246
G01 X63.9913 Y33.7260
G01 X63.9860 Y33.7279
G01 X63.9809 Y33.7303
G01 X63.9761 Y33.7332
G01 X63.9715 Y33.7366
G01 X63.9673 Y33.7403
G01 X63.9636 Y33.7445
G01 X63.9602 Y33.7491
G01 X63.9573 Y33.7539
G01 X63.9549 Y33.7590
G01 X63.9530 Y33.7643
G01 X63.9516 Y33.7698
G01 X63.9508 Y33.7754
G01 X63.9505 Y33.7810
G01 X63.9508 Y33.7866
G01 X63.9516 Y33.7922
G01 X63.9530 Y33.7977
G01 X63.9549 Y33.8030
G01 X63.9573 Y33.8081
G01 X63.9602 Y33.8129
G01 X63.9636 Y33.8175
G01 X63.9673 Y33.8217
G01 X63.9715 Y33.8254
G01 X63.9761 Y33.8288
G01 X63.9809 Y33.8317
G01 X63.9860 Y33.8341
G01 X63.9913 Y33.8360
G01 X63.9968 Y33.8374
G01 X64.0024 Y33.8382
G01 X64.0080 Y33.8385
G01 X64.0136 Y33.8382
G01 X64.0192 Y33.8374
G01 X64.0247 Y33.8360
G01 X64.0300 Y33.8341
G01 X64.0351 Y33.8317
G01 X64.0399 Y33.8288
G01 X64.0445 Y33.8254
G01 X64.0487 Y33.8217
G01 X64.0524 Y33.8175
G01 X64.0558 Y33.8129
G01 X64.0587 Y33.8081
G01 X64.0611 Y33.8030
G01 X64.0630 Y33.7977
G01 X64.0644 Y33.7922
G01 X64.0652 Y33.7866
G01 X64.0655 Y33.7810
G00 Z2.0000
G00 X66.6055 Y33.7810
G01 F60.00
G01 Z-2.0000
G01 F120.00
G01 X66.6052 Y33.7754
G01 X66.6044 Y33.7698
G01 X66.6030 Y33.7643
G01 X66.6011 Y33.7590
G01 X66.5987 Y33.7539
G01 X66.5958 Y33.7491
G01 X66.5924 Y33.7445
G01 X66.5887 Y33.7403
G01 X66.5845 Y33.7366
G01 X66.5799 Y33.7332
G01 X66.5751 Y33.7303
G01 X66.5700 Y33.7279
G01 X66.5647 Y33.7260
G01 X66.5592 Y33.7246
G01 X66.5536 Y33.7238
G01 X66.5480 Y33.7235
G01 X66.5424 Y33.7238
G01 X66.5368 Y33.7246
G01 X66.5313 Y33.7260
G01 X66.5260 Y33.7279
G01 X66.5209 Y33.7303
G01 X66.5161 Y33.7332
G01 X66.5115 Y33.7366
G01 X66.5073 Y33.7403
G01 X66.5036 Y33.7445
G01 X66.5002 Y33.7491
G01 X66.4973 Y33.7539
G01 X66.4949 Y33.7590
G01 X66.4930 Y33.7643
G01 X66.4916 Y33.7698
G01 X66.4908 Y33.7754
G01 X66.4905 Y33.7810
G01 X66.4908 Y33.7866
G01 X66.4916 Y33.7922
G01 X66.4930 Y33.7977
G01 X66.4949 Y33.8030
G01 X66.4973 Y33.8081
G01 X66.5002 Y33.8129
G01 X66.5036 Y33.8175
G01 X66.5073 Y33.8217
G01 X66.5115 Y33.8254
G01 X66.5161 Y33.8288
G01 X66.5209 Y33.8317
G01 X66.5260 Y33.8341
G01 X66.5313 Y33.8360
G01 X66.5368 Y33.8374
G01 X66.5424 Y33.8382
G01 X66.5480 Y33.8385
G01 X66.5536 Y33.8382
G01 X66.5592 Y33.8374
G01 X66.5647 Y33.8360
G01 X66.5700 Y33.8341
G01 X66.5751 Y33.8317
G01 X66.5799 Y33.8288
G01 X66.5845 Y33.8254
G01 X66.5887 Y33.8217
G01 X66.5924 Y33.8175
G01 X66.5958 Y33.8129
G01 X66.5987 Y33.8081
G01 X66.6011 Y33.8030
G01 X66.6030 Y33.7977
G01 X66.6044 Y33.7922
G01 X66.6052 Y33.7866
G01 X66.6055 Y33.7810
G00 Z2.0000
G00 X69.1455 Y33.7810
G01 F60.00
G01 Z-2.0000
G01 F120.00
G01 X69.1452 Y33.7754
G01 X69.1444 Y33.7698
G01 X69.1430 Y33.7643
G01 X69.1411 Y33.7590
G01 X69.1387 Y33.7539
G01 X69.1358 Y33.7491
G01 X69.1324 Y33.7445
G01 X69.1287 Y33.7403
G01 X69.1245 Y33.7366
G01 X69.1199 Y33.7332
G01 X69.1151 Y33.7303
G01 X69.1100 Y33.7279
G01 X69.1047 Y33.7260
G01 X69.0992 Y33.7246
G01 X69.0936 Y33.7238
G01 X69.0880 Y33.7235
G01 X69.0824 Y33.7238
G01 X69.0768 Y33.7246
G01 X69.0713 Y33.7260
G01 X69.0660 Y33.7279
G01 X69.0609 Y33.7303
G01 X69.0561 Y33.7332
G01 X69.0515 Y33.7366
G01 X69.0473 Y33.7403
G01 X69.0436 Y33.7445
G01 X69.0402 Y33.7491
G01 X69.0373 Y33.7539
G01 X69.0349 Y33.7590
G01 X69.0330 Y33.7643
G01 X69.0316 Y33.7698
G01 X69.0308 Y33.7754
G01 X69.0305 Y33.7810
G01 X69.0308 Y33.7866
G01 X69.0316 Y33.7922
G01 X69.0330 Y33.7977
G01 X69.0349 Y33.8030
G01 X69.0373 Y33.8081
G01 X69.0402 Y33.8129
G01 X69.0436 Y33.8175
G01 X69.0473 Y33.8217
G01 X69.0515 Y33.8254
G01 X69.0561 Y33.8288
G01 X69.0609 Y33.8317
G01 X69.0660 Y33.8341
G01 X69.0713 Y33.8360
G01 X69.0768 Y33.8374
G01 X69.0824 Y33.8382
G01 X69.0880 Y33.8385
G01 X69.0936 Y33.8382
G01 X69.0992 Y33.8374
G01 X69.1047 Y33.8360
G01 X69.1100 Y33.8341
G01 X69.1151 Y33.8317
G01 X69.1199 Y33.8288
G01 X69.1245 Y33.8254
G01 X69.1287 Y33.8217
G01 X69.1324 Y33.8175
G01 X69.1358 Y33.8129
G01 X69.1387 Y33.8081
G01 X69.1411 Y33.8030
G01 X69.1430 Y33.7977
G01 X69.1444 Y33.7922
G01 X69.1452 Y33.7866
G01 X69.1455 Y33.7810
G00 Z2.0000
G00 X71.6855 Y33.7810
G01 F60.00
G01 Z-2.0000
G01 F120.00
G01 X71.6852 Y33.7754
G01 X71.6844 Y33.7698
G01 X71.6830 Y33.7643
G01 X71.6811 Y33.7590
G01 X71.6787 Y33.7539
G01 X71.6758 Y33.7491
G01 X71.6724 Y33.7445
G01 X71.6687 Y33.7403
G01 X71.6645 Y33.7366
G01 X71.6599 Y33.7332
G01 X71.6551 Y33.7303
G01 X71.6500 Y33.7279
G01 X71.6447 Y33.7260
G01 X71.6392 Y33.7246
G01 X71.6336 Y33.7238
G01 X71.6280 Y33.7235
G01 X71.6224 Y33.7238
G01 X71.6168 Y33.7246
G01 X71.6113 Y33.7260
G01 X71.6060 Y33.7279
G01 X71.6009 Y33.7303
G01 X71.5961 Y33.7332
G01 X71.5915 Y33.7366
G01 X71.5873 Y33.7403
G01 X71.5836 Y33.7445
G01 X71.5802 Y33.7491
G01 X71.5773 Y33.7539
G01 X71.5749 Y33.7590
G01 X71.5730 Y33.7643
G01 X71.5716 Y33.7698
G01 X71.5708 Y33.7754
G01 X71.5705 Y33.7810
G01 X71.5708 Y33.7866
G01 X71.5716 Y33.7922
G01 X71.5730 Y33.7977
G01 X71.5749 Y33.8030
G01 X71.5773 Y33.8081
G01 X71.5802 Y33.8129
G01 X71.5836 Y33.8175
G01 X71.5873 Y33.8217
G01 X71.5915 Y33.8254
G01 X71.5961 Y33.8288
G01 X71.6009 Y33.8317
G01 X71.6060 Y33.8341
G01 X71.6113 Y33.8360
G01 X71.6168 Y33.8374
G01 X71.6224 Y33.8382
G01 X71.6280 Y33.8385
G01 X71.6336 Y33.8382
G01 X71.6392 Y33.8374
G01 X71.6447 Y33.8360
G01 X71.6500 Y33.8341
G01 X71.6551 Y33.8317
G01 X71.6599 Y33.8288
G01 X71.6645 Y33.8254
G01 X71.6687 Y33.8217
G01 X71.6724 Y33.8175
G01 X71.6758 Y33.8129
G01 X71.6787 Y33.8081
G01 X71.6811 Y33.8030
G01 X71.6830 Y33.7977
G01 X71.6844 Y33.7922
G01 X71.6852 Y33.7866
G01 X71.6855 Y33.7810
G00 Z2.0000
M05
G00 Z2.0000
G00 Z15.00


