(G-CODE GENERATED BY FLATCAM v8.994 - www.flatcam.org - Version Date: 2020/11/7)

(Name: Gerber_BottomSolderMaskLayer.GBS_iso_combined_cnc)
(Type: G-code from Geometry)
(Units: MM)

(Created on Sunday, 07 March 2021 at 22:00)

(This preprocessor is the default preprocessor used by FlatCAM.)
(It is made to work with MACH3 compatible motion controllers.)

(TOOL DIAMETER: 0.1 mm)
(Feedrate_XY: 120.0 mm/min)
(Feedrate_Z: 60.0 mm/min)
(Feedrate rapids 1500.0 mm/min)

(Z_Cut: -0.0 mm)
(Z_Move: 2.0 mm)
(Z Start: None mm)
(Z End: 15.0 mm)
(X,Y End: None mm)
(Steps per circle: 64)
(Preprocessor Geometry: default)

(X range:    4.7760 ...   81.6856  mm)
(Y range:   15.2160 ...   48.7006  mm)

(Spindle Speed: 0.0 RPM)
G21
G90
G94

G01 F120.00

M5
G00 Z15.0000
G00 X0.0000 Y0.0000
T1
M6    
(MSG, Change to Tool Dia = 0.1000)
M0
G00 Z15.0000

M03
G01 F120.00
G00 X13.7460 Y18.1139
G01 F60.00
G01 Z-0.0000
G01 F120.00
G01 X15.6789 Y16.3731
G01 X15.7656 Y16.3024
G01 X15.8598 Y16.2399
G01 X15.9597 Y16.1869
G01 X16.0654 Y16.1436
G01 X16.1726 Y16.1115
G01 X16.2835 Y16.0898
G01 X16.3961 Y16.0791
G01 X16.5092 Y16.0794
G01 X16.6216 Y16.0909
G01 X16.7325 Y16.1133
G01 X16.8406 Y16.1464
G01 X16.9449 Y16.1900
G01 X17.0444 Y16.2436
G01 X17.1382 Y16.3068
G01 X17.2254 Y16.3788
G01 X17.3051 Y16.4590
G01 X17.3766 Y16.5466
G01 X17.4391 Y16.6408
G01 X17.4921 Y16.7407
G01 X17.5354 Y16.8464
G01 X17.5680 Y16.9560
G01 X17.5892 Y17.0645
G01 X17.5998 Y17.1746
G01 X17.5996 Y17.2902
G01 X17.5881 Y17.4026
G01 X17.5651 Y17.5158
G01 X17.5326 Y17.6216
G01 X17.4900 Y17.7236
G01 X17.4354 Y17.8254
G01 X17.3707 Y17.9212
G01 X17.3002 Y18.0064
G01 X17.2200 Y18.0861
G01 X15.2871 Y19.8269
G01 X15.2004 Y19.8976
G01 X15.1062 Y19.9601
G01 X15.0063 Y20.0131
G01 X14.9006 Y20.0564
G01 X14.7934 Y20.0885
G01 X14.6825 Y20.1102
G01 X14.5699 Y20.1209
G01 X14.4593 Y20.1206
G01 X14.3419 Y20.1087
G01 X14.2335 Y20.0867
G01 X14.1254 Y20.0536
G01 X14.0211 Y20.0100
G01 X13.9216 Y19.9564
G01 X13.8278 Y19.8932
G01 X13.7424 Y19.8229
G01 X13.6593 Y19.7392
G01 X13.5894 Y19.6534
G01 X13.5269 Y19.5592
G01 X13.4739 Y19.4593
G01 X13.4310 Y19.3547
G01 X13.3985 Y19.2464
G01 X13.3772 Y19.1379
G01 X13.3660 Y19.0205
G01 X13.3664 Y18.9098
G01 X13.3779 Y18.7974
G01 X13.4003 Y18.6865
G01 X13.4334 Y18.5784
G01 X13.4770 Y18.4741
G01 X13.5294 Y18.3767
G01 X13.5953 Y18.2788
G01 X13.6658 Y18.1936
G01 X13.7460 Y18.1139
G00 Z2.0000
G00 X21.1031 Y15.5960
G01 F60.00
G01 Z-0.0000
G01 F120.00
G01 X22.8439 Y17.5289
G01 X22.9146 Y17.6156
G01 X22.9771 Y17.7098
G01 X23.0301 Y17.8097
G01 X23.0734 Y17.9154
G01 X23.1055 Y18.0226
G01 X23.1272 Y18.1335
G01 X23.1379 Y18.2461
G01 X23.1376 Y18.3592
G01 X23.1261 Y18.4716
G01 X23.1037 Y18.5825
G01 X23.0706 Y18.6906
G01 X23.0270 Y18.7949
G01 X22.9734 Y18.8944
G01 X22.9102 Y18.9882
G01 X22.8382 Y19.0754
G01 X22.7580 Y19.1551
G01 X22.6704 Y19.2266
G01 X22.5762 Y19.2891
G01 X22.4763 Y19.3421
G01 X22.3706 Y19.3854
G01 X22.2610 Y19.4180
G01 X22.1525 Y19.4392
G01 X22.0424 Y19.4498
G01 X21.9268 Y19.4496
G01 X21.8144 Y19.4381
G01 X21.7012 Y19.4151
G01 X21.5954 Y19.3826
G01 X21.4934 Y19.3400
G01 X21.3916 Y19.2854
G01 X21.2958 Y19.2207
G01 X21.2106 Y19.1502
G01 X21.1309 Y19.0700
G01 X19.3901 Y17.1371
G01 X19.3194 Y17.0504
G01 X19.2569 Y16.9562
G01 X19.2039 Y16.8563
G01 X19.1606 Y16.7506
G01 X19.1285 Y16.6434
G01 X19.1068 Y16.5325
G01 X19.0961 Y16.4199
G01 X19.0964 Y16.3093
G01 X19.1083 Y16.1919
G01 X19.1303 Y16.0835
G01 X19.1634 Y15.9754
G01 X19.2070 Y15.8711
G01 X19.2606 Y15.7716
G01 X19.3238 Y15.6778
G01 X19.3941 Y15.5924
G01 X19.4778 Y15.5093
G01 X19.5636 Y15.4394
G01 X19.6578 Y15.3769
G01 X19.7577 Y15.3239
G01 X19.8623 Y15.2810
G01 X19.9706 Y15.2485
G01 X20.0791 Y15.2272
G01 X20.1965 Y15.2160
G01 X20.3072 Y15.2164
G01 X20.4196 Y15.2279
G01 X20.5305 Y15.2503
G01 X20.6386 Y15.2834
G01 X20.7429 Y15.3270
G01 X20.8403 Y15.3794
G01 X20.9382 Y15.4453
G01 X21.0234 Y15.5158
G01 X21.1031 Y15.5960
G00 Z2.0000
G00 X21.3680 Y22.6931
G01 F60.00
G01 Z-0.0000
G01 F120.00
G01 X19.4351 Y24.4339
G01 X19.3484 Y24.5046
G01 X19.2542 Y24.5671
G01 X19.1543 Y24.6201
G01 X19.0486 Y24.6634
G01 X18.9414 Y24.6955
G01 X18.8305 Y24.7172
G01 X18.7179 Y24.7279
G01 X18.6048 Y24.7276
G01 X18.4924 Y24.7161
G01 X18.3815 Y24.6937
G01 X18.2734 Y24.6606
G01 X18.1691 Y24.6170
G01 X18.0696 Y24.5634
G01 X17.9758 Y24.5002
G01 X17.8886 Y24.4282
G01 X17.8089 Y24.3480
G01 X17.7374 Y24.2604
G01 X17.6749 Y24.1662
G01 X17.6219 Y24.0663
G01 X17.5786 Y23.9606
G01 X17.5460 Y23.8510
G01 X17.5248 Y23.7425
G01 X17.5142 Y23.6324
G01 X17.5144 Y23.5168
G01 X17.5259 Y23.4044
G01 X17.5489 Y23.2912
G01 X17.5814 Y23.1854
G01 X17.6240 Y23.0834
G01 X17.6786 Y22.9816
G01 X17.7433 Y22.8858
G01 X17.8138 Y22.8006
G01 X17.8940 Y22.7209
G01 X19.8269 Y20.9801
G01 X19.9136 Y20.9094
G01 X20.0078 Y20.8469
G01 X20.1077 Y20.7939
G01 X20.2134 Y20.7506
G01 X20.3206 Y20.7185
G01 X20.4315 Y20.6968
G01 X20.5441 Y20.6861
G01 X20.6547 Y20.6864
G01 X20.7721 Y20.6983
G01 X20.8805 Y20.7203
G01 X20.9886 Y20.7534
G01 X21.0929 Y20.7970
G01 X21.1924 Y20.8506
G01 X21.2862 Y20.9138
G01 X21.3716 Y20.9841
G01 X21.4547 Y21.0678
G01 X21.5246 Y21.1536
G01 X21.5871 Y21.2478
G01 X21.6401 Y21.3477
G01 X21.6830 Y21.4523
G01 X21.7155 Y21.5606
G01 X21.7368 Y21.6691
G01 X21.7480 Y21.7865
G01 X21.7476 Y21.8972
G01 X21.7361 Y22.0096
G01 X21.7137 Y22.1205
G01 X21.6806 Y22.2286
G01 X21.6370 Y22.3329
G01 X21.5846 Y22.4303
G01 X21.5187 Y22.5282
G01 X21.4482 Y22.6134
G01 X21.3680 Y22.6931
G00 Z2.0000
G00 X24.7290 Y27.8890
G01 F60.00
G01 Z-0.0000
G01 F120.00
G01 X26.8320 Y27.8890
G01 X26.8418 Y27.8900
G01 X26.8511 Y27.8928
G01 X26.8598 Y27.8974
G01 X26.8674 Y27.9036
G01 X26.8736 Y27.9112
G01 X26.8782 Y27.9199
G01 X26.8810 Y27.9292
G01 X26.8820 Y27.9390
G01 X26.8820 Y30.0420
G01 X26.8810 Y30.0518
G01 X26.8782 Y30.0611
G01 X26.8736 Y30.0698
G01 X26.8674 Y30.0774
G01 X26.8598 Y30.0836
G01 X26.8511 Y30.0882
G01 X26.8418 Y30.0910
G01 X26.8320 Y30.0920
G01 X24.7290 Y30.0920
G01 X24.7192 Y30.0910
G01 X24.7099 Y30.0882
G01 X24.7012 Y30.0836
G01 X24.6936 Y30.0774
G01 X24.6874 Y30.0698
G01 X24.6828 Y30.0611
G01 X24.6800 Y30.0518
G01 X24.6790 Y30.0420
G01 X24.6790 Y27.9378
G01 X24.6802 Y27.9280
G01 X24.6828 Y27.9199
G01 X24.6874 Y27.9112
G01 X24.6936 Y27.9036
G01 X24.7012 Y27.8974
G01 X24.7099 Y27.8928
G01 X24.7192 Y27.8900
G01 X24.7290 Y27.8890
G00 Z2.0000
G00 X29.4225 Y28.9935
G01 F60.00
G01 Z-0.0000
G01 F120.00
G01 X29.4173 Y29.0990
G01 X29.4014 Y29.2059
G01 X29.3752 Y29.3108
G01 X29.3387 Y29.4126
G01 X29.2925 Y29.5103
G01 X29.2369 Y29.6030
G01 X29.1725 Y29.6898
G01 X29.0999 Y29.7699
G01 X29.0198 Y29.8425
G01 X28.9330 Y29.9069
G01 X28.8403 Y29.9625
G01 X28.7426 Y30.0087
G01 X28.6408 Y30.0452
G01 X28.5359 Y30.0714
G01 X28.4290 Y30.0873
G01 X28.3210 Y30.0926
G01 X28.2130 Y30.0873
G01 X28.1061 Y30.0714
G01 X28.0012 Y30.0452
G01 X27.8994 Y30.0087
G01 X27.8017 Y29.9625
G01 X27.7090 Y29.9069
G01 X27.6222 Y29.8425
G01 X27.5421 Y29.7699
G01 X27.4695 Y29.6898
G01 X27.4051 Y29.6030
G01 X27.3495 Y29.5103
G01 X27.3033 Y29.4126
G01 X27.2668 Y29.3108
G01 X27.2406 Y29.2059
G01 X27.2247 Y29.0990
G01 X27.2194 Y28.9910
G01 X27.2247 Y28.8830
G01 X27.2406 Y28.7761
G01 X27.2668 Y28.6712
G01 X27.3033 Y28.5694
G01 X27.3495 Y28.4717
G01 X27.4051 Y28.3790
G01 X27.4695 Y28.2922
G01 X27.5421 Y28.2121
G01 X27.6222 Y28.1395
G01 X27.7090 Y28.0751
G01 X27.8017 Y28.0195
G01 X27.8994 Y27.9733
G01 X28.0012 Y27.9368
G01 X28.1061 Y27.9106
G01 X28.2130 Y27.8947
G01 X28.3210 Y27.8894
G01 X28.4290 Y27.8947
G01 X28.5359 Y27.9106
G01 X28.6408 Y27.9368
G01 X28.7426 Y27.9733
G01 X28.8403 Y28.0195
G01 X28.9330 Y28.0751
G01 X29.0198 Y28.1395
G01 X29.0999 Y28.2121
G01 X29.1725 Y28.2922
G01 X29.2369 Y28.3790
G01 X29.2925 Y28.4717
G01 X29.3387 Y28.5694
G01 X29.3752 Y28.6712
G01 X29.4014 Y28.7761
G01 X29.4173 Y28.8830
G01 X29.4225 Y28.9935
G00 Z2.0000
G00 X31.9625 Y28.9935
G01 F60.00
G01 Z-0.0000
G01 F120.00
G01 X31.9573 Y29.0990
G01 X31.9414 Y29.2059
G01 X31.9152 Y29.3108
G01 X31.8787 Y29.4126
G01 X31.8325 Y29.5103
G01 X31.7769 Y29.6030
G01 X31.7125 Y29.6898
G01 X31.6399 Y29.7699
G01 X31.5598 Y29.8425
G01 X31.4730 Y29.9069
G01 X31.3803 Y29.9625
G01 X31.2826 Y30.0087
G01 X31.1808 Y30.0452
G01 X31.0759 Y30.0714
G01 X30.9690 Y30.0873
G01 X30.8610 Y30.0926
G01 X30.7530 Y30.0873
G01 X30.6461 Y30.0714
G01 X30.5412 Y30.0452
G01 X30.4394 Y30.0087
G01 X30.3417 Y29.9625
G01 X30.2490 Y29.9069
G01 X30.1622 Y29.8425
G01 X30.0821 Y29.7699
G01 X30.0095 Y29.6898
G01 X29.9451 Y29.6030
G01 X29.8895 Y29.5103
G01 X29.8433 Y29.4126
G01 X29.8068 Y29.3108
G01 X29.7806 Y29.2059
G01 X29.7647 Y29.0990
G01 X29.7594 Y28.9910
G01 X29.7647 Y28.8830
G01 X29.7806 Y28.7761
G01 X29.8068 Y28.6712
G01 X29.8433 Y28.5694
G01 X29.8895 Y28.4717
G01 X29.9451 Y28.3790
G01 X30.0095 Y28.2922
G01 X30.0821 Y28.2121
G01 X30.1622 Y28.1395
G01 X30.2490 Y28.0751
G01 X30.3417 Y28.0195
G01 X30.4394 Y27.9733
G01 X30.5412 Y27.9368
G01 X30.6461 Y27.9106
G01 X30.7530 Y27.8947
G01 X30.8610 Y27.8894
G01 X30.9690 Y27.8947
G01 X31.0759 Y27.9106
G01 X31.1808 Y27.9368
G01 X31.2826 Y27.9733
G01 X31.3803 Y28.0195
G01 X31.4730 Y28.0751
G01 X31.5598 Y28.1395
G01 X31.6399 Y28.2121
G01 X31.7125 Y28.2922
G01 X31.7769 Y28.3790
G01 X31.8325 Y28.4717
G01 X31.8787 Y28.5694
G01 X31.9152 Y28.6712
G01 X31.9414 Y28.7761
G01 X31.9573 Y28.8830
G01 X31.9625 Y28.9935
G00 Z2.0000
G00 X35.9655 Y24.9295
G01 F60.00
G01 Z-0.0000
G01 F120.00
G01 X35.9612 Y25.0165
G01 X35.9480 Y25.1052
G01 X35.9263 Y25.1922
G01 X35.8961 Y25.2766
G01 X35.8577 Y25.3577
G01 X35.8116 Y25.4346
G01 X35.7582 Y25.5066
G01 X35.6980 Y25.5730
G01 X35.6316 Y25.6332
G01 X35.5596 Y25.6866
G01 X35.4827 Y25.7327
G01 X35.4016 Y25.7711
G01 X35.3172 Y25.8013
G01 X35.2302 Y25.8230
G01 X35.1415 Y25.8362
G01 X35.0520 Y25.8406
G01 X34.9625 Y25.8362
G01 X34.8738 Y25.8230
G01 X34.7868 Y25.8013
G01 X34.7024 Y25.7711
G01 X34.6213 Y25.7327
G01 X34.5444 Y25.6866
G01 X34.4724 Y25.6332
G01 X34.4060 Y25.5730
G01 X34.3458 Y25.5066
G01 X34.2924 Y25.4346
G01 X34.2463 Y25.3577
G01 X34.2079 Y25.2766
G01 X34.1777 Y25.1922
G01 X34.1560 Y25.1052
G01 X34.1428 Y25.0165
G01 X34.1384 Y24.9270
G01 X34.1428 Y24.8375
G01 X34.1560 Y24.7488
G01 X34.1777 Y24.6618
G01 X34.2079 Y24.5774
G01 X34.2463 Y24.4963
G01 X34.2924 Y24.4194
G01 X34.3458 Y24.3474
G01 X34.4060 Y24.2810
G01 X34.4724 Y24.2208
G01 X34.5444 Y24.1674
G01 X34.6213 Y24.1213
G01 X34.7024 Y24.0829
G01 X34.7868 Y24.0527
G01 X34.8738 Y24.0310
G01 X34.9625 Y24.0178
G01 X35.0520 Y24.0134
G01 X35.1415 Y24.0178
G01 X35.2302 Y24.0310
G01 X35.3172 Y24.0527
G01 X35.4016 Y24.0829
G01 X35.4827 Y24.1213
G01 X35.5596 Y24.1674
G01 X35.6316 Y24.2208
G01 X35.6980 Y24.2810
G01 X35.7582 Y24.3474
G01 X35.8116 Y24.4194
G01 X35.8577 Y24.4963
G01 X35.8961 Y24.5774
G01 X35.9263 Y24.6618
G01 X35.9480 Y24.7488
G01 X35.9612 Y24.8375
G01 X35.9655 Y24.9295
G00 Z2.0000
G00 X38.5055 Y24.9295
G01 F60.00
G01 Z-0.0000
G01 F120.00
G01 X38.5012 Y25.0165
G01 X38.4880 Y25.1052
G01 X38.4663 Y25.1922
G01 X38.4361 Y25.2766
G01 X38.3977 Y25.3577
G01 X38.3516 Y25.4346
G01 X38.2982 Y25.5066
G01 X38.2380 Y25.5730
G01 X38.1716 Y25.6332
G01 X38.0996 Y25.6866
G01 X38.0227 Y25.7327
G01 X37.9416 Y25.7711
G01 X37.8572 Y25.8013
G01 X37.7702 Y25.8230
G01 X37.6815 Y25.8362
G01 X37.5920 Y25.8406
G01 X37.5025 Y25.8362
G01 X37.4138 Y25.8230
G01 X37.3268 Y25.8013
G01 X37.2424 Y25.7711
G01 X37.1613 Y25.7327
G01 X37.0844 Y25.6866
G01 X37.0124 Y25.6332
G01 X36.9460 Y25.5730
G01 X36.8858 Y25.5066
G01 X36.8324 Y25.4346
G01 X36.7863 Y25.3577
G01 X36.7479 Y25.2766
G01 X36.7177 Y25.1922
G01 X36.6960 Y25.1052
G01 X36.6828 Y25.0165
G01 X36.6784 Y24.9270
G01 X36.6828 Y24.8375
G01 X36.6960 Y24.7488
G01 X36.7177 Y24.6618
G01 X36.7479 Y24.5774
G01 X36.7863 Y24.4963
G01 X36.8324 Y24.4194
G01 X36.8858 Y24.3474
G01 X36.9460 Y24.2810
G01 X37.0124 Y24.2208
G01 X37.0844 Y24.1674
G01 X37.1613 Y24.1213
G01 X37.2424 Y24.0829
G01 X37.3268 Y24.0527
G01 X37.4138 Y24.0310
G01 X37.5025 Y24.0178
G01 X37.5920 Y24.0134
G01 X37.6815 Y24.0178
G01 X37.7702 Y24.0310
G01 X37.8572 Y24.0527
G01 X37.9416 Y24.0829
G01 X38.0227 Y24.1213
G01 X38.0996 Y24.1674
G01 X38.1716 Y24.2208
G01 X38.2380 Y24.2810
G01 X38.2982 Y24.3474
G01 X38.3516 Y24.4194
G01 X38.3977 Y24.4963
G01 X38.4361 Y24.5774
G01 X38.4663 Y24.6618
G01 X38.4880 Y24.7488
G01 X38.5012 Y24.8375
G01 X38.5055 Y24.9295
G00 Z2.0000
G00 X41.0455 Y24.9295
G01 F60.00
G01 Z-0.0000
G01 F120.00
G01 X41.0412 Y25.0165
G01 X41.0280 Y25.1052
G01 X41.0063 Y25.1922
G01 X40.9761 Y25.2766
G01 X40.9377 Y25.3577
G01 X40.8916 Y25.4346
G01 X40.8382 Y25.5066
G01 X40.7780 Y25.5730
G01 X40.7116 Y25.6332
G01 X40.6396 Y25.6866
G01 X40.5627 Y25.7327
G01 X40.4816 Y25.7711
G01 X40.3972 Y25.8013
G01 X40.3102 Y25.8230
G01 X40.2215 Y25.8362
G01 X40.1320 Y25.8406
G01 X40.0425 Y25.8362
G01 X39.9538 Y25.8230
G01 X39.8668 Y25.8013
G01 X39.7824 Y25.7711
G01 X39.7013 Y25.7327
G01 X39.6244 Y25.6866
G01 X39.5524 Y25.6332
G01 X39.4860 Y25.5730
G01 X39.4258 Y25.5066
G01 X39.3724 Y25.4346
G01 X39.3263 Y25.3577
G01 X39.2879 Y25.2766
G01 X39.2577 Y25.1922
G01 X39.2360 Y25.1052
G01 X39.2228 Y25.0165
G01 X39.2184 Y24.9270
G01 X39.2228 Y24.8375
G01 X39.2360 Y24.7488
G01 X39.2577 Y24.6618
G01 X39.2879 Y24.5774
G01 X39.3263 Y24.4963
G01 X39.3724 Y24.4194
G01 X39.4258 Y24.3474
G01 X39.4860 Y24.2810
G01 X39.5524 Y24.2208
G01 X39.6244 Y24.1674
G01 X39.7013 Y24.1213
G01 X39.7824 Y24.0829
G01 X39.8668 Y24.0527
G01 X39.9538 Y24.0310
G01 X40.0425 Y24.0178
G01 X40.1320 Y24.0134
G01 X40.2215 Y24.0178
G01 X40.3102 Y24.0310
G01 X40.3972 Y24.0527
G01 X40.4816 Y24.0829
G01 X40.5627 Y24.1213
G01 X40.6396 Y24.1674
G01 X40.7116 Y24.2208
G01 X40.7780 Y24.2810
G01 X40.8382 Y24.3474
G01 X40.8916 Y24.4194
G01 X40.9377 Y24.4963
G01 X40.9761 Y24.5774
G01 X41.0063 Y24.6618
G01 X41.0280 Y24.7488
G01 X41.0412 Y24.8375
G01 X41.0455 Y24.9295
G00 Z2.0000
G00 X43.5855 Y24.9295
G01 F60.00
G01 Z-0.0000
G01 F120.00
G01 X43.5812 Y25.0165
G01 X43.5680 Y25.1052
G01 X43.5463 Y25.1922
G01 X43.5161 Y25.2766
G01 X43.4777 Y25.3577
G01 X43.4316 Y25.4346
G01 X43.3782 Y25.5066
G01 X43.3180 Y25.5730
G01 X43.2516 Y25.6332
G01 X43.1796 Y25.6866
G01 X43.1027 Y25.7327
G01 X43.0216 Y25.7711
G01 X42.9372 Y25.8013
G01 X42.8502 Y25.8230
G01 X42.7615 Y25.8362
G01 X42.6720 Y25.8406
G01 X42.5825 Y25.8362
G01 X42.4938 Y25.8230
G01 X42.4068 Y25.8013
G01 X42.3224 Y25.7711
G01 X42.2413 Y25.7327
G01 X42.1644 Y25.6866
G01 X42.0924 Y25.6332
G01 X42.0260 Y25.5730
G01 X41.9658 Y25.5066
G01 X41.9124 Y25.4346
G01 X41.8663 Y25.3577
G01 X41.8279 Y25.2766
G01 X41.7977 Y25.1922
G01 X41.7760 Y25.1052
G01 X41.7628 Y25.0165
G01 X41.7584 Y24.9270
G01 X41.7628 Y24.8375
G01 X41.7760 Y24.7488
G01 X41.7977 Y24.6618
G01 X41.8279 Y24.5774
G01 X41.8663 Y24.4963
G01 X41.9124 Y24.4194
G01 X41.9658 Y24.3474
G01 X42.0260 Y24.2810
G01 X42.0924 Y24.2208
G01 X42.1644 Y24.1674
G01 X42.2413 Y24.1213
G01 X42.3224 Y24.0829
G01 X42.4068 Y24.0527
G01 X42.4938 Y24.0310
G01 X42.5825 Y24.0178
G01 X42.6720 Y24.0134
G01 X42.7615 Y24.0178
G01 X42.8502 Y24.0310
G01 X42.9372 Y24.0527
G01 X43.0216 Y24.0829
G01 X43.1027 Y24.1213
G01 X43.1796 Y24.1674
G01 X43.2516 Y24.2208
G01 X43.3180 Y24.2810
G01 X43.3782 Y24.3474
G01 X43.4316 Y24.4194
G01 X43.4777 Y24.4963
G01 X43.5161 Y24.5774
G01 X43.5463 Y24.6618
G01 X43.5680 Y24.7488
G01 X43.5812 Y24.8375
G01 X43.5855 Y24.9295
G00 Z2.0000
G00 X46.1255 Y24.9295
G01 F60.00
G01 Z-0.0000
G01 F120.00
G01 X46.1212 Y25.0165
G01 X46.1080 Y25.1052
G01 X46.0863 Y25.1922
G01 X46.0561 Y25.2766
G01 X46.0177 Y25.3577
G01 X45.9716 Y25.4346
G01 X45.9182 Y25.5066
G01 X45.8580 Y25.5730
G01 X45.7916 Y25.6332
G01 X45.7196 Y25.6866
G01 X45.6427 Y25.7327
G01 X45.5616 Y25.7711
G01 X45.4772 Y25.8013
G01 X45.3902 Y25.8230
G01 X45.3015 Y25.8362
G01 X45.2120 Y25.8406
G01 X45.1225 Y25.8362
G01 X45.0338 Y25.8230
G01 X44.9468 Y25.8013
G01 X44.8624 Y25.7711
G01 X44.7813 Y25.7327
G01 X44.7044 Y25.6866
G01 X44.6324 Y25.6332
G01 X44.5660 Y25.5730
G01 X44.5058 Y25.5066
G01 X44.4524 Y25.4346
G01 X44.4063 Y25.3577
G01 X44.3679 Y25.2766
G01 X44.3377 Y25.1922
G01 X44.3160 Y25.1052
G01 X44.3028 Y25.0165
G01 X44.2984 Y24.9270
G01 X44.3028 Y24.8375
G01 X44.3160 Y24.7488
G01 X44.3377 Y24.6618
G01 X44.3679 Y24.5774
G01 X44.4063 Y24.4963
G01 X44.4524 Y24.4194
G01 X44.5058 Y24.3474
G01 X44.5660 Y24.2810
G01 X44.6324 Y24.2208
G01 X44.7044 Y24.1674
G01 X44.7813 Y24.1213
G01 X44.8624 Y24.0829
G01 X44.9468 Y24.0527
G01 X45.0338 Y24.0310
G01 X45.1225 Y24.0178
G01 X45.2120 Y24.0134
G01 X45.3015 Y24.0178
G01 X45.3902 Y24.0310
G01 X45.4772 Y24.0527
G01 X45.5616 Y24.0829
G01 X45.6427 Y24.1213
G01 X45.7196 Y24.1674
G01 X45.7916 Y24.2208
G01 X45.8580 Y24.2810
G01 X45.9182 Y24.3474
G01 X45.9716 Y24.4194
G01 X46.0177 Y24.4963
G01 X46.0561 Y24.5774
G01 X46.0863 Y24.6618
G01 X46.1080 Y24.7488
G01 X46.1212 Y24.8375
G01 X46.1255 Y24.9295
G00 Z2.0000
G00 X48.6655 Y24.9295
G01 F60.00
G01 Z-0.0000
G01 F120.00
G01 X48.6612 Y25.0165
G01 X48.6480 Y25.1052
G01 X48.6263 Y25.1922
G01 X48.5961 Y25.2766
G01 X48.5577 Y25.3577
G01 X48.5116 Y25.4346
G01 X48.4582 Y25.5066
G01 X48.3980 Y25.5730
G01 X48.3316 Y25.6332
G01 X48.2596 Y25.6866
G01 X48.1827 Y25.7327
G01 X48.1016 Y25.7711
G01 X48.0172 Y25.8013
G01 X47.9302 Y25.8230
G01 X47.8415 Y25.8362
G01 X47.7520 Y25.8406
G01 X47.6625 Y25.8362
G01 X47.5738 Y25.8230
G01 X47.4868 Y25.8013
G01 X47.4024 Y25.7711
G01 X47.3213 Y25.7327
G01 X47.2444 Y25.6866
G01 X47.1724 Y25.6332
G01 X47.1060 Y25.5730
G01 X47.0458 Y25.5066
G01 X46.9924 Y25.4346
G01 X46.9463 Y25.3577
G01 X46.9079 Y25.2766
G01 X46.8777 Y25.1922
G01 X46.8560 Y25.1052
G01 X46.8428 Y25.0165
G01 X46.8384 Y24.9270
G01 X46.8428 Y24.8375
G01 X46.8560 Y24.7488
G01 X46.8777 Y24.6618
G01 X46.9079 Y24.5774
G01 X46.9463 Y24.4963
G01 X46.9924 Y24.4194
G01 X47.0458 Y24.3474
G01 X47.1060 Y24.2810
G01 X47.1724 Y24.2208
G01 X47.2444 Y24.1674
G01 X47.3213 Y24.1213
G01 X47.4024 Y24.0829
G01 X47.4868 Y24.0527
G01 X47.5738 Y24.0310
G01 X47.6625 Y24.0178
G01 X47.7520 Y24.0134
G01 X47.8415 Y24.0178
G01 X47.9302 Y24.0310
G01 X48.0172 Y24.0527
G01 X48.1016 Y24.0829
G01 X48.1827 Y24.1213
G01 X48.2596 Y24.1674
G01 X48.3316 Y24.2208
G01 X48.3980 Y24.2810
G01 X48.4582 Y24.3474
G01 X48.5116 Y24.4194
G01 X48.5577 Y24.4963
G01 X48.5961 Y24.5774
G01 X48.6263 Y24.6618
G01 X48.6480 Y24.7488
G01 X48.6612 Y24.8375
G01 X48.6655 Y24.9295
G00 Z2.0000
G00 X51.2055 Y24.9295
G01 F60.00
G01 Z-0.0000
G01 F120.00
G01 X51.2012 Y25.0165
G01 X51.1880 Y25.1052
G01 X51.1663 Y25.1922
G01 X51.1361 Y25.2766
G01 X51.0977 Y25.3577
G01 X51.0516 Y25.4346
G01 X50.9982 Y25.5066
G01 X50.9380 Y25.5730
G01 X50.8716 Y25.6332
G01 X50.7996 Y25.6866
G01 X50.7227 Y25.7327
G01 X50.6416 Y25.7711
G01 X50.5572 Y25.8013
G01 X50.4702 Y25.8230
G01 X50.3815 Y25.8362
G01 X50.2920 Y25.8406
G01 X50.2025 Y25.8362
G01 X50.1138 Y25.8230
G01 X50.0268 Y25.8013
G01 X49.9424 Y25.7711
G01 X49.8613 Y25.7327
G01 X49.7844 Y25.6866
G01 X49.7124 Y25.6332
G01 X49.6460 Y25.5730
G01 X49.5858 Y25.5066
G01 X49.5324 Y25.4346
G01 X49.4863 Y25.3577
G01 X49.4479 Y25.2766
G01 X49.4177 Y25.1922
G01 X49.3960 Y25.1052
G01 X49.3828 Y25.0165
G01 X49.3784 Y24.9270
G01 X49.3828 Y24.8375
G01 X49.3960 Y24.7488
G01 X49.4177 Y24.6618
G01 X49.4479 Y24.5774
G01 X49.4863 Y24.4963
G01 X49.5324 Y24.4194
G01 X49.5858 Y24.3474
G01 X49.6460 Y24.2810
G01 X49.7124 Y24.2208
G01 X49.7844 Y24.1674
G01 X49.8613 Y24.1213
G01 X49.9424 Y24.0829
G01 X50.0268 Y24.0527
G01 X50.1138 Y24.0310
G01 X50.2025 Y24.0178
G01 X50.2920 Y24.0134
G01 X50.3815 Y24.0178
G01 X50.4702 Y24.0310
G01 X50.5572 Y24.0527
G01 X50.6416 Y24.0829
G01 X50.7227 Y24.1213
G01 X50.7996 Y24.1674
G01 X50.8716 Y24.2208
G01 X50.9380 Y24.2810
G01 X50.9982 Y24.3474
G01 X51.0516 Y24.4194
G01 X51.0977 Y24.4963
G01 X51.1361 Y24.5774
G01 X51.1663 Y24.6618
G01 X51.1880 Y24.7488
G01 X51.2012 Y24.8375
G01 X51.2055 Y24.9295
G00 Z2.0000
G00 X53.7455 Y24.9295
G01 F60.00
G01 Z-0.0000
G01 F120.00
G01 X53.7412 Y25.0165
G01 X53.7280 Y25.1052
G01 X53.7063 Y25.1922
G01 X53.6761 Y25.2766
G01 X53.6377 Y25.3577
G01 X53.5916 Y25.4346
G01 X53.5382 Y25.5066
G01 X53.4780 Y25.5730
G01 X53.4116 Y25.6332
G01 X53.3396 Y25.6866
G01 X53.2627 Y25.7327
G01 X53.1816 Y25.7711
G01 X53.0972 Y25.8013
G01 X53.0102 Y25.8230
G01 X52.9215 Y25.8362
G01 X52.8320 Y25.8406
G01 X52.7425 Y25.8362
G01 X52.6538 Y25.8230
G01 X52.5668 Y25.8013
G01 X52.4824 Y25.7711
G01 X52.4013 Y25.7327
G01 X52.3244 Y25.6866
G01 X52.2524 Y25.6332
G01 X52.1860 Y25.5730
G01 X52.1258 Y25.5066
G01 X52.0724 Y25.4346
G01 X52.0263 Y25.3577
G01 X51.9879 Y25.2766
G01 X51.9577 Y25.1922
G01 X51.9360 Y25.1052
G01 X51.9228 Y25.0165
G01 X51.9184 Y24.9270
G01 X51.9228 Y24.8375
G01 X51.9360 Y24.7488
G01 X51.9577 Y24.6618
G01 X51.9879 Y24.5774
G01 X52.0263 Y24.4963
G01 X52.0724 Y24.4194
G01 X52.1258 Y24.3474
G01 X52.1860 Y24.2810
G01 X52.2524 Y24.2208
G01 X52.3244 Y24.1674
G01 X52.4013 Y24.1213
G01 X52.4824 Y24.0829
G01 X52.5668 Y24.0527
G01 X52.6538 Y24.0310
G01 X52.7425 Y24.0178
G01 X52.8320 Y24.0134
G01 X52.9215 Y24.0178
G01 X53.0102 Y24.0310
G01 X53.0972 Y24.0527
G01 X53.1816 Y24.0829
G01 X53.2627 Y24.1213
G01 X53.3396 Y24.1674
G01 X53.4116 Y24.2208
G01 X53.4780 Y24.2810
G01 X53.5382 Y24.3474
G01 X53.5916 Y24.4194
G01 X53.6377 Y24.4963
G01 X53.6761 Y24.5774
G01 X53.7063 Y24.6618
G01 X53.7280 Y24.7488
G01 X53.7412 Y24.8375
G01 X53.7455 Y24.9295
G00 Z2.0000
G00 X56.2855 Y24.9295
G01 F60.00
G01 Z-0.0000
G01 F120.00
G01 X56.2812 Y25.0165
G01 X56.2680 Y25.1052
G01 X56.2463 Y25.1922
G01 X56.2161 Y25.2766
G01 X56.1777 Y25.3577
G01 X56.1316 Y25.4346
G01 X56.0782 Y25.5066
G01 X56.0180 Y25.5730
G01 X55.9516 Y25.6332
G01 X55.8796 Y25.6866
G01 X55.8027 Y25.7327
G01 X55.7216 Y25.7711
G01 X55.6372 Y25.8013
G01 X55.5502 Y25.8230
G01 X55.4615 Y25.8362
G01 X55.3720 Y25.8406
G01 X55.2825 Y25.8362
G01 X55.1938 Y25.8230
G01 X55.1068 Y25.8013
G01 X55.0224 Y25.7711
G01 X54.9413 Y25.7327
G01 X54.8644 Y25.6866
G01 X54.7924 Y25.6332
G01 X54.7260 Y25.5730
G01 X54.6658 Y25.5066
G01 X54.6124 Y25.4346
G01 X54.5663 Y25.3577
G01 X54.5279 Y25.2766
G01 X54.4977 Y25.1922
G01 X54.4760 Y25.1052
G01 X54.4628 Y25.0165
G01 X54.4584 Y24.9270
G01 X54.4628 Y24.8375
G01 X54.4760 Y24.7488
G01 X54.4977 Y24.6618
G01 X54.5279 Y24.5774
G01 X54.5663 Y24.4963
G01 X54.6124 Y24.4194
G01 X54.6658 Y24.3474
G01 X54.7260 Y24.2810
G01 X54.7924 Y24.2208
G01 X54.8644 Y24.1674
G01 X54.9413 Y24.1213
G01 X55.0224 Y24.0829
G01 X55.1068 Y24.0527
G01 X55.1938 Y24.0310
G01 X55.2825 Y24.0178
G01 X55.3720 Y24.0134
G01 X55.4615 Y24.0178
G01 X55.5502 Y24.0310
G01 X55.6372 Y24.0527
G01 X55.7216 Y24.0829
G01 X55.8027 Y24.1213
G01 X55.8796 Y24.1674
G01 X55.9516 Y24.2208
G01 X56.0180 Y24.2810
G01 X56.0782 Y24.3474
G01 X56.1316 Y24.4194
G01 X56.1777 Y24.4963
G01 X56.2161 Y24.5774
G01 X56.2463 Y24.6618
G01 X56.2680 Y24.7488
G01 X56.2812 Y24.8375
G01 X56.2855 Y24.9295
G00 Z2.0000
G00 X58.8255 Y24.9295
G01 F60.00
G01 Z-0.0000
G01 F120.00
G01 X58.8212 Y25.0165
G01 X58.8080 Y25.1052
G01 X58.7863 Y25.1922
G01 X58.7561 Y25.2766
G01 X58.7177 Y25.3577
G01 X58.6716 Y25.4346
G01 X58.6182 Y25.5066
G01 X58.5580 Y25.5730
G01 X58.4916 Y25.6332
G01 X58.4196 Y25.6866
G01 X58.3427 Y25.7327
G01 X58.2616 Y25.7711
G01 X58.1772 Y25.8013
G01 X58.0902 Y25.8230
G01 X58.0015 Y25.8362
G01 X57.9120 Y25.8406
G01 X57.8225 Y25.8362
G01 X57.7338 Y25.8230
G01 X57.6468 Y25.8013
G01 X57.5624 Y25.7711
G01 X57.4813 Y25.7327
G01 X57.4044 Y25.6866
G01 X57.3324 Y25.6332
G01 X57.2660 Y25.5730
G01 X57.2058 Y25.5066
G01 X57.1524 Y25.4346
G01 X57.1063 Y25.3577
G01 X57.0679 Y25.2766
G01 X57.0377 Y25.1922
G01 X57.0160 Y25.1052
G01 X57.0028 Y25.0165
G01 X56.9984 Y24.9270
G01 X57.0028 Y24.8375
G01 X57.0160 Y24.7488
G01 X57.0377 Y24.6618
G01 X57.0679 Y24.5774
G01 X57.1063 Y24.4963
G01 X57.1524 Y24.4194
G01 X57.2058 Y24.3474
G01 X57.2660 Y24.2810
G01 X57.3324 Y24.2208
G01 X57.4044 Y24.1674
G01 X57.4813 Y24.1213
G01 X57.5624 Y24.0829
G01 X57.6468 Y24.0527
G01 X57.7338 Y24.0310
G01 X57.8225 Y24.0178
G01 X57.9120 Y24.0134
G01 X58.0015 Y24.0178
G01 X58.0902 Y24.0310
G01 X58.1772 Y24.0527
G01 X58.2616 Y24.0829
G01 X58.3427 Y24.1213
G01 X58.4196 Y24.1674
G01 X58.4916 Y24.2208
G01 X58.5580 Y24.2810
G01 X58.6182 Y24.3474
G01 X58.6716 Y24.4194
G01 X58.7177 Y24.4963
G01 X58.7561 Y24.5774
G01 X58.7863 Y24.6618
G01 X58.8080 Y24.7488
G01 X58.8212 Y24.8375
G01 X58.8255 Y24.9295
G00 Z2.0000
G00 X61.3655 Y24.9295
G01 F60.00
G01 Z-0.0000
G01 F120.00
G01 X61.3612 Y25.0165
G01 X61.3480 Y25.1052
G01 X61.3263 Y25.1922
G01 X61.2961 Y25.2766
G01 X61.2577 Y25.3577
G01 X61.2116 Y25.4346
G01 X61.1582 Y25.5066
G01 X61.0980 Y25.5730
G01 X61.0316 Y25.6332
G01 X60.9596 Y25.6866
G01 X60.8827 Y25.7327
G01 X60.8016 Y25.7711
G01 X60.7172 Y25.8013
G01 X60.6302 Y25.8230
G01 X60.5415 Y25.8362
G01 X60.4520 Y25.8406
G01 X60.3625 Y25.8362
G01 X60.2738 Y25.8230
G01 X60.1868 Y25.8013
G01 X60.1024 Y25.7711
G01 X60.0213 Y25.7327
G01 X59.9444 Y25.6866
G01 X59.8724 Y25.6332
G01 X59.8060 Y25.5730
G01 X59.7458 Y25.5066
G01 X59.6924 Y25.4346
G01 X59.6463 Y25.3577
G01 X59.6079 Y25.2766
G01 X59.5777 Y25.1922
G01 X59.5560 Y25.1052
G01 X59.5428 Y25.0165
G01 X59.5384 Y24.9270
G01 X59.5428 Y24.8375
G01 X59.5560 Y24.7488
G01 X59.5777 Y24.6618
G01 X59.6079 Y24.5774
G01 X59.6463 Y24.4963
G01 X59.6924 Y24.4194
G01 X59.7458 Y24.3474
G01 X59.8060 Y24.2810
G01 X59.8724 Y24.2208
G01 X59.9444 Y24.1674
G01 X60.0213 Y24.1213
G01 X60.1024 Y24.0829
G01 X60.1868 Y24.0527
G01 X60.2738 Y24.0310
G01 X60.3625 Y24.0178
G01 X60.4520 Y24.0134
G01 X60.5415 Y24.0178
G01 X60.6302 Y24.0310
G01 X60.7172 Y24.0527
G01 X60.8016 Y24.0829
G01 X60.8827 Y24.1213
G01 X60.9596 Y24.1674
G01 X61.0316 Y24.2208
G01 X61.0980 Y24.2810
G01 X61.1582 Y24.3474
G01 X61.2116 Y24.4194
G01 X61.2577 Y24.4963
G01 X61.2961 Y24.5774
G01 X61.3263 Y24.6618
G01 X61.3480 Y24.7488
G01 X61.3612 Y24.8375
G01 X61.3655 Y24.9295
G00 Z2.0000
G00 X63.9055 Y24.9295
G01 F60.00
G01 Z-0.0000
G01 F120.00
G01 X63.9012 Y25.0165
G01 X63.8880 Y25.1052
G01 X63.8663 Y25.1922
G01 X63.8361 Y25.2766
G01 X63.7977 Y25.3577
G01 X63.7516 Y25.4346
G01 X63.6982 Y25.5066
G01 X63.6380 Y25.5730
G01 X63.5716 Y25.6332
G01 X63.4996 Y25.6866
G01 X63.4227 Y25.7327
G01 X63.3416 Y25.7711
G01 X63.2572 Y25.8013
G01 X63.1702 Y25.8230
G01 X63.0815 Y25.8362
G01 X62.9920 Y25.8406
G01 X62.9025 Y25.8362
G01 X62.8138 Y25.8230
G01 X62.7268 Y25.8013
G01 X62.6424 Y25.7711
G01 X62.5613 Y25.7327
G01 X62.4844 Y25.6866
G01 X62.4124 Y25.6332
G01 X62.3460 Y25.5730
G01 X62.2858 Y25.5066
G01 X62.2324 Y25.4346
G01 X62.1863 Y25.3577
G01 X62.1479 Y25.2766
G01 X62.1177 Y25.1922
G01 X62.0960 Y25.1052
G01 X62.0828 Y25.0165
G01 X62.0784 Y24.9270
G01 X62.0828 Y24.8375
G01 X62.0960 Y24.7488
G01 X62.1177 Y24.6618
G01 X62.1479 Y24.5774
G01 X62.1863 Y24.4963
G01 X62.2324 Y24.4194
G01 X62.2858 Y24.3474
G01 X62.3460 Y24.2810
G01 X62.4124 Y24.2208
G01 X62.4844 Y24.1674
G01 X62.5613 Y24.1213
G01 X62.6424 Y24.0829
G01 X62.7268 Y24.0527
G01 X62.8138 Y24.0310
G01 X62.9025 Y24.0178
G01 X62.9920 Y24.0134
G01 X63.0815 Y24.0178
G01 X63.1702 Y24.0310
G01 X63.2572 Y24.0527
G01 X63.3416 Y24.0829
G01 X63.4227 Y24.1213
G01 X63.4996 Y24.1674
G01 X63.5716 Y24.2208
G01 X63.6380 Y24.2810
G01 X63.6982 Y24.3474
G01 X63.7516 Y24.4194
G01 X63.7977 Y24.4963
G01 X63.8361 Y24.5774
G01 X63.8663 Y24.6618
G01 X63.8880 Y24.7488
G01 X63.9012 Y24.8375
G01 X63.9055 Y24.9295
G00 Z2.0000
G00 X66.4455 Y24.9295
G01 F60.00
G01 Z-0.0000
G01 F120.00
G01 X66.4412 Y25.0165
G01 X66.4280 Y25.1052
G01 X66.4063 Y25.1922
G01 X66.3761 Y25.2766
G01 X66.3377 Y25.3577
G01 X66.2916 Y25.4346
G01 X66.2382 Y25.5066
G01 X66.1780 Y25.5730
G01 X66.1116 Y25.6332
G01 X66.0396 Y25.6866
G01 X65.9627 Y25.7327
G01 X65.8816 Y25.7711
G01 X65.7972 Y25.8013
G01 X65.7102 Y25.8230
G01 X65.6215 Y25.8362
G01 X65.5320 Y25.8406
G01 X65.4425 Y25.8362
G01 X65.3538 Y25.8230
G01 X65.2668 Y25.8013
G01 X65.1824 Y25.7711
G01 X65.1013 Y25.7327
G01 X65.0244 Y25.6866
G01 X64.9524 Y25.6332
G01 X64.8860 Y25.5730
G01 X64.8258 Y25.5066
G01 X64.7724 Y25.4346
G01 X64.7263 Y25.3577
G01 X64.6879 Y25.2766
G01 X64.6577 Y25.1922
G01 X64.6360 Y25.1052
G01 X64.6228 Y25.0165
G01 X64.6184 Y24.9270
G01 X64.6228 Y24.8375
G01 X64.6360 Y24.7488
G01 X64.6577 Y24.6618
G01 X64.6879 Y24.5774
G01 X64.7263 Y24.4963
G01 X64.7724 Y24.4194
G01 X64.8258 Y24.3474
G01 X64.8860 Y24.2810
G01 X64.9524 Y24.2208
G01 X65.0244 Y24.1674
G01 X65.1013 Y24.1213
G01 X65.1824 Y24.0829
G01 X65.2668 Y24.0527
G01 X65.3538 Y24.0310
G01 X65.4425 Y24.0178
G01 X65.5320 Y24.0134
G01 X65.6215 Y24.0178
G01 X65.7102 Y24.0310
G01 X65.7972 Y24.0527
G01 X65.8816 Y24.0829
G01 X65.9627 Y24.1213
G01 X66.0396 Y24.1674
G01 X66.1116 Y24.2208
G01 X66.1780 Y24.2810
G01 X66.2382 Y24.3474
G01 X66.2916 Y24.4194
G01 X66.3377 Y24.4963
G01 X66.3761 Y24.5774
G01 X66.4063 Y24.6618
G01 X66.4280 Y24.7488
G01 X66.4412 Y24.8375
G01 X66.4455 Y24.9295
G00 Z2.0000
G00 X68.9855 Y24.9295
G01 F60.00
G01 Z-0.0000
G01 F120.00
G01 X68.9812 Y25.0165
G01 X68.9680 Y25.1052
G01 X68.9463 Y25.1922
G01 X68.9161 Y25.2766
G01 X68.8777 Y25.3577
G01 X68.8316 Y25.4346
G01 X68.7782 Y25.5066
G01 X68.7180 Y25.5730
G01 X68.6516 Y25.6332
G01 X68.5796 Y25.6866
G01 X68.5027 Y25.7327
G01 X68.4216 Y25.7711
G01 X68.3372 Y25.8013
G01 X68.2502 Y25.8230
G01 X68.1615 Y25.8362
G01 X68.0720 Y25.8406
G01 X67.9825 Y25.8362
G01 X67.8938 Y25.8230
G01 X67.8068 Y25.8013
G01 X67.7224 Y25.7711
G01 X67.6413 Y25.7327
G01 X67.5644 Y25.6866
G01 X67.4924 Y25.6332
G01 X67.4260 Y25.5730
G01 X67.3658 Y25.5066
G01 X67.3124 Y25.4346
G01 X67.2663 Y25.3577
G01 X67.2279 Y25.2766
G01 X67.1977 Y25.1922
G01 X67.1760 Y25.1052
G01 X67.1628 Y25.0165
G01 X67.1584 Y24.9270
G01 X67.1628 Y24.8375
G01 X67.1760 Y24.7488
G01 X67.1977 Y24.6618
G01 X67.2279 Y24.5774
G01 X67.2663 Y24.4963
G01 X67.3124 Y24.4194
G01 X67.3658 Y24.3474
G01 X67.4260 Y24.2810
G01 X67.4924 Y24.2208
G01 X67.5644 Y24.1674
G01 X67.6413 Y24.1213
G01 X67.7224 Y24.0829
G01 X67.8068 Y24.0527
G01 X67.8938 Y24.0310
G01 X67.9825 Y24.0178
G01 X68.0720 Y24.0134
G01 X68.1615 Y24.0178
G01 X68.2502 Y24.0310
G01 X68.3372 Y24.0527
G01 X68.4216 Y24.0829
G01 X68.5027 Y24.1213
G01 X68.5796 Y24.1674
G01 X68.6516 Y24.2208
G01 X68.7180 Y24.2810
G01 X68.7782 Y24.3474
G01 X68.8316 Y24.4194
G01 X68.8777 Y24.4963
G01 X68.9161 Y24.5774
G01 X68.9463 Y24.6618
G01 X68.9680 Y24.7488
G01 X68.9812 Y24.8375
G01 X68.9855 Y24.9295
G00 Z2.0000
G00 X71.5255 Y24.9295
G01 F60.00
G01 Z-0.0000
G01 F120.00
G01 X71.5212 Y25.0165
G01 X71.5080 Y25.1052
G01 X71.4863 Y25.1922
G01 X71.4561 Y25.2766
G01 X71.4177 Y25.3577
G01 X71.3716 Y25.4346
G01 X71.3182 Y25.5066
G01 X71.2580 Y25.5730
G01 X71.1916 Y25.6332
G01 X71.1196 Y25.6866
G01 X71.0427 Y25.7327
G01 X70.9616 Y25.7711
G01 X70.8772 Y25.8013
G01 X70.7902 Y25.8230
G01 X70.7015 Y25.8362
G01 X70.6120 Y25.8406
G01 X70.5225 Y25.8362
G01 X70.4338 Y25.8230
G01 X70.3468 Y25.8013
G01 X70.2624 Y25.7711
G01 X70.1813 Y25.7327
G01 X70.1044 Y25.6866
G01 X70.0324 Y25.6332
G01 X69.9660 Y25.5730
G01 X69.9058 Y25.5066
G01 X69.8524 Y25.4346
G01 X69.8063 Y25.3577
G01 X69.7679 Y25.2766
G01 X69.7377 Y25.1922
G01 X69.7160 Y25.1052
G01 X69.7028 Y25.0165
G01 X69.6984 Y24.9270
G01 X69.7028 Y24.8375
G01 X69.7160 Y24.7488
G01 X69.7377 Y24.6618
G01 X69.7679 Y24.5774
G01 X69.8063 Y24.4963
G01 X69.8524 Y24.4194
G01 X69.9058 Y24.3474
G01 X69.9660 Y24.2810
G01 X70.0324 Y24.2208
G01 X70.1044 Y24.1674
G01 X70.1813 Y24.1213
G01 X70.2624 Y24.0829
G01 X70.3468 Y24.0527
G01 X70.4338 Y24.0310
G01 X70.5225 Y24.0178
G01 X70.6120 Y24.0134
G01 X70.7015 Y24.0178
G01 X70.7902 Y24.0310
G01 X70.8772 Y24.0527
G01 X70.9616 Y24.0829
G01 X71.0427 Y24.1213
G01 X71.1196 Y24.1674
G01 X71.1916 Y24.2208
G01 X71.2580 Y24.2810
G01 X71.3182 Y24.3474
G01 X71.3716 Y24.4194
G01 X71.4177 Y24.4963
G01 X71.4561 Y24.5774
G01 X71.4863 Y24.6618
G01 X71.5080 Y24.7488
G01 X71.5212 Y24.8375
G01 X71.5255 Y24.9295
G00 Z2.0000
G00 X74.0655 Y24.9295
G01 F60.00
G01 Z-0.0000
G01 F120.00
G01 X74.0612 Y25.0165
G01 X74.0480 Y25.1052
G01 X74.0263 Y25.1922
G01 X73.9961 Y25.2766
G01 X73.9577 Y25.3577
G01 X73.9116 Y25.4346
G01 X73.8582 Y25.5066
G01 X73.7980 Y25.5730
G01 X73.7316 Y25.6332
G01 X73.6596 Y25.6866
G01 X73.5827 Y25.7327
G01 X73.5016 Y25.7711
G01 X73.4172 Y25.8013
G01 X73.3302 Y25.8230
G01 X73.2415 Y25.8362
G01 X73.1520 Y25.8406
G01 X73.0625 Y25.8362
G01 X72.9738 Y25.8230
G01 X72.8868 Y25.8013
G01 X72.8024 Y25.7711
G01 X72.7213 Y25.7327
G01 X72.6444 Y25.6866
G01 X72.5724 Y25.6332
G01 X72.5060 Y25.5730
G01 X72.4458 Y25.5066
G01 X72.3924 Y25.4346
G01 X72.3463 Y25.3577
G01 X72.3079 Y25.2766
G01 X72.2777 Y25.1922
G01 X72.2560 Y25.1052
G01 X72.2428 Y25.0165
G01 X72.2384 Y24.9270
G01 X72.2428 Y24.8375
G01 X72.2560 Y24.7488
G01 X72.2777 Y24.6618
G01 X72.3079 Y24.5774
G01 X72.3463 Y24.4963
G01 X72.3924 Y24.4194
G01 X72.4458 Y24.3474
G01 X72.5060 Y24.2810
G01 X72.5724 Y24.2208
G01 X72.6444 Y24.1674
G01 X72.7213 Y24.1213
G01 X72.8024 Y24.0829
G01 X72.8868 Y24.0527
G01 X72.9738 Y24.0310
G01 X73.0625 Y24.0178
G01 X73.1520 Y24.0134
G01 X73.2415 Y24.0178
G01 X73.3302 Y24.0310
G01 X73.4172 Y24.0527
G01 X73.5016 Y24.0829
G01 X73.5827 Y24.1213
G01 X73.6596 Y24.1674
G01 X73.7316 Y24.2208
G01 X73.7980 Y24.2810
G01 X73.8582 Y24.3474
G01 X73.9116 Y24.4194
G01 X73.9577 Y24.4963
G01 X73.9961 Y24.5774
G01 X74.0263 Y24.6618
G01 X74.0480 Y24.7488
G01 X74.0612 Y24.8375
G01 X74.0655 Y24.9295
G00 Z2.0000
G00 X76.6055 Y24.9295
G01 F60.00
G01 Z-0.0000
G01 F120.00
G01 X76.6012 Y25.0165
G01 X76.5880 Y25.1052
G01 X76.5663 Y25.1922
G01 X76.5361 Y25.2766
G01 X76.4977 Y25.3577
G01 X76.4516 Y25.4346
G01 X76.3982 Y25.5066
G01 X76.3380 Y25.5730
G01 X76.2716 Y25.6332
G01 X76.1996 Y25.6866
G01 X76.1227 Y25.7327
G01 X76.0416 Y25.7711
G01 X75.9572 Y25.8013
G01 X75.8702 Y25.8230
G01 X75.7815 Y25.8362
G01 X75.6920 Y25.8406
G01 X75.6025 Y25.8362
G01 X75.5138 Y25.8230
G01 X75.4268 Y25.8013
G01 X75.3424 Y25.7711
G01 X75.2613 Y25.7327
G01 X75.1844 Y25.6866
G01 X75.1124 Y25.6332
G01 X75.0460 Y25.5730
G01 X74.9858 Y25.5066
G01 X74.9324 Y25.4346
G01 X74.8863 Y25.3577
G01 X74.8479 Y25.2766
G01 X74.8177 Y25.1922
G01 X74.7960 Y25.1052
G01 X74.7828 Y25.0165
G01 X74.7784 Y24.9270
G01 X74.7828 Y24.8375
G01 X74.7960 Y24.7488
G01 X74.8177 Y24.6618
G01 X74.8479 Y24.5774
G01 X74.8863 Y24.4963
G01 X74.9324 Y24.4194
G01 X74.9858 Y24.3474
G01 X75.0460 Y24.2810
G01 X75.1124 Y24.2208
G01 X75.1844 Y24.1674
G01 X75.2613 Y24.1213
G01 X75.3424 Y24.0829
G01 X75.4268 Y24.0527
G01 X75.5138 Y24.0310
G01 X75.6025 Y24.0178
G01 X75.6920 Y24.0134
G01 X75.7815 Y24.0178
G01 X75.8702 Y24.0310
G01 X75.9572 Y24.0527
G01 X76.0416 Y24.0829
G01 X76.1227 Y24.1213
G01 X76.1996 Y24.1674
G01 X76.2716 Y24.2208
G01 X76.3380 Y24.2810
G01 X76.3982 Y24.3474
G01 X76.4516 Y24.4194
G01 X76.4977 Y24.4963
G01 X76.5361 Y24.5774
G01 X76.5663 Y24.6618
G01 X76.5880 Y24.7488
G01 X76.6012 Y24.8375
G01 X76.6055 Y24.9295
G00 Z2.0000
G00 X79.1455 Y24.9295
G01 F60.00
G01 Z-0.0000
G01 F120.00
G01 X79.1412 Y25.0165
G01 X79.1280 Y25.1052
G01 X79.1063 Y25.1922
G01 X79.0761 Y25.2766
G01 X79.0377 Y25.3577
G01 X78.9916 Y25.4346
G01 X78.9382 Y25.5066
G01 X78.8780 Y25.5730
G01 X78.8116 Y25.6332
G01 X78.7396 Y25.6866
G01 X78.6627 Y25.7327
G01 X78.5816 Y25.7711
G01 X78.4972 Y25.8013
G01 X78.4102 Y25.8230
G01 X78.3215 Y25.8362
G01 X78.2320 Y25.8406
G01 X78.1425 Y25.8362
G01 X78.0538 Y25.8230
G01 X77.9668 Y25.8013
G01 X77.8824 Y25.7711
G01 X77.8013 Y25.7327
G01 X77.7244 Y25.6866
G01 X77.6524 Y25.6332
G01 X77.5860 Y25.5730
G01 X77.5258 Y25.5066
G01 X77.4724 Y25.4346
G01 X77.4263 Y25.3577
G01 X77.3879 Y25.2766
G01 X77.3577 Y25.1922
G01 X77.3360 Y25.1052
G01 X77.3228 Y25.0165
G01 X77.3184 Y24.9270
G01 X77.3228 Y24.8375
G01 X77.3360 Y24.7488
G01 X77.3577 Y24.6618
G01 X77.3879 Y24.5774
G01 X77.4263 Y24.4963
G01 X77.4724 Y24.4194
G01 X77.5258 Y24.3474
G01 X77.5860 Y24.2810
G01 X77.6524 Y24.2208
G01 X77.7244 Y24.1674
G01 X77.8013 Y24.1213
G01 X77.8824 Y24.0829
G01 X77.9668 Y24.0527
G01 X78.0538 Y24.0310
G01 X78.1425 Y24.0178
G01 X78.2320 Y24.0134
G01 X78.3215 Y24.0178
G01 X78.4102 Y24.0310
G01 X78.4972 Y24.0527
G01 X78.5816 Y24.0829
G01 X78.6627 Y24.1213
G01 X78.7396 Y24.1674
G01 X78.8116 Y24.2208
G01 X78.8780 Y24.2810
G01 X78.9382 Y24.3474
G01 X78.9916 Y24.4194
G01 X79.0377 Y24.4963
G01 X79.0761 Y24.5774
G01 X79.1063 Y24.6618
G01 X79.1280 Y24.7488
G01 X79.1412 Y24.8375
G01 X79.1455 Y24.9295
G00 Z2.0000
G00 X81.6855 Y24.9295
G01 F60.00
G01 Z-0.0000
G01 F120.00
G01 X81.6812 Y25.0165
G01 X81.6680 Y25.1052
G01 X81.6463 Y25.1922
G01 X81.6161 Y25.2766
G01 X81.5777 Y25.3577
G01 X81.5316 Y25.4346
G01 X81.4782 Y25.5066
G01 X81.4180 Y25.5730
G01 X81.3516 Y25.6332
G01 X81.2796 Y25.6866
G01 X81.2027 Y25.7327
G01 X81.1216 Y25.7711
G01 X81.0372 Y25.8013
G01 X80.9502 Y25.8230
G01 X80.8615 Y25.8362
G01 X80.7720 Y25.8406
G01 X80.6825 Y25.8362
G01 X80.5938 Y25.8230
G01 X80.5068 Y25.8013
G01 X80.4224 Y25.7711
G01 X80.3413 Y25.7327
G01 X80.2644 Y25.6866
G01 X80.1924 Y25.6332
G01 X80.1260 Y25.5730
G01 X80.0658 Y25.5066
G01 X80.0124 Y25.4346
G01 X79.9663 Y25.3577
G01 X79.9279 Y25.2766
G01 X79.8977 Y25.1922
G01 X79.8760 Y25.1052
G01 X79.8628 Y25.0165
G01 X79.8584 Y24.9270
G01 X79.8628 Y24.8375
G01 X79.8760 Y24.7488
G01 X79.8977 Y24.6618
G01 X79.9279 Y24.5774
G01 X79.9663 Y24.4963
G01 X80.0124 Y24.4194
G01 X80.0658 Y24.3474
G01 X80.1260 Y24.2810
G01 X80.1924 Y24.2208
G01 X80.2644 Y24.1674
G01 X80.3413 Y24.1213
G01 X80.4224 Y24.0829
G01 X80.5068 Y24.0527
G01 X80.5938 Y24.0310
G01 X80.6825 Y24.0178
G01 X80.7720 Y24.0134
G01 X80.8615 Y24.0178
G01 X80.9502 Y24.0310
G01 X81.0372 Y24.0527
G01 X81.1216 Y24.0829
G01 X81.2027 Y24.1213
G01 X81.2796 Y24.1674
G01 X81.3516 Y24.2208
G01 X81.4180 Y24.2810
G01 X81.4782 Y24.3474
G01 X81.5316 Y24.4194
G01 X81.5777 Y24.4963
G01 X81.6161 Y24.5774
G01 X81.6463 Y24.6618
G01 X81.6680 Y24.7488
G01 X81.6812 Y24.8375
G01 X81.6855 Y24.9295
G00 Z2.0000
G00 X81.6855 Y47.7895
G01 F60.00
G01 Z-0.0000
G01 F120.00
G01 X81.6812 Y47.8765
G01 X81.6680 Y47.9652
G01 X81.6463 Y48.0522
G01 X81.6161 Y48.1366
G01 X81.5777 Y48.2177
G01 X81.5316 Y48.2946
G01 X81.4782 Y48.3666
G01 X81.4180 Y48.4330
G01 X81.3516 Y48.4932
G01 X81.2796 Y48.5466
G01 X81.2027 Y48.5927
G01 X81.1216 Y48.6311
G01 X81.0372 Y48.6613
G01 X80.9502 Y48.6830
G01 X80.8615 Y48.6962
G01 X80.7720 Y48.7006
G01 X80.6825 Y48.6962
G01 X80.5938 Y48.6830
G01 X80.5068 Y48.6613
G01 X80.4224 Y48.6311
G01 X80.3413 Y48.5927
G01 X80.2644 Y48.5466
G01 X80.1924 Y48.4932
G01 X80.1260 Y48.4330
G01 X80.0658 Y48.3666
G01 X80.0124 Y48.2946
G01 X79.9663 Y48.2177
G01 X79.9279 Y48.1366
G01 X79.8977 Y48.0522
G01 X79.8760 Y47.9652
G01 X79.8628 Y47.8765
G01 X79.8584 Y47.7870
G01 X79.8628 Y47.6975
G01 X79.8760 Y47.6088
G01 X79.8977 Y47.5218
G01 X79.9279 Y47.4374
G01 X79.9663 Y47.3563
G01 X80.0124 Y47.2794
G01 X80.0658 Y47.2074
G01 X80.1260 Y47.1410
G01 X80.1924 Y47.0808
G01 X80.2644 Y47.0274
G01 X80.3413 Y46.9813
G01 X80.4224 Y46.9429
G01 X80.5068 Y46.9127
G01 X80.5938 Y46.8910
G01 X80.6825 Y46.8778
G01 X80.7720 Y46.8734
G01 X80.8615 Y46.8778
G01 X80.9502 Y46.8910
G01 X81.0372 Y46.9127
G01 X81.1216 Y46.9429
G01 X81.2027 Y46.9813
G01 X81.2796 Y47.0274
G01 X81.3516 Y47.0808
G01 X81.4180 Y47.1410
G01 X81.4782 Y47.2074
G01 X81.5316 Y47.2794
G01 X81.5777 Y47.3563
G01 X81.6161 Y47.4374
G01 X81.6463 Y47.5218
G01 X81.6680 Y47.6088
G01 X81.6812 Y47.6975
G01 X81.6855 Y47.7895
G00 Z2.0000
G00 X79.1455 Y47.7895
G01 F60.00
G01 Z-0.0000
G01 F120.00
G01 X79.1412 Y47.8765
G01 X79.1280 Y47.9652
G01 X79.1063 Y48.0522
G01 X79.0761 Y48.1366
G01 X79.0377 Y48.2177
G01 X78.9916 Y48.2946
G01 X78.9382 Y48.3666
G01 X78.8780 Y48.4330
G01 X78.8116 Y48.4932
G01 X78.7396 Y48.5466
G01 X78.6627 Y48.5927
G01 X78.5816 Y48.6311
G01 X78.4972 Y48.6613
G01 X78.4102 Y48.6830
G01 X78.3215 Y48.6962
G01 X78.2320 Y48.7006
G01 X78.1425 Y48.6962
G01 X78.0538 Y48.6830
G01 X77.9668 Y48.6613
G01 X77.8824 Y48.6311
G01 X77.8013 Y48.5927
G01 X77.7244 Y48.5466
G01 X77.6524 Y48.4932
G01 X77.5860 Y48.4330
G01 X77.5258 Y48.3666
G01 X77.4724 Y48.2946
G01 X77.4263 Y48.2177
G01 X77.3879 Y48.1366
G01 X77.3577 Y48.0522
G01 X77.3360 Y47.9652
G01 X77.3228 Y47.8765
G01 X77.3184 Y47.7870
G01 X77.3228 Y47.6975
G01 X77.3360 Y47.6088
G01 X77.3577 Y47.5218
G01 X77.3879 Y47.4374
G01 X77.4263 Y47.3563
G01 X77.4724 Y47.2794
G01 X77.5258 Y47.2074
G01 X77.5860 Y47.1410
G01 X77.6524 Y47.0808
G01 X77.7244 Y47.0274
G01 X77.8013 Y46.9813
G01 X77.8824 Y46.9429
G01 X77.9668 Y46.9127
G01 X78.0538 Y46.8910
G01 X78.1425 Y46.8778
G01 X78.2320 Y46.8734
G01 X78.3215 Y46.8778
G01 X78.4102 Y46.8910
G01 X78.4972 Y46.9127
G01 X78.5816 Y46.9429
G01 X78.6627 Y46.9813
G01 X78.7396 Y47.0274
G01 X78.8116 Y47.0808
G01 X78.8780 Y47.1410
G01 X78.9382 Y47.2074
G01 X78.9916 Y47.2794
G01 X79.0377 Y47.3563
G01 X79.0761 Y47.4374
G01 X79.1063 Y47.5218
G01 X79.1280 Y47.6088
G01 X79.1412 Y47.6975
G01 X79.1455 Y47.7895
G00 Z2.0000
G00 X76.6055 Y47.7895
G01 F60.00
G01 Z-0.0000
G01 F120.00
G01 X76.6012 Y47.8765
G01 X76.5880 Y47.9652
G01 X76.5663 Y48.0522
G01 X76.5361 Y48.1366
G01 X76.4977 Y48.2177
G01 X76.4516 Y48.2946
G01 X76.3982 Y48.3666
G01 X76.3380 Y48.4330
G01 X76.2716 Y48.4932
G01 X76.1996 Y48.5466
G01 X76.1227 Y48.5927
G01 X76.0416 Y48.6311
G01 X75.9572 Y48.6613
G01 X75.8702 Y48.6830
G01 X75.7815 Y48.6962
G01 X75.6920 Y48.7006
G01 X75.6025 Y48.6962
G01 X75.5138 Y48.6830
G01 X75.4268 Y48.6613
G01 X75.3424 Y48.6311
G01 X75.2613 Y48.5927
G01 X75.1844 Y48.5466
G01 X75.1124 Y48.4932
G01 X75.0460 Y48.4330
G01 X74.9858 Y48.3666
G01 X74.9324 Y48.2946
G01 X74.8863 Y48.2177
G01 X74.8479 Y48.1366
G01 X74.8177 Y48.0522
G01 X74.7960 Y47.9652
G01 X74.7828 Y47.8765
G01 X74.7784 Y47.7870
G01 X74.7828 Y47.6975
G01 X74.7960 Y47.6088
G01 X74.8177 Y47.5218
G01 X74.8479 Y47.4374
G01 X74.8863 Y47.3563
G01 X74.9324 Y47.2794
G01 X74.9858 Y47.2074
G01 X75.0460 Y47.1410
G01 X75.1124 Y47.0808
G01 X75.1844 Y47.0274
G01 X75.2613 Y46.9813
G01 X75.3424 Y46.9429
G01 X75.4268 Y46.9127
G01 X75.5138 Y46.8910
G01 X75.6025 Y46.8778
G01 X75.6920 Y46.8734
G01 X75.7815 Y46.8778
G01 X75.8702 Y46.8910
G01 X75.9572 Y46.9127
G01 X76.0416 Y46.9429
G01 X76.1227 Y46.9813
G01 X76.1996 Y47.0274
G01 X76.2716 Y47.0808
G01 X76.3380 Y47.1410
G01 X76.3982 Y47.2074
G01 X76.4516 Y47.2794
G01 X76.4977 Y47.3563
G01 X76.5361 Y47.4374
G01 X76.5663 Y47.5218
G01 X76.5880 Y47.6088
G01 X76.6012 Y47.6975
G01 X76.6055 Y47.7895
G00 Z2.0000
G00 X74.0655 Y47.7895
G01 F60.00
G01 Z-0.0000
G01 F120.00
G01 X74.0612 Y47.8765
G01 X74.0480 Y47.9652
G01 X74.0263 Y48.0522
G01 X73.9961 Y48.1366
G01 X73.9577 Y48.2177
G01 X73.9116 Y48.2946
G01 X73.8582 Y48.3666
G01 X73.7980 Y48.4330
G01 X73.7316 Y48.4932
G01 X73.6596 Y48.5466
G01 X73.5827 Y48.5927
G01 X73.5016 Y48.6311
G01 X73.4172 Y48.6613
G01 X73.3302 Y48.6830
G01 X73.2415 Y48.6962
G01 X73.1520 Y48.7006
G01 X73.0625 Y48.6962
G01 X72.9738 Y48.6830
G01 X72.8868 Y48.6613
G01 X72.8024 Y48.6311
G01 X72.7213 Y48.5927
G01 X72.6444 Y48.5466
G01 X72.5724 Y48.4932
G01 X72.5060 Y48.4330
G01 X72.4458 Y48.3666
G01 X72.3924 Y48.2946
G01 X72.3463 Y48.2177
G01 X72.3079 Y48.1366
G01 X72.2777 Y48.0522
G01 X72.2560 Y47.9652
G01 X72.2428 Y47.8765
G01 X72.2384 Y47.7870
G01 X72.2428 Y47.6975
G01 X72.2560 Y47.6088
G01 X72.2777 Y47.5218
G01 X72.3079 Y47.4374
G01 X72.3463 Y47.3563
G01 X72.3924 Y47.2794
G01 X72.4458 Y47.2074
G01 X72.5060 Y47.1410
G01 X72.5724 Y47.0808
G01 X72.6444 Y47.0274
G01 X72.7213 Y46.9813
G01 X72.8024 Y46.9429
G01 X72.8868 Y46.9127
G01 X72.9738 Y46.8910
G01 X73.0625 Y46.8778
G01 X73.1520 Y46.8734
G01 X73.2415 Y46.8778
G01 X73.3302 Y46.8910
G01 X73.4172 Y46.9127
G01 X73.5016 Y46.9429
G01 X73.5827 Y46.9813
G01 X73.6596 Y47.0274
G01 X73.7316 Y47.0808
G01 X73.7980 Y47.1410
G01 X73.8582 Y47.2074
G01 X73.9116 Y47.2794
G01 X73.9577 Y47.3563
G01 X73.9961 Y47.4374
G01 X74.0263 Y47.5218
G01 X74.0480 Y47.6088
G01 X74.0612 Y47.6975
G01 X74.0655 Y47.7895
G00 Z2.0000
G00 X71.5255 Y47.7895
G01 F60.00
G01 Z-0.0000
G01 F120.00
G01 X71.5212 Y47.8765
G01 X71.5080 Y47.9652
G01 X71.4863 Y48.0522
G01 X71.4561 Y48.1366
G01 X71.4177 Y48.2177
G01 X71.3716 Y48.2946
G01 X71.3182 Y48.3666
G01 X71.2580 Y48.4330
G01 X71.1916 Y48.4932
G01 X71.1196 Y48.5466
G01 X71.0427 Y48.5927
G01 X70.9616 Y48.6311
G01 X70.8772 Y48.6613
G01 X70.7902 Y48.6830
G01 X70.7015 Y48.6962
G01 X70.6120 Y48.7006
G01 X70.5225 Y48.6962
G01 X70.4338 Y48.6830
G01 X70.3468 Y48.6613
G01 X70.2624 Y48.6311
G01 X70.1813 Y48.5927
G01 X70.1044 Y48.5466
G01 X70.0324 Y48.4932
G01 X69.9660 Y48.4330
G01 X69.9058 Y48.3666
G01 X69.8524 Y48.2946
G01 X69.8063 Y48.2177
G01 X69.7679 Y48.1366
G01 X69.7377 Y48.0522
G01 X69.7160 Y47.9652
G01 X69.7028 Y47.8765
G01 X69.6984 Y47.7870
G01 X69.7028 Y47.6975
G01 X69.7160 Y47.6088
G01 X69.7377 Y47.5218
G01 X69.7679 Y47.4374
G01 X69.8063 Y47.3563
G01 X69.8524 Y47.2794
G01 X69.9058 Y47.2074
G01 X69.9660 Y47.1410
G01 X70.0324 Y47.0808
G01 X70.1044 Y47.0274
G01 X70.1813 Y46.9813
G01 X70.2624 Y46.9429
G01 X70.3468 Y46.9127
G01 X70.4338 Y46.8910
G01 X70.5225 Y46.8778
G01 X70.6120 Y46.8734
G01 X70.7015 Y46.8778
G01 X70.7902 Y46.8910
G01 X70.8772 Y46.9127
G01 X70.9616 Y46.9429
G01 X71.0427 Y46.9813
G01 X71.1196 Y47.0274
G01 X71.1916 Y47.0808
G01 X71.2580 Y47.1410
G01 X71.3182 Y47.2074
G01 X71.3716 Y47.2794
G01 X71.4177 Y47.3563
G01 X71.4561 Y47.4374
G01 X71.4863 Y47.5218
G01 X71.5080 Y47.6088
G01 X71.5212 Y47.6975
G01 X71.5255 Y47.7895
G00 Z2.0000
G00 X68.9855 Y47.7895
G01 F60.00
G01 Z-0.0000
G01 F120.00
G01 X68.9812 Y47.8765
G01 X68.9680 Y47.9652
G01 X68.9463 Y48.0522
G01 X68.9161 Y48.1366
G01 X68.8777 Y48.2177
G01 X68.8316 Y48.2946
G01 X68.7782 Y48.3666
G01 X68.7180 Y48.4330
G01 X68.6516 Y48.4932
G01 X68.5796 Y48.5466
G01 X68.5027 Y48.5927
G01 X68.4216 Y48.6311
G01 X68.3372 Y48.6613
G01 X68.2502 Y48.6830
G01 X68.1615 Y48.6962
G01 X68.0720 Y48.7006
G01 X67.9825 Y48.6962
G01 X67.8938 Y48.6830
G01 X67.8068 Y48.6613
G01 X67.7224 Y48.6311
G01 X67.6413 Y48.5927
G01 X67.5644 Y48.5466
G01 X67.4924 Y48.4932
G01 X67.4260 Y48.4330
G01 X67.3658 Y48.3666
G01 X67.3124 Y48.2946
G01 X67.2663 Y48.2177
G01 X67.2279 Y48.1366
G01 X67.1977 Y48.0522
G01 X67.1760 Y47.9652
G01 X67.1628 Y47.8765
G01 X67.1584 Y47.7870
G01 X67.1628 Y47.6975
G01 X67.1760 Y47.6088
G01 X67.1977 Y47.5218
G01 X67.2279 Y47.4374
G01 X67.2663 Y47.3563
G01 X67.3124 Y47.2794
G01 X67.3658 Y47.2074
G01 X67.4260 Y47.1410
G01 X67.4924 Y47.0808
G01 X67.5644 Y47.0274
G01 X67.6413 Y46.9813
G01 X67.7224 Y46.9429
G01 X67.8068 Y46.9127
G01 X67.8938 Y46.8910
G01 X67.9825 Y46.8778
G01 X68.0720 Y46.8734
G01 X68.1615 Y46.8778
G01 X68.2502 Y46.8910
G01 X68.3372 Y46.9127
G01 X68.4216 Y46.9429
G01 X68.5027 Y46.9813
G01 X68.5796 Y47.0274
G01 X68.6516 Y47.0808
G01 X68.7180 Y47.1410
G01 X68.7782 Y47.2074
G01 X68.8316 Y47.2794
G01 X68.8777 Y47.3563
G01 X68.9161 Y47.4374
G01 X68.9463 Y47.5218
G01 X68.9680 Y47.6088
G01 X68.9812 Y47.6975
G01 X68.9855 Y47.7895
G00 Z2.0000
G00 X66.4455 Y47.7895
G01 F60.00
G01 Z-0.0000
G01 F120.00
G01 X66.4412 Y47.8765
G01 X66.4280 Y47.9652
G01 X66.4063 Y48.0522
G01 X66.3761 Y48.1366
G01 X66.3377 Y48.2177
G01 X66.2916 Y48.2946
G01 X66.2382 Y48.3666
G01 X66.1780 Y48.4330
G01 X66.1116 Y48.4932
G01 X66.0396 Y48.5466
G01 X65.9627 Y48.5927
G01 X65.8816 Y48.6311
G01 X65.7972 Y48.6613
G01 X65.7102 Y48.6830
G01 X65.6215 Y48.6962
G01 X65.5320 Y48.7006
G01 X65.4425 Y48.6962
G01 X65.3538 Y48.6830
G01 X65.2668 Y48.6613
G01 X65.1824 Y48.6311
G01 X65.1013 Y48.5927
G01 X65.0244 Y48.5466
G01 X64.9524 Y48.4932
G01 X64.8860 Y48.4330
G01 X64.8258 Y48.3666
G01 X64.7724 Y48.2946
G01 X64.7263 Y48.2177
G01 X64.6879 Y48.1366
G01 X64.6577 Y48.0522
G01 X64.6360 Y47.9652
G01 X64.6228 Y47.8765
G01 X64.6184 Y47.7870
G01 X64.6228 Y47.6975
G01 X64.6360 Y47.6088
G01 X64.6577 Y47.5218
G01 X64.6879 Y47.4374
G01 X64.7263 Y47.3563
G01 X64.7724 Y47.2794
G01 X64.8258 Y47.2074
G01 X64.8860 Y47.1410
G01 X64.9524 Y47.0808
G01 X65.0244 Y47.0274
G01 X65.1013 Y46.9813
G01 X65.1824 Y46.9429
G01 X65.2668 Y46.9127
G01 X65.3538 Y46.8910
G01 X65.4425 Y46.8778
G01 X65.5320 Y46.8734
G01 X65.6215 Y46.8778
G01 X65.7102 Y46.8910
G01 X65.7972 Y46.9127
G01 X65.8816 Y46.9429
G01 X65.9627 Y46.9813
G01 X66.0396 Y47.0274
G01 X66.1116 Y47.0808
G01 X66.1780 Y47.1410
G01 X66.2382 Y47.2074
G01 X66.2916 Y47.2794
G01 X66.3377 Y47.3563
G01 X66.3761 Y47.4374
G01 X66.4063 Y47.5218
G01 X66.4280 Y47.6088
G01 X66.4412 Y47.6975
G01 X66.4455 Y47.7895
G00 Z2.0000
G00 X63.9055 Y47.7895
G01 F60.00
G01 Z-0.0000
G01 F120.00
G01 X63.9012 Y47.8765
G01 X63.8880 Y47.9652
G01 X63.8663 Y48.0522
G01 X63.8361 Y48.1366
G01 X63.7977 Y48.2177
G01 X63.7516 Y48.2946
G01 X63.6982 Y48.3666
G01 X63.6380 Y48.4330
G01 X63.5716 Y48.4932
G01 X63.4996 Y48.5466
G01 X63.4227 Y48.5927
G01 X63.3416 Y48.6311
G01 X63.2572 Y48.6613
G01 X63.1702 Y48.6830
G01 X63.0815 Y48.6962
G01 X62.9920 Y48.7006
G01 X62.9025 Y48.6962
G01 X62.8138 Y48.6830
G01 X62.7268 Y48.6613
G01 X62.6424 Y48.6311
G01 X62.5613 Y48.5927
G01 X62.4844 Y48.5466
G01 X62.4124 Y48.4932
G01 X62.3460 Y48.4330
G01 X62.2858 Y48.3666
G01 X62.2324 Y48.2946
G01 X62.1863 Y48.2177
G01 X62.1479 Y48.1366
G01 X62.1177 Y48.0522
G01 X62.0960 Y47.9652
G01 X62.0828 Y47.8765
G01 X62.0784 Y47.7870
G01 X62.0828 Y47.6975
G01 X62.0960 Y47.6088
G01 X62.1177 Y47.5218
G01 X62.1479 Y47.4374
G01 X62.1863 Y47.3563
G01 X62.2324 Y47.2794
G01 X62.2858 Y47.2074
G01 X62.3460 Y47.1410
G01 X62.4124 Y47.0808
G01 X62.4844 Y47.0274
G01 X62.5613 Y46.9813
G01 X62.6424 Y46.9429
G01 X62.7268 Y46.9127
G01 X62.8138 Y46.8910
G01 X62.9025 Y46.8778
G01 X62.9920 Y46.8734
G01 X63.0815 Y46.8778
G01 X63.1702 Y46.8910
G01 X63.2572 Y46.9127
G01 X63.3416 Y46.9429
G01 X63.4227 Y46.9813
G01 X63.4996 Y47.0274
G01 X63.5716 Y47.0808
G01 X63.6380 Y47.1410
G01 X63.6982 Y47.2074
G01 X63.7516 Y47.2794
G01 X63.7977 Y47.3563
G01 X63.8361 Y47.4374
G01 X63.8663 Y47.5218
G01 X63.8880 Y47.6088
G01 X63.9012 Y47.6975
G01 X63.9055 Y47.7895
G00 Z2.0000
G00 X61.3655 Y47.7895
G01 F60.00
G01 Z-0.0000
G01 F120.00
G01 X61.3612 Y47.8765
G01 X61.3480 Y47.9652
G01 X61.3263 Y48.0522
G01 X61.2961 Y48.1366
G01 X61.2577 Y48.2177
G01 X61.2116 Y48.2946
G01 X61.1582 Y48.3666
G01 X61.0980 Y48.4330
G01 X61.0316 Y48.4932
G01 X60.9596 Y48.5466
G01 X60.8827 Y48.5927
G01 X60.8016 Y48.6311
G01 X60.7172 Y48.6613
G01 X60.6302 Y48.6830
G01 X60.5415 Y48.6962
G01 X60.4520 Y48.7006
G01 X60.3625 Y48.6962
G01 X60.2738 Y48.6830
G01 X60.1868 Y48.6613
G01 X60.1024 Y48.6311
G01 X60.0213 Y48.5927
G01 X59.9444 Y48.5466
G01 X59.8724 Y48.4932
G01 X59.8060 Y48.4330
G01 X59.7458 Y48.3666
G01 X59.6924 Y48.2946
G01 X59.6463 Y48.2177
G01 X59.6079 Y48.1366
G01 X59.5777 Y48.0522
G01 X59.5560 Y47.9652
G01 X59.5428 Y47.8765
G01 X59.5384 Y47.7870
G01 X59.5428 Y47.6975
G01 X59.5560 Y47.6088
G01 X59.5777 Y47.5218
G01 X59.6079 Y47.4374
G01 X59.6463 Y47.3563
G01 X59.6924 Y47.2794
G01 X59.7458 Y47.2074
G01 X59.8060 Y47.1410
G01 X59.8724 Y47.0808
G01 X59.9444 Y47.0274
G01 X60.0213 Y46.9813
G01 X60.1024 Y46.9429
G01 X60.1868 Y46.9127
G01 X60.2738 Y46.8910
G01 X60.3625 Y46.8778
G01 X60.4520 Y46.8734
G01 X60.5415 Y46.8778
G01 X60.6302 Y46.8910
G01 X60.7172 Y46.9127
G01 X60.8016 Y46.9429
G01 X60.8827 Y46.9813
G01 X60.9596 Y47.0274
G01 X61.0316 Y47.0808
G01 X61.0980 Y47.1410
G01 X61.1582 Y47.2074
G01 X61.2116 Y47.2794
G01 X61.2577 Y47.3563
G01 X61.2961 Y47.4374
G01 X61.3263 Y47.5218
G01 X61.3480 Y47.6088
G01 X61.3612 Y47.6975
G01 X61.3655 Y47.7895
G00 Z2.0000
G00 X58.8255 Y47.7895
G01 F60.00
G01 Z-0.0000
G01 F120.00
G01 X58.8212 Y47.8765
G01 X58.8080 Y47.9652
G01 X58.7863 Y48.0522
G01 X58.7561 Y48.1366
G01 X58.7177 Y48.2177
G01 X58.6716 Y48.2946
G01 X58.6182 Y48.3666
G01 X58.5580 Y48.4330
G01 X58.4916 Y48.4932
G01 X58.4196 Y48.5466
G01 X58.3427 Y48.5927
G01 X58.2616 Y48.6311
G01 X58.1772 Y48.6613
G01 X58.0902 Y48.6830
G01 X58.0015 Y48.6962
G01 X57.9120 Y48.7006
G01 X57.8225 Y48.6962
G01 X57.7338 Y48.6830
G01 X57.6468 Y48.6613
G01 X57.5624 Y48.6311
G01 X57.4813 Y48.5927
G01 X57.4044 Y48.5466
G01 X57.3324 Y48.4932
G01 X57.2660 Y48.4330
G01 X57.2058 Y48.3666
G01 X57.1524 Y48.2946
G01 X57.1063 Y48.2177
G01 X57.0679 Y48.1366
G01 X57.0377 Y48.0522
G01 X57.0160 Y47.9652
G01 X57.0028 Y47.8765
G01 X56.9984 Y47.7870
G01 X57.0028 Y47.6975
G01 X57.0160 Y47.6088
G01 X57.0377 Y47.5218
G01 X57.0679 Y47.4374
G01 X57.1063 Y47.3563
G01 X57.1524 Y47.2794
G01 X57.2058 Y47.2074
G01 X57.2660 Y47.1410
G01 X57.3324 Y47.0808
G01 X57.4044 Y47.0274
G01 X57.4813 Y46.9813
G01 X57.5624 Y46.9429
G01 X57.6468 Y46.9127
G01 X57.7338 Y46.8910
G01 X57.8225 Y46.8778
G01 X57.9120 Y46.8734
G01 X58.0015 Y46.8778
G01 X58.0902 Y46.8910
G01 X58.1772 Y46.9127
G01 X58.2616 Y46.9429
G01 X58.3427 Y46.9813
G01 X58.4196 Y47.0274
G01 X58.4916 Y47.0808
G01 X58.5580 Y47.1410
G01 X58.6182 Y47.2074
G01 X58.6716 Y47.2794
G01 X58.7177 Y47.3563
G01 X58.7561 Y47.4374
G01 X58.7863 Y47.5218
G01 X58.8080 Y47.6088
G01 X58.8212 Y47.6975
G01 X58.8255 Y47.7895
G00 Z2.0000
G00 X56.2855 Y47.7895
G01 F60.00
G01 Z-0.0000
G01 F120.00
G01 X56.2812 Y47.8765
G01 X56.2680 Y47.9652
G01 X56.2463 Y48.0522
G01 X56.2161 Y48.1366
G01 X56.1777 Y48.2177
G01 X56.1316 Y48.2946
G01 X56.0782 Y48.3666
G01 X56.0180 Y48.4330
G01 X55.9516 Y48.4932
G01 X55.8796 Y48.5466
G01 X55.8027 Y48.5927
G01 X55.7216 Y48.6311
G01 X55.6372 Y48.6613
G01 X55.5502 Y48.6830
G01 X55.4615 Y48.6962
G01 X55.3720 Y48.7006
G01 X55.2825 Y48.6962
G01 X55.1938 Y48.6830
G01 X55.1068 Y48.6613
G01 X55.0224 Y48.6311
G01 X54.9413 Y48.5927
G01 X54.8644 Y48.5466
G01 X54.7924 Y48.4932
G01 X54.7260 Y48.4330
G01 X54.6658 Y48.3666
G01 X54.6124 Y48.2946
G01 X54.5663 Y48.2177
G01 X54.5279 Y48.1366
G01 X54.4977 Y48.0522
G01 X54.4760 Y47.9652
G01 X54.4628 Y47.8765
G01 X54.4584 Y47.7870
G01 X54.4628 Y47.6975
G01 X54.4760 Y47.6088
G01 X54.4977 Y47.5218
G01 X54.5279 Y47.4374
G01 X54.5663 Y47.3563
G01 X54.6124 Y47.2794
G01 X54.6658 Y47.2074
G01 X54.7260 Y47.1410
G01 X54.7924 Y47.0808
G01 X54.8644 Y47.0274
G01 X54.9413 Y46.9813
G01 X55.0224 Y46.9429
G01 X55.1068 Y46.9127
G01 X55.1938 Y46.8910
G01 X55.2825 Y46.8778
G01 X55.3720 Y46.8734
G01 X55.4615 Y46.8778
G01 X55.5502 Y46.8910
G01 X55.6372 Y46.9127
G01 X55.7216 Y46.9429
G01 X55.8027 Y46.9813
G01 X55.8796 Y47.0274
G01 X55.9516 Y47.0808
G01 X56.0180 Y47.1410
G01 X56.0782 Y47.2074
G01 X56.1316 Y47.2794
G01 X56.1777 Y47.3563
G01 X56.2161 Y47.4374
G01 X56.2463 Y47.5218
G01 X56.2680 Y47.6088
G01 X56.2812 Y47.6975
G01 X56.2855 Y47.7895
G00 Z2.0000
G00 X53.7455 Y47.7895
G01 F60.00
G01 Z-0.0000
G01 F120.00
G01 X53.7412 Y47.8765
G01 X53.7280 Y47.9652
G01 X53.7063 Y48.0522
G01 X53.6761 Y48.1366
G01 X53.6377 Y48.2177
G01 X53.5916 Y48.2946
G01 X53.5382 Y48.3666
G01 X53.4780 Y48.4330
G01 X53.4116 Y48.4932
G01 X53.3396 Y48.5466
G01 X53.2627 Y48.5927
G01 X53.1816 Y48.6311
G01 X53.0972 Y48.6613
G01 X53.0102 Y48.6830
G01 X52.9215 Y48.6962
G01 X52.8320 Y48.7006
G01 X52.7425 Y48.6962
G01 X52.6538 Y48.6830
G01 X52.5668 Y48.6613
G01 X52.4824 Y48.6311
G01 X52.4013 Y48.5927
G01 X52.3244 Y48.5466
G01 X52.2524 Y48.4932
G01 X52.1860 Y48.4330
G01 X52.1258 Y48.3666
G01 X52.0724 Y48.2946
G01 X52.0263 Y48.2177
G01 X51.9879 Y48.1366
G01 X51.9577 Y48.0522
G01 X51.9360 Y47.9652
G01 X51.9228 Y47.8765
G01 X51.9184 Y47.7870
G01 X51.9228 Y47.6975
G01 X51.9360 Y47.6088
G01 X51.9577 Y47.5218
G01 X51.9879 Y47.4374
G01 X52.0263 Y47.3563
G01 X52.0724 Y47.2794
G01 X52.1258 Y47.2074
G01 X52.1860 Y47.1410
G01 X52.2524 Y47.0808
G01 X52.3244 Y47.0274
G01 X52.4013 Y46.9813
G01 X52.4824 Y46.9429
G01 X52.5668 Y46.9127
G01 X52.6538 Y46.8910
G01 X52.7425 Y46.8778
G01 X52.8320 Y46.8734
G01 X52.9215 Y46.8778
G01 X53.0102 Y46.8910
G01 X53.0972 Y46.9127
G01 X53.1816 Y46.9429
G01 X53.2627 Y46.9813
G01 X53.3396 Y47.0274
G01 X53.4116 Y47.0808
G01 X53.4780 Y47.1410
G01 X53.5382 Y47.2074
G01 X53.5916 Y47.2794
G01 X53.6377 Y47.3563
G01 X53.6761 Y47.4374
G01 X53.7063 Y47.5218
G01 X53.7280 Y47.6088
G01 X53.7412 Y47.6975
G01 X53.7455 Y47.7895
G00 Z2.0000
G00 X51.2055 Y47.7895
G01 F60.00
G01 Z-0.0000
G01 F120.00
G01 X51.2012 Y47.8765
G01 X51.1880 Y47.9652
G01 X51.1663 Y48.0522
G01 X51.1361 Y48.1366
G01 X51.0977 Y48.2177
G01 X51.0516 Y48.2946
G01 X50.9982 Y48.3666
G01 X50.9380 Y48.4330
G01 X50.8716 Y48.4932
G01 X50.7996 Y48.5466
G01 X50.7227 Y48.5927
G01 X50.6416 Y48.6311
G01 X50.5572 Y48.6613
G01 X50.4702 Y48.6830
G01 X50.3815 Y48.6962
G01 X50.2920 Y48.7006
G01 X50.2025 Y48.6962
G01 X50.1138 Y48.6830
G01 X50.0268 Y48.6613
G01 X49.9424 Y48.6311
G01 X49.8613 Y48.5927
G01 X49.7844 Y48.5466
G01 X49.7124 Y48.4932
G01 X49.6460 Y48.4330
G01 X49.5858 Y48.3666
G01 X49.5324 Y48.2946
G01 X49.4863 Y48.2177
G01 X49.4479 Y48.1366
G01 X49.4177 Y48.0522
G01 X49.3960 Y47.9652
G01 X49.3828 Y47.8765
G01 X49.3784 Y47.7870
G01 X49.3828 Y47.6975
G01 X49.3960 Y47.6088
G01 X49.4177 Y47.5218
G01 X49.4479 Y47.4374
G01 X49.4863 Y47.3563
G01 X49.5324 Y47.2794
G01 X49.5858 Y47.2074
G01 X49.6460 Y47.1410
G01 X49.7124 Y47.0808
G01 X49.7844 Y47.0274
G01 X49.8613 Y46.9813
G01 X49.9424 Y46.9429
G01 X50.0268 Y46.9127
G01 X50.1138 Y46.8910
G01 X50.2025 Y46.8778
G01 X50.2920 Y46.8734
G01 X50.3815 Y46.8778
G01 X50.4702 Y46.8910
G01 X50.5572 Y46.9127
G01 X50.6416 Y46.9429
G01 X50.7227 Y46.9813
G01 X50.7996 Y47.0274
G01 X50.8716 Y47.0808
G01 X50.9380 Y47.1410
G01 X50.9982 Y47.2074
G01 X51.0516 Y47.2794
G01 X51.0977 Y47.3563
G01 X51.1361 Y47.4374
G01 X51.1663 Y47.5218
G01 X51.1880 Y47.6088
G01 X51.2012 Y47.6975
G01 X51.2055 Y47.7895
G00 Z2.0000
G00 X48.6655 Y47.7895
G01 F60.00
G01 Z-0.0000
G01 F120.00
G01 X48.6612 Y47.8765
G01 X48.6480 Y47.9652
G01 X48.6263 Y48.0522
G01 X48.5961 Y48.1366
G01 X48.5577 Y48.2177
G01 X48.5116 Y48.2946
G01 X48.4582 Y48.3666
G01 X48.3980 Y48.4330
G01 X48.3316 Y48.4932
G01 X48.2596 Y48.5466
G01 X48.1827 Y48.5927
G01 X48.1016 Y48.6311
G01 X48.0172 Y48.6613
G01 X47.9302 Y48.6830
G01 X47.8415 Y48.6962
G01 X47.7520 Y48.7006
G01 X47.6625 Y48.6962
G01 X47.5738 Y48.6830
G01 X47.4868 Y48.6613
G01 X47.4024 Y48.6311
G01 X47.3213 Y48.5927
G01 X47.2444 Y48.5466
G01 X47.1724 Y48.4932
G01 X47.1060 Y48.4330
G01 X47.0458 Y48.3666
G01 X46.9924 Y48.2946
G01 X46.9463 Y48.2177
G01 X46.9079 Y48.1366
G01 X46.8777 Y48.0522
G01 X46.8560 Y47.9652
G01 X46.8428 Y47.8765
G01 X46.8384 Y47.7870
G01 X46.8428 Y47.6975
G01 X46.8560 Y47.6088
G01 X46.8777 Y47.5218
G01 X46.9079 Y47.4374
G01 X46.9463 Y47.3563
G01 X46.9924 Y47.2794
G01 X47.0458 Y47.2074
G01 X47.1060 Y47.1410
G01 X47.1724 Y47.0808
G01 X47.2444 Y47.0274
G01 X47.3213 Y46.9813
G01 X47.4024 Y46.9429
G01 X47.4868 Y46.9127
G01 X47.5738 Y46.8910
G01 X47.6625 Y46.8778
G01 X47.7520 Y46.8734
G01 X47.8415 Y46.8778
G01 X47.9302 Y46.8910
G01 X48.0172 Y46.9127
G01 X48.1016 Y46.9429
G01 X48.1827 Y46.9813
G01 X48.2596 Y47.0274
G01 X48.3316 Y47.0808
G01 X48.3980 Y47.1410
G01 X48.4582 Y47.2074
G01 X48.5116 Y47.2794
G01 X48.5577 Y47.3563
G01 X48.5961 Y47.4374
G01 X48.6263 Y47.5218
G01 X48.6480 Y47.6088
G01 X48.6612 Y47.6975
G01 X48.6655 Y47.7895
G00 Z2.0000
G00 X46.1255 Y47.7895
G01 F60.00
G01 Z-0.0000
G01 F120.00
G01 X46.1212 Y47.8765
G01 X46.1080 Y47.9652
G01 X46.0863 Y48.0522
G01 X46.0561 Y48.1366
G01 X46.0177 Y48.2177
G01 X45.9716 Y48.2946
G01 X45.9182 Y48.3666
G01 X45.8580 Y48.4330
G01 X45.7916 Y48.4932
G01 X45.7196 Y48.5466
G01 X45.6427 Y48.5927
G01 X45.5616 Y48.6311
G01 X45.4772 Y48.6613
G01 X45.3902 Y48.6830
G01 X45.3015 Y48.6962
G01 X45.2120 Y48.7006
G01 X45.1225 Y48.6962
G01 X45.0338 Y48.6830
G01 X44.9468 Y48.6613
G01 X44.8624 Y48.6311
G01 X44.7813 Y48.5927
G01 X44.7044 Y48.5466
G01 X44.6324 Y48.4932
G01 X44.5660 Y48.4330
G01 X44.5058 Y48.3666
G01 X44.4524 Y48.2946
G01 X44.4063 Y48.2177
G01 X44.3679 Y48.1366
G01 X44.3377 Y48.0522
G01 X44.3160 Y47.9652
G01 X44.3028 Y47.8765
G01 X44.2984 Y47.7870
G01 X44.3028 Y47.6975
G01 X44.3160 Y47.6088
G01 X44.3377 Y47.5218
G01 X44.3679 Y47.4374
G01 X44.4063 Y47.3563
G01 X44.4524 Y47.2794
G01 X44.5058 Y47.2074
G01 X44.5660 Y47.1410
G01 X44.6324 Y47.0808
G01 X44.7044 Y47.0274
G01 X44.7813 Y46.9813
G01 X44.8624 Y46.9429
G01 X44.9468 Y46.9127
G01 X45.0338 Y46.8910
G01 X45.1225 Y46.8778
G01 X45.2120 Y46.8734
G01 X45.3015 Y46.8778
G01 X45.3902 Y46.8910
G01 X45.4772 Y46.9127
G01 X45.5616 Y46.9429
G01 X45.6427 Y46.9813
G01 X45.7196 Y47.0274
G01 X45.7916 Y47.0808
G01 X45.8580 Y47.1410
G01 X45.9182 Y47.2074
G01 X45.9716 Y47.2794
G01 X46.0177 Y47.3563
G01 X46.0561 Y47.4374
G01 X46.0863 Y47.5218
G01 X46.1080 Y47.6088
G01 X46.1212 Y47.6975
G01 X46.1255 Y47.7895
G00 Z2.0000
G00 X43.5855 Y47.7895
G01 F60.00
G01 Z-0.0000
G01 F120.00
G01 X43.5812 Y47.8765
G01 X43.5680 Y47.9652
G01 X43.5463 Y48.0522
G01 X43.5161 Y48.1366
G01 X43.4777 Y48.2177
G01 X43.4316 Y48.2946
G01 X43.3782 Y48.3666
G01 X43.3180 Y48.4330
G01 X43.2516 Y48.4932
G01 X43.1796 Y48.5466
G01 X43.1027 Y48.5927
G01 X43.0216 Y48.6311
G01 X42.9372 Y48.6613
G01 X42.8502 Y48.6830
G01 X42.7615 Y48.6962
G01 X42.6720 Y48.7006
G01 X42.5825 Y48.6962
G01 X42.4938 Y48.6830
G01 X42.4068 Y48.6613
G01 X42.3224 Y48.6311
G01 X42.2413 Y48.5927
G01 X42.1644 Y48.5466
G01 X42.0924 Y48.4932
G01 X42.0260 Y48.4330
G01 X41.9658 Y48.3666
G01 X41.9124 Y48.2946
G01 X41.8663 Y48.2177
G01 X41.8279 Y48.1366
G01 X41.7977 Y48.0522
G01 X41.7760 Y47.9652
G01 X41.7628 Y47.8765
G01 X41.7584 Y47.7870
G01 X41.7628 Y47.6975
G01 X41.7760 Y47.6088
G01 X41.7977 Y47.5218
G01 X41.8279 Y47.4374
G01 X41.8663 Y47.3563
G01 X41.9124 Y47.2794
G01 X41.9658 Y47.2074
G01 X42.0260 Y47.1410
G01 X42.0924 Y47.0808
G01 X42.1644 Y47.0274
G01 X42.2413 Y46.9813
G01 X42.3224 Y46.9429
G01 X42.4068 Y46.9127
G01 X42.4938 Y46.8910
G01 X42.5825 Y46.8778
G01 X42.6720 Y46.8734
G01 X42.7615 Y46.8778
G01 X42.8502 Y46.8910
G01 X42.9372 Y46.9127
G01 X43.0216 Y46.9429
G01 X43.1027 Y46.9813
G01 X43.1796 Y47.0274
G01 X43.2516 Y47.0808
G01 X43.3180 Y47.1410
G01 X43.3782 Y47.2074
G01 X43.4316 Y47.2794
G01 X43.4777 Y47.3563
G01 X43.5161 Y47.4374
G01 X43.5463 Y47.5218
G01 X43.5680 Y47.6088
G01 X43.5812 Y47.6975
G01 X43.5855 Y47.7895
G00 Z2.0000
G00 X41.0455 Y47.7895
G01 F60.00
G01 Z-0.0000
G01 F120.00
G01 X41.0412 Y47.8765
G01 X41.0280 Y47.9652
G01 X41.0063 Y48.0522
G01 X40.9761 Y48.1366
G01 X40.9377 Y48.2177
G01 X40.8916 Y48.2946
G01 X40.8382 Y48.3666
G01 X40.7780 Y48.4330
G01 X40.7116 Y48.4932
G01 X40.6396 Y48.5466
G01 X40.5627 Y48.5927
G01 X40.4816 Y48.6311
G01 X40.3972 Y48.6613
G01 X40.3102 Y48.6830
G01 X40.2215 Y48.6962
G01 X40.1320 Y48.7006
G01 X40.0425 Y48.6962
G01 X39.9538 Y48.6830
G01 X39.8668 Y48.6613
G01 X39.7824 Y48.6311
G01 X39.7013 Y48.5927
G01 X39.6244 Y48.5466
G01 X39.5524 Y48.4932
G01 X39.4860 Y48.4330
G01 X39.4258 Y48.3666
G01 X39.3724 Y48.2946
G01 X39.3263 Y48.2177
G01 X39.2879 Y48.1366
G01 X39.2577 Y48.0522
G01 X39.2360 Y47.9652
G01 X39.2228 Y47.8765
G01 X39.2184 Y47.7870
G01 X39.2228 Y47.6975
G01 X39.2360 Y47.6088
G01 X39.2577 Y47.5218
G01 X39.2879 Y47.4374
G01 X39.3263 Y47.3563
G01 X39.3724 Y47.2794
G01 X39.4258 Y47.2074
G01 X39.4860 Y47.1410
G01 X39.5524 Y47.0808
G01 X39.6244 Y47.0274
G01 X39.7013 Y46.9813
G01 X39.7824 Y46.9429
G01 X39.8668 Y46.9127
G01 X39.9538 Y46.8910
G01 X40.0425 Y46.8778
G01 X40.1320 Y46.8734
G01 X40.2215 Y46.8778
G01 X40.3102 Y46.8910
G01 X40.3972 Y46.9127
G01 X40.4816 Y46.9429
G01 X40.5627 Y46.9813
G01 X40.6396 Y47.0274
G01 X40.7116 Y47.0808
G01 X40.7780 Y47.1410
G01 X40.8382 Y47.2074
G01 X40.8916 Y47.2794
G01 X40.9377 Y47.3563
G01 X40.9761 Y47.4374
G01 X41.0063 Y47.5218
G01 X41.0280 Y47.6088
G01 X41.0412 Y47.6975
G01 X41.0455 Y47.7895
G00 Z2.0000
G00 X38.5055 Y47.7895
G01 F60.00
G01 Z-0.0000
G01 F120.00
G01 X38.5012 Y47.8765
G01 X38.4880 Y47.9652
G01 X38.4663 Y48.0522
G01 X38.4361 Y48.1366
G01 X38.3977 Y48.2177
G01 X38.3516 Y48.2946
G01 X38.2982 Y48.3666
G01 X38.2380 Y48.4330
G01 X38.1716 Y48.4932
G01 X38.0996 Y48.5466
G01 X38.0227 Y48.5927
G01 X37.9416 Y48.6311
G01 X37.8572 Y48.6613
G01 X37.7702 Y48.6830
G01 X37.6815 Y48.6962
G01 X37.5920 Y48.7006
G01 X37.5025 Y48.6962
G01 X37.4138 Y48.6830
G01 X37.3268 Y48.6613
G01 X37.2424 Y48.6311
G01 X37.1613 Y48.5927
G01 X37.0844 Y48.5466
G01 X37.0124 Y48.4932
G01 X36.9460 Y48.4330
G01 X36.8858 Y48.3666
G01 X36.8324 Y48.2946
G01 X36.7863 Y48.2177
G01 X36.7479 Y48.1366
G01 X36.7177 Y48.0522
G01 X36.6960 Y47.9652
G01 X36.6828 Y47.8765
G01 X36.6784 Y47.7870
G01 X36.6828 Y47.6975
G01 X36.6960 Y47.6088
G01 X36.7177 Y47.5218
G01 X36.7479 Y47.4374
G01 X36.7863 Y47.3563
G01 X36.8324 Y47.2794
G01 X36.8858 Y47.2074
G01 X36.9460 Y47.1410
G01 X37.0124 Y47.0808
G01 X37.0844 Y47.0274
G01 X37.1613 Y46.9813
G01 X37.2424 Y46.9429
G01 X37.3268 Y46.9127
G01 X37.4138 Y46.8910
G01 X37.5025 Y46.8778
G01 X37.5920 Y46.8734
G01 X37.6815 Y46.8778
G01 X37.7702 Y46.8910
G01 X37.8572 Y46.9127
G01 X37.9416 Y46.9429
G01 X38.0227 Y46.9813
G01 X38.0996 Y47.0274
G01 X38.1716 Y47.0808
G01 X38.2380 Y47.1410
G01 X38.2982 Y47.2074
G01 X38.3516 Y47.2794
G01 X38.3977 Y47.3563
G01 X38.4361 Y47.4374
G01 X38.4663 Y47.5218
G01 X38.4880 Y47.6088
G01 X38.5012 Y47.6975
G01 X38.5055 Y47.7895
G00 Z2.0000
G00 X35.9655 Y47.7895
G01 F60.00
G01 Z-0.0000
G01 F120.00
G01 X35.9612 Y47.8765
G01 X35.9480 Y47.9652
G01 X35.9263 Y48.0522
G01 X35.8961 Y48.1366
G01 X35.8577 Y48.2177
G01 X35.8116 Y48.2946
G01 X35.7582 Y48.3666
G01 X35.6980 Y48.4330
G01 X35.6316 Y48.4932
G01 X35.5596 Y48.5466
G01 X35.4827 Y48.5927
G01 X35.4016 Y48.6311
G01 X35.3172 Y48.6613
G01 X35.2302 Y48.6830
G01 X35.1415 Y48.6962
G01 X35.0520 Y48.7006
G01 X34.9625 Y48.6962
G01 X34.8738 Y48.6830
G01 X34.7868 Y48.6613
G01 X34.7024 Y48.6311
G01 X34.6213 Y48.5927
G01 X34.5444 Y48.5466
G01 X34.4724 Y48.4932
G01 X34.4060 Y48.4330
G01 X34.3458 Y48.3666
G01 X34.2924 Y48.2946
G01 X34.2463 Y48.2177
G01 X34.2079 Y48.1366
G01 X34.1777 Y48.0522
G01 X34.1560 Y47.9652
G01 X34.1428 Y47.8765
G01 X34.1384 Y47.7870
G01 X34.1428 Y47.6975
G01 X34.1560 Y47.6088
G01 X34.1777 Y47.5218
G01 X34.2079 Y47.4374
G01 X34.2463 Y47.3563
G01 X34.2924 Y47.2794
G01 X34.3458 Y47.2074
G01 X34.4060 Y47.1410
G01 X34.4724 Y47.0808
G01 X34.5444 Y47.0274
G01 X34.6213 Y46.9813
G01 X34.7024 Y46.9429
G01 X34.7868 Y46.9127
G01 X34.8738 Y46.8910
G01 X34.9625 Y46.8778
G01 X35.0520 Y46.8734
G01 X35.1415 Y46.8778
G01 X35.2302 Y46.8910
G01 X35.3172 Y46.9127
G01 X35.4016 Y46.9429
G01 X35.4827 Y46.9813
G01 X35.5596 Y47.0274
G01 X35.6316 Y47.0808
G01 X35.6980 Y47.1410
G01 X35.7582 Y47.2074
G01 X35.8116 Y47.2794
G01 X35.8577 Y47.3563
G01 X35.8961 Y47.4374
G01 X35.9263 Y47.5218
G01 X35.9480 Y47.6088
G01 X35.9612 Y47.6975
G01 X35.9655 Y47.7895
G00 Z2.0000
G00 X26.9240 Y44.8160
G01 F60.00
G01 Z-0.0000
G01 F120.00
G01 X28.7020 Y44.8160
G01 X28.7118 Y44.8170
G01 X28.7211 Y44.8198
G01 X28.7298 Y44.8244
G01 X28.7337 Y44.8273
G01 X28.7382 Y44.8315
G01 X28.7442 Y44.8393
G01 X28.7486 Y44.8480
G01 X28.7510 Y44.8562
G01 X28.7520 Y44.8660
G01 X28.7520 Y46.6440
G01 X28.7510 Y46.6538
G01 X28.7498 Y46.6585
G01 X28.7477 Y46.6643
G01 X28.7429 Y46.6728
G01 X28.7365 Y46.6802
G01 X28.7287 Y46.6862
G01 X28.7211 Y46.6902
G01 X28.7118 Y46.6930
G01 X28.7020 Y46.6940
G01 X26.9240 Y46.6940
G01 X26.9191 Y46.6938
G01 X26.9130 Y46.6928
G01 X26.9037 Y46.6897
G01 X26.8952 Y46.6849
G01 X26.8878 Y46.6785
G01 X26.8818 Y46.6707
G01 X26.8774 Y46.6620
G01 X26.8747 Y46.6525
G01 X26.8740 Y46.6440
G01 X26.8740 Y44.8648
G01 X26.8752 Y44.8550
G01 X26.8783 Y44.8457
G01 X26.8831 Y44.8372
G01 X26.8895 Y44.8298
G01 X26.8962 Y44.8244
G01 X26.9049 Y44.8198
G01 X26.9142 Y44.8170
G01 X26.9240 Y44.8160
G00 Z2.0000
G00 X26.2119 Y45.7575
G01 F60.00
G01 Z-0.0000
G01 F120.00
G01 X26.2075 Y45.8470
G01 X26.1940 Y45.9382
G01 X26.1716 Y46.0276
G01 X26.1405 Y46.1143
G01 X26.1011 Y46.1976
G01 X26.0537 Y46.2767
G01 X25.9989 Y46.3507
G01 X25.9370 Y46.4190
G01 X25.8687 Y46.4809
G01 X25.7947 Y46.5357
G01 X25.7156 Y46.5831
G01 X25.6323 Y46.6225
G01 X25.5456 Y46.6536
G01 X25.4562 Y46.6760
G01 X25.3650 Y46.6895
G01 X25.2730 Y46.6940
G01 X25.1810 Y46.6895
G01 X25.0898 Y46.6760
G01 X25.0004 Y46.6536
G01 X24.9137 Y46.6225
G01 X24.8304 Y46.5831
G01 X24.7513 Y46.5357
G01 X24.6773 Y46.4809
G01 X24.6090 Y46.4190
G01 X24.5471 Y46.3507
G01 X24.4923 Y46.2767
G01 X24.4449 Y46.1976
G01 X24.4055 Y46.1143
G01 X24.3744 Y46.0276
G01 X24.3520 Y45.9382
G01 X24.3385 Y45.8470
G01 X24.3340 Y45.7550
G01 X24.3385 Y45.6630
G01 X24.3520 Y45.5718
G01 X24.3744 Y45.4824
G01 X24.4055 Y45.3957
G01 X24.4449 Y45.3124
G01 X24.4923 Y45.2333
G01 X24.5471 Y45.1593
G01 X24.6090 Y45.0910
G01 X24.6773 Y45.0291
G01 X24.7513 Y44.9743
G01 X24.8304 Y44.9269
G01 X24.9137 Y44.8875
G01 X25.0004 Y44.8564
G01 X25.0898 Y44.8340
G01 X25.1810 Y44.8205
G01 X25.2730 Y44.8160
G01 X25.3650 Y44.8205
G01 X25.4562 Y44.8340
G01 X25.5456 Y44.8564
G01 X25.6323 Y44.8875
G01 X25.7156 Y44.9269
G01 X25.7947 Y44.9743
G01 X25.8687 Y45.0291
G01 X25.9370 Y45.0910
G01 X25.9989 Y45.1593
G01 X26.0537 Y45.2333
G01 X26.1011 Y45.3124
G01 X26.1405 Y45.3957
G01 X26.1716 Y45.4824
G01 X26.1940 Y45.5718
G01 X26.2075 Y45.6630
G01 X26.2119 Y45.7575
G00 Z2.0000
G00 X23.6719 Y45.7575
G01 F60.00
G01 Z-0.0000
G01 F120.00
G01 X23.6675 Y45.8470
G01 X23.6540 Y45.9382
G01 X23.6316 Y46.0276
G01 X23.6005 Y46.1143
G01 X23.5611 Y46.1976
G01 X23.5137 Y46.2767
G01 X23.4589 Y46.3507
G01 X23.3970 Y46.4190
G01 X23.3287 Y46.4809
G01 X23.2547 Y46.5357
G01 X23.1756 Y46.5831
G01 X23.0923 Y46.6225
G01 X23.0056 Y46.6536
G01 X22.9162 Y46.6760
G01 X22.8250 Y46.6895
G01 X22.7330 Y46.6940
G01 X22.6410 Y46.6895
G01 X22.5498 Y46.6760
G01 X22.4604 Y46.6536
G01 X22.3737 Y46.6225
G01 X22.2904 Y46.5831
G01 X22.2113 Y46.5357
G01 X22.1373 Y46.4809
G01 X22.0690 Y46.4190
G01 X22.0071 Y46.3507
G01 X21.9523 Y46.2767
G01 X21.9049 Y46.1976
G01 X21.8655 Y46.1143
G01 X21.8344 Y46.0276
G01 X21.8120 Y45.9382
G01 X21.7985 Y45.8470
G01 X21.7940 Y45.7550
G01 X21.7985 Y45.6630
G01 X21.8120 Y45.5718
G01 X21.8344 Y45.4824
G01 X21.8655 Y45.3957
G01 X21.9049 Y45.3124
G01 X21.9523 Y45.2333
G01 X22.0071 Y45.1593
G01 X22.0690 Y45.0910
G01 X22.1373 Y45.0291
G01 X22.2113 Y44.9743
G01 X22.2904 Y44.9269
G01 X22.3737 Y44.8875
G01 X22.4604 Y44.8564
G01 X22.5498 Y44.8340
G01 X22.6410 Y44.8205
G01 X22.7330 Y44.8160
G01 X22.8250 Y44.8205
G01 X22.9162 Y44.8340
G01 X23.0056 Y44.8564
G01 X23.0923 Y44.8875
G01 X23.1756 Y44.9269
G01 X23.2547 Y44.9743
G01 X23.3287 Y45.0291
G01 X23.3970 Y45.0910
G01 X23.4589 Y45.1593
G01 X23.5137 Y45.2333
G01 X23.5611 Y45.3124
G01 X23.6005 Y45.3957
G01 X23.6316 Y45.4824
G01 X23.6540 Y45.5718
G01 X23.6675 Y45.6630
G01 X23.6719 Y45.7575
G00 Z2.0000
G00 X21.1319 Y45.7575
G01 F60.00
G01 Z-0.0000
G01 F120.00
G01 X21.1275 Y45.8470
G01 X21.1140 Y45.9382
G01 X21.0916 Y46.0276
G01 X21.0605 Y46.1143
G01 X21.0211 Y46.1976
G01 X20.9737 Y46.2767
G01 X20.9189 Y46.3507
G01 X20.8570 Y46.4190
G01 X20.7887 Y46.4809
G01 X20.7147 Y46.5357
G01 X20.6356 Y46.5831
G01 X20.5523 Y46.6225
G01 X20.4656 Y46.6536
G01 X20.3762 Y46.6760
G01 X20.2850 Y46.6895
G01 X20.1930 Y46.6940
G01 X20.1010 Y46.6895
G01 X20.0098 Y46.6760
G01 X19.9204 Y46.6536
G01 X19.8337 Y46.6225
G01 X19.7504 Y46.5831
G01 X19.6713 Y46.5357
G01 X19.5973 Y46.4809
G01 X19.5290 Y46.4190
G01 X19.4671 Y46.3507
G01 X19.4123 Y46.2767
G01 X19.3649 Y46.1976
G01 X19.3255 Y46.1143
G01 X19.2944 Y46.0276
G01 X19.2720 Y45.9382
G01 X19.2585 Y45.8470
G01 X19.2540 Y45.7550
G01 X19.2585 Y45.6630
G01 X19.2720 Y45.5718
G01 X19.2944 Y45.4824
G01 X19.3255 Y45.3957
G01 X19.3649 Y45.3124
G01 X19.4123 Y45.2333
G01 X19.4671 Y45.1593
G01 X19.5290 Y45.0910
G01 X19.5973 Y45.0291
G01 X19.6713 Y44.9743
G01 X19.7504 Y44.9269
G01 X19.8337 Y44.8875
G01 X19.9204 Y44.8564
G01 X20.0098 Y44.8340
G01 X20.1010 Y44.8205
G01 X20.1930 Y44.8160
G01 X20.2850 Y44.8205
G01 X20.3762 Y44.8340
G01 X20.4656 Y44.8564
G01 X20.5523 Y44.8875
G01 X20.6356 Y44.9269
G01 X20.7147 Y44.9743
G01 X20.7887 Y45.0291
G01 X20.8570 Y45.0910
G01 X20.9189 Y45.1593
G01 X20.9737 Y45.2333
G01 X21.0211 Y45.3124
G01 X21.0605 Y45.3957
G01 X21.0916 Y45.4824
G01 X21.1140 Y45.5718
G01 X21.1275 Y45.6630
G01 X21.1319 Y45.7575
G00 Z2.0000
G00 X18.5919 Y45.7575
G01 F60.00
G01 Z-0.0000
G01 F120.00
G01 X18.5875 Y45.8470
G01 X18.5740 Y45.9382
G01 X18.5516 Y46.0276
G01 X18.5205 Y46.1143
G01 X18.4811 Y46.1976
G01 X18.4337 Y46.2767
G01 X18.3789 Y46.3507
G01 X18.3170 Y46.4190
G01 X18.2487 Y46.4809
G01 X18.1747 Y46.5357
G01 X18.0956 Y46.5831
G01 X18.0123 Y46.6225
G01 X17.9256 Y46.6536
G01 X17.8362 Y46.6760
G01 X17.7450 Y46.6895
G01 X17.6530 Y46.6940
G01 X17.5610 Y46.6895
G01 X17.4698 Y46.6760
G01 X17.3804 Y46.6536
G01 X17.2937 Y46.6225
G01 X17.2104 Y46.5831
G01 X17.1313 Y46.5357
G01 X17.0573 Y46.4809
G01 X16.9890 Y46.4190
G01 X16.9271 Y46.3507
G01 X16.8723 Y46.2767
G01 X16.8249 Y46.1976
G01 X16.7855 Y46.1143
G01 X16.7544 Y46.0276
G01 X16.7320 Y45.9382
G01 X16.7185 Y45.8470
G01 X16.7140 Y45.7550
G01 X16.7185 Y45.6630
G01 X16.7320 Y45.5718
G01 X16.7544 Y45.4824
G01 X16.7855 Y45.3957
G01 X16.8249 Y45.3124
G01 X16.8723 Y45.2333
G01 X16.9271 Y45.1593
G01 X16.9890 Y45.0910
G01 X17.0573 Y45.0291
G01 X17.1313 Y44.9743
G01 X17.2104 Y44.9269
G01 X17.2937 Y44.8875
G01 X17.3804 Y44.8564
G01 X17.4698 Y44.8340
G01 X17.5610 Y44.8205
G01 X17.6530 Y44.8160
G01 X17.7450 Y44.8205
G01 X17.8362 Y44.8340
G01 X17.9256 Y44.8564
G01 X18.0123 Y44.8875
G01 X18.0956 Y44.9269
G01 X18.1747 Y44.9743
G01 X18.2487 Y45.0291
G01 X18.3170 Y45.0910
G01 X18.3789 Y45.1593
G01 X18.4337 Y45.2333
G01 X18.4811 Y45.3124
G01 X18.5205 Y45.3957
G01 X18.5516 Y45.4824
G01 X18.5740 Y45.5718
G01 X18.5875 Y45.6630
G01 X18.5919 Y45.7575
G00 Z2.0000
G00 X16.0519 Y45.7575
G01 F60.00
G01 Z-0.0000
G01 F120.00
G01 X16.0475 Y45.8470
G01 X16.0340 Y45.9382
G01 X16.0116 Y46.0276
G01 X15.9805 Y46.1143
G01 X15.9411 Y46.1976
G01 X15.8937 Y46.2767
G01 X15.8389 Y46.3507
G01 X15.7770 Y46.4190
G01 X15.7087 Y46.4809
G01 X15.6347 Y46.5357
G01 X15.5556 Y46.5831
G01 X15.4723 Y46.6225
G01 X15.3856 Y46.6536
G01 X15.2962 Y46.6760
G01 X15.2050 Y46.6895
G01 X15.1130 Y46.6940
G01 X15.0210 Y46.6895
G01 X14.9298 Y46.6760
G01 X14.8404 Y46.6536
G01 X14.7537 Y46.6225
G01 X14.6704 Y46.5831
G01 X14.5913 Y46.5357
G01 X14.5173 Y46.4809
G01 X14.4490 Y46.4190
G01 X14.3871 Y46.3507
G01 X14.3323 Y46.2767
G01 X14.2849 Y46.1976
G01 X14.2455 Y46.1143
G01 X14.2144 Y46.0276
G01 X14.1920 Y45.9382
G01 X14.1785 Y45.8470
G01 X14.1740 Y45.7550
G01 X14.1785 Y45.6630
G01 X14.1920 Y45.5718
G01 X14.2144 Y45.4824
G01 X14.2455 Y45.3957
G01 X14.2849 Y45.3124
G01 X14.3323 Y45.2333
G01 X14.3871 Y45.1593
G01 X14.4490 Y45.0910
G01 X14.5173 Y45.0291
G01 X14.5913 Y44.9743
G01 X14.6704 Y44.9269
G01 X14.7537 Y44.8875
G01 X14.8404 Y44.8564
G01 X14.9298 Y44.8340
G01 X15.0210 Y44.8205
G01 X15.1130 Y44.8160
G01 X15.2050 Y44.8205
G01 X15.2962 Y44.8340
G01 X15.3856 Y44.8564
G01 X15.4723 Y44.8875
G01 X15.5556 Y44.9269
G01 X15.6347 Y44.9743
G01 X15.7087 Y45.0291
G01 X15.7770 Y45.0910
G01 X15.8389 Y45.1593
G01 X15.8937 Y45.2333
G01 X15.9411 Y45.3124
G01 X15.9805 Y45.3957
G01 X16.0116 Y45.4824
G01 X16.0340 Y45.5718
G01 X16.0475 Y45.6630
G01 X16.0519 Y45.7575
G00 Z2.0000
G00 X9.9060 Y44.8160
G01 F60.00
G01 Z-0.0000
G01 F120.00
G01 X11.6840 Y44.8160
G01 X11.6938 Y44.8170
G01 X11.7031 Y44.8198
G01 X11.7118 Y44.8244
G01 X11.7157 Y44.8273
G01 X11.7202 Y44.8315
G01 X11.7262 Y44.8393
G01 X11.7306 Y44.8480
G01 X11.7330 Y44.8562
G01 X11.7340 Y44.8660
G01 X11.7340 Y46.6440
G01 X11.7338 Y46.6489
G01 X11.7328 Y46.6550
G01 X11.7297 Y46.6643
G01 X11.7249 Y46.6728
G01 X11.7185 Y46.6802
G01 X11.7107 Y46.6862
G01 X11.7031 Y46.6902
G01 X11.6938 Y46.6930
G01 X11.6840 Y46.6940
G01 X9.9060 Y46.6940
G01 X9.9011 Y46.6938
G01 X9.8950 Y46.6928
G01 X9.8857 Y46.6897
G01 X9.8772 Y46.6849
G01 X9.8698 Y46.6785
G01 X9.8638 Y46.6707
G01 X9.8598 Y46.6631
G01 X9.8570 Y46.6538
G01 X9.8560 Y46.6440
G01 X9.8560 Y44.8648
G01 X9.8572 Y44.8550
G01 X9.8603 Y44.8457
G01 X9.8651 Y44.8372
G01 X9.8715 Y44.8298
G01 X9.8782 Y44.8244
G01 X9.8869 Y44.8198
G01 X9.8962 Y44.8170
G01 X9.9060 Y44.8160
G00 Z2.0000
G00 X9.1939 Y45.7575
G01 F60.00
G01 Z-0.0000
G01 F120.00
G01 X9.1895 Y45.8470
G01 X9.1760 Y45.9382
G01 X9.1536 Y46.0276
G01 X9.1225 Y46.1143
G01 X9.0831 Y46.1976
G01 X9.0357 Y46.2767
G01 X8.9809 Y46.3507
G01 X8.9190 Y46.4190
G01 X8.8507 Y46.4809
G01 X8.7767 Y46.5357
G01 X8.6976 Y46.5831
G01 X8.6143 Y46.6225
G01 X8.5276 Y46.6536
G01 X8.4382 Y46.6760
G01 X8.3470 Y46.6895
G01 X8.2550 Y46.6940
G01 X8.1630 Y46.6895
G01 X8.0718 Y46.6760
G01 X7.9824 Y46.6536
G01 X7.8957 Y46.6225
G01 X7.8124 Y46.5831
G01 X7.7333 Y46.5357
G01 X7.6593 Y46.4809
G01 X7.5910 Y46.4190
G01 X7.5291 Y46.3507
G01 X7.4743 Y46.2767
G01 X7.4269 Y46.1976
G01 X7.3875 Y46.1143
G01 X7.3564 Y46.0276
G01 X7.3340 Y45.9382
G01 X7.3205 Y45.8470
G01 X7.3160 Y45.7550
G01 X7.3205 Y45.6630
G01 X7.3340 Y45.5718
G01 X7.3564 Y45.4824
G01 X7.3875 Y45.3957
G01 X7.4269 Y45.3124
G01 X7.4743 Y45.2333
G01 X7.5291 Y45.1593
G01 X7.5910 Y45.0910
G01 X7.6593 Y45.0291
G01 X7.7333 Y44.9743
G01 X7.8124 Y44.9269
G01 X7.8957 Y44.8875
G01 X7.9824 Y44.8564
G01 X8.0718 Y44.8340
G01 X8.1630 Y44.8205
G01 X8.2550 Y44.8160
G01 X8.3470 Y44.8205
G01 X8.4382 Y44.8340
G01 X8.5276 Y44.8564
G01 X8.6143 Y44.8875
G01 X8.6976 Y44.9269
G01 X8.7767 Y44.9743
G01 X8.8507 Y45.0291
G01 X8.9190 Y45.0910
G01 X8.9809 Y45.1593
G01 X9.0357 Y45.2333
G01 X9.0831 Y45.3124
G01 X9.1225 Y45.3957
G01 X9.1536 Y45.4824
G01 X9.1760 Y45.5718
G01 X9.1895 Y45.6630
G01 X9.1939 Y45.7575
G00 Z2.0000
G00 X6.6539 Y45.7575
G01 F60.00
G01 Z-0.0000
G01 F120.00
G01 X6.6495 Y45.8470
G01 X6.6360 Y45.9382
G01 X6.6136 Y46.0276
G01 X6.5825 Y46.1143
G01 X6.5431 Y46.1976
G01 X6.4957 Y46.2767
G01 X6.4409 Y46.3507
G01 X6.3790 Y46.4190
G01 X6.3107 Y46.4809
G01 X6.2367 Y46.5357
G01 X6.1576 Y46.5831
G01 X6.0743 Y46.6225
G01 X5.9876 Y46.6536
G01 X5.8982 Y46.6760
G01 X5.8070 Y46.6895
G01 X5.7150 Y46.6940
G01 X5.6230 Y46.6895
G01 X5.5318 Y46.6760
G01 X5.4424 Y46.6536
G01 X5.3557 Y46.6225
G01 X5.2724 Y46.5831
G01 X5.1933 Y46.5357
G01 X5.1193 Y46.4809
G01 X5.0510 Y46.4190
G01 X4.9891 Y46.3507
G01 X4.9343 Y46.2767
G01 X4.8869 Y46.1976
G01 X4.8475 Y46.1143
G01 X4.8164 Y46.0276
G01 X4.7940 Y45.9382
G01 X4.7805 Y45.8470
G01 X4.7760 Y45.7550
G01 X4.7805 Y45.6630
G01 X4.7940 Y45.5718
G01 X4.8164 Y45.4824
G01 X4.8475 Y45.3957
G01 X4.8869 Y45.3124
G01 X4.9343 Y45.2333
G01 X4.9891 Y45.1593
G01 X5.0510 Y45.0910
G01 X5.1193 Y45.0291
G01 X5.1933 Y44.9743
G01 X5.2724 Y44.9269
G01 X5.3557 Y44.8875
G01 X5.4424 Y44.8564
G01 X5.5318 Y44.8340
G01 X5.6230 Y44.8205
G01 X5.7150 Y44.8160
G01 X5.8070 Y44.8205
G01 X5.8982 Y44.8340
G01 X5.9876 Y44.8564
G01 X6.0743 Y44.8875
G01 X6.1576 Y44.9269
G01 X6.2367 Y44.9743
G01 X6.3107 Y45.0291
G01 X6.3790 Y45.0910
G01 X6.4409 Y45.1593
G01 X6.4957 Y45.2333
G01 X6.5431 Y45.3124
G01 X6.5825 Y45.3957
G01 X6.6136 Y45.4824
G01 X6.6360 Y45.5718
G01 X6.6495 Y45.6630
G01 X6.6539 Y45.7575
G00 Z2.0000
M05
G00 Z2.0000
G00 Z15.00


